;FLAVOR:Marlin
;TIME:4269
;Filament used: 4.44294m
;Layer height: 0.3
;MINX:39.616
;MINY:61.864
;MINZ:0.3
;MAXX:240.393
;MAXY:216.853
;MAXZ:13.5
;Generated with Cura_SteamEngine 4.4.1
M105
M109 S0
M82 ;absolute extrusion mode
; LULZBOT TAZ 6 DUAL EXTRUDER V3
; START CODE FOR PETG NO SUPPORT

M73 P0                        ; clear GLCD progress bar
M75 		; start GLCD timer
G26                          ; clear potential 'probe fail' condition
M107                         ; disable fans
M420 S0                      ; disable leveling matrix
G90                          ; absolute positioning
M117 Soften Temp...

; --- SOFTEN TEMP
T0
M104 S140		; soften filament -- HARDCODED TEMP
M140 S75		; get bed heating up
M109 R140
; ----------

G28
; G28 X Y                      ; home X and Y
; G1 X-17 F3000                ; clear X endstop
; G1 Y258 F3000                ; move over the Z_MIN switch
; G1 X-19 F3000                ; move left as far as possible
M117 Heating...              ; LCD status message
; G28 Z                        ; home Z

; --- RETRACTION
T0                           ; select this extruder first
M82                          ; set extruder to absolute mode
G92 E0                       ; set extruder to zero
G1  E-5 F125                 ; retract XXmm of filament
; ----------

G1 X-19 Y100 F5000          ; move above wiper pad

; --- WIPING TEMP
M117 Wiping temp...			; LCD status message
M107						; Turn off fan
M109 R180 T0				; wait for T0 to reach temp
; ----------

T0                           ; switch extruders
G1 Z1                        ; push nozzle into wiper
G1 X -19 Y90 F1000                   ; slow wipe
G1 X -19 Y90 F1000                   ; slow wipe
G1 X -19 Y85 F1000                   ; slow wipe
G1 X -19 Y90 F1000                   ; slow wipe
G1 X -19 Y80 F1000                   ; slow wipe
G1 X -19 Y95 F1000                   ; slow wipe
G1 X -19 Y75 F2000                   ; fast wipe
G1 X -19 Y65 F2000                   ; fast wipe
G1 X -19 Y70 F2000                   ; fast wipe
G1 X -19 Y60 F2000                   ; fast wipe
G1 X -19 Y55 F2000                   ; fast wipe
G1 X -19 Y50 F2000                   ; fast wipe
G1 X -19 Y40 F2000                   ; fast wipe
G1 X -19 Y45 F2000                   ; fast wipe
G1 X -19 Y35 F2000                   ; fast wipe
G1 X -19 Y40 F2000                   ; fast wipe
G1 X -19 Y70 F2000                   ; fast wipe
G1 X -19 Y30 Z2 F2000                ; fast wipe
G1 X -19 Y35 F2000                   ; fast wipe
G1 X -19 Y25 F2000                   ; fast wipe
G1 X -19 Y30 F2000                   ; fast wipe
G1 X -19 Y25 Z1.5 F1000              ; slow wipe
G1 X -19 Y23 F1000                   ; slow wipe
G1 X -19 Y10 Z25                      ; raise extruder

; --- probing temp
M106
M109 R140
M107

M204 S175                    ; set accel for probing
G29                          ; probe sequence (for auto-leveling)
M420 S1                      ; enable leveling matrix
M425 Z					     ; use measured Z backlash for compensation
M425 Z F0		    		 ; turn off measured Z backlash compensation. (if activated in the quality settings, this command will automatically be ignored)
M204 S500                    ; set accel back to normal

; --- PRINT TEMP
M104 S230 T0				 ; set extruder temp -- HARDCODED TEMP
; ----------

G1 X100 Y-25 Z0.5 F4500      ; move to open space
M400                         ; clear buffer
M117 Heating...              ; LCD status message

; --- PRINT TEMP
M109 R230 T0				 ; set extruder temp and wait -- HARDCODED TEMP
; ----------

M117 Purging...              ; LCD status message

; -------------------- PURGE EXT 1 ------------------------------------
T0                           ; select this extruder first
G1  E0 F125  	             ; undo retraction
G92 E-50                     ; set extruder negative amount to purge
G1  E0 F125                  ; purge XXmm of filament

T0
G1 Z0.5                      ; clear bed (barely)
G1 X100 Y0 F5000             ; move above bed to shear off filament
M400                         ; clear buffer
M107

; -------------------- TURN EXT 2 OFF FOR SINGLE EXTRUDER PRINT ------------------
; M104 S0 T1                     ; T1 hotend off
; --------------------------------------------------------------------------------

M117 TAZ Printing...         ; LCD status message

G92 E0
T0
M109 R230
G92 E0
G1 F1500 E-7
;LAYER_COUNT:45
;LAYER:0
M107
G0 F7200 X59.965 Y64.335 Z0.3
;TYPE:SKIRT
G1 F1500 E0.15675
G1 X60.268 Y64.768 E0.16918
G1 X60.914 Y65.783 E0.19747
G1 X62.359 Y67.986 E0.25942
G1 X63.888 Y70.174 E0.32218
G1 X65.475 Y72.318 E0.3849
G1 X67.096 Y74.383 E0.44663
G1 X68.804 Y76.436 E0.50943
G1 X70.552 Y78.418 E0.57156
G1 X72.364 Y80.362 E0.63405
G1 X74.196 Y82.218 E0.69537
G1 X76.14 Y84.079 E0.75865
G1 X78.101 Y85.852 E0.82081
G1 X80.132 Y87.587 E0.88362
G1 X82.18 Y89.24 E0.9455
G1 X84.31 Y90.86 E1.00842
G1 X86.44 Y92.388 E1.07006
G1 X88.629 Y93.865 E1.13215
G1 X90.909 Y95.313 E1.19566
G1 X93.173 Y96.662 E1.25763
G1 X95.466 Y97.941 E1.31936
G1 X97.835 Y99.177 E1.38219
G1 X100.214 Y100.334 E1.44439
G1 X102.619 Y101.42 E1.50644
G1 X105.111 Y102.462 E1.56995
G1 X107.541 Y103.396 E1.63116
G1 X110.063 Y104.286 E1.69405
G1 X112.569 Y105.092 E1.75595
G1 X115.126 Y105.835 E1.81856
G1 X117.706 Y106.506 E1.88124
G1 X120.287 Y107.101 E1.94352
G1 X122.877 Y107.618 E2.00562
G1 X125.474 Y108.064 E2.06758
G1 X128.128 Y108.441 E2.13061
G1 X130.755 Y108.739 E2.19277
G1 X133.38 Y108.963 E2.25472
G1 X136.05 Y109.113 E2.3176
G1 X138.67 Y109.187 E2.37923
G1 X141.32 Y109.187 E2.44154
G1 X144.001 Y109.111 E2.5046
G1 X146.657 Y108.96 E2.56715
G1 X149.266 Y108.738 E2.62872
G1 X151.895 Y108.439 E2.69093
G1 X154.551 Y108.061 E2.75401
G1 X157.144 Y107.616 E2.81588
G1 X159.767 Y107.089 E2.87878
G1 X162.316 Y106.503 E2.94028
G1 X164.883 Y105.835 E3.00265
G1 X167.457 Y105.087 E3.06568
G1 X169.96 Y104.281 E3.12751
G1 X172.484 Y103.391 E3.19044
G1 X174.953 Y102.439 E3.25266
G1 X177.388 Y101.419 E3.31473
G1 X179.796 Y100.333 E3.37684
G1 X182.204 Y99.161 E3.43981
G1 X184.537 Y97.944 E3.50168
G1 X186.852 Y96.651 E3.56403
G1 X189.138 Y95.289 E3.6266
G1 X191.392 Y93.857 E3.68939
G1 X193.551 Y92.399 E3.75065
G1 X195.74 Y90.829 E3.81399
G1 X197.823 Y89.242 E3.87556
G1 X199.911 Y87.559 E3.93862
G1 X201.916 Y85.845 E4.00064
G1 X203.898 Y84.051 E4.0635
G1 X205.779 Y82.251 E4.12472
G1 X207.679 Y80.325 E4.18833
G1 X209.464 Y78.409 E4.2499
G1 X211.23 Y76.404 E4.31273
G1 X212.901 Y74.396 E4.37415
G1 X214.56 Y72.283 E4.43732
G1 X216.134 Y70.158 E4.4995
G1 X217.639 Y67.999 E4.56138
G1 X219.108 Y65.761 E4.62432
G1 X219.656 Y64.885 E4.64862
G1 X219.807 Y64.656 E4.65507
G1 X219.86 Y64.579 E4.65727
G1 X220.293 Y64.021 E4.67388
G1 X220.786 Y63.515 E4.69049
G1 X221.333 Y63.067 E4.70711
G1 X221.928 Y62.685 E4.72374
G1 X222.561 Y62.372 E4.74034
G1 X223.227 Y62.132 E4.75699
G1 X223.914 Y61.969 E4.77359
G1 X224.833 Y61.875 E4.79531
G1 X225.155 Y61.866 E4.80288
G1 X225.33 Y61.864 E4.807
G1 X226.793 Y61.864 E4.8414
G1 X226.874 Y61.865 E4.8433
G1 X227.572 Y61.874 E4.85972
G1 X228.277 Y61.923 E4.87633
G1 X228.972 Y62.051 E4.89295
G1 X229.648 Y62.257 E4.90957
G1 X230.296 Y62.538 E4.92617
G1 X230.909 Y62.891 E4.94281
G1 X231.478 Y63.31 E4.95942
G1 X231.996 Y63.791 E4.97604
G1 X232.456 Y64.327 E4.99265
G1 X232.853 Y64.912 E5.00928
G1 X233.181 Y65.538 E5.02589
G1 X233.437 Y66.197 E5.04252
G1 X233.616 Y66.881 E5.05914
G1 X233.717 Y67.58 E5.07575
G1 X233.739 Y67.948 E5.08442
G1 X233.748 Y68.269 E5.09197
G1 X233.75 Y68.444 E5.09608
G1 X233.75 Y108.841 E6.04594
G1 X233.788 Y111.492 E6.10828
G1 X233.9 Y114.14 E6.1706
G1 X234.086 Y116.758 E6.23231
G1 X234.353 Y119.458 E6.29611
G1 X234.685 Y122.047 E6.35748
G1 X235.095 Y124.657 E6.41961
G1 X235.585 Y127.293 E6.48265
G1 X236.14 Y129.872 E6.54468
G1 X236.763 Y132.412 E6.60617
G1 X237.477 Y135.01 E6.66952
G1 X238.253 Y137.549 E6.73195
G1 X239.558 Y141.327 E6.82593
G1 X239.933 Y142.342 E6.85138
G1 X240.14 Y143.018 E6.868
G1 X240.269 Y143.713 E6.88462
G1 X240.314 Y144.752 E6.90907
G1 X240.291 Y145.334 E6.92277
G1 X240.215 Y147.99 E6.98524
G1 X240.213 Y150.642 E7.0476
G1 X240.288 Y153.315 E7.11048
G1 X240.351 Y154.423 E7.13657
G1 X240.355 Y154.504 E7.13848
G1 X240.393 Y155.366 E7.15877
G1 X240.365 Y156.291 E7.18053
G1 X240.319 Y156.731 E7.19093
G1 X240.206 Y157.429 E7.20755
G1 X240.015 Y158.109 E7.22416
G1 X239.728 Y158.806 E7.24189
G1 X239.556 Y159.161 E7.25116
G1 X239.212 Y159.779 E7.26779
G1 X238.801 Y160.354 E7.28441
G1 X238.276 Y160.929 E7.30272
G1 X237.972 Y161.223 E7.31266
G1 X237.703 Y161.468 E7.32122
G1 X236.826 Y162.223 E7.34843
G1 X234.818 Y163.999 E7.41146
G1 X232.86 Y165.83 E7.47449
G1 X230.999 Y167.674 E7.53609
G1 X229.166 Y169.595 E7.59853
G1 X227.38 Y171.575 E7.66122
G1 X225.665 Y173.588 E7.7234
G1 X223.94 Y175.737 E7.7882
G1 X223.371 Y176.466 E7.80994
G1 X223.317 Y176.534 E7.81199
G1 X222.366 Y177.719 E7.84771
G1 X222.304 Y177.795 E7.85002
G1 X221.331 Y178.969 E7.88587
G1 X221.272 Y179.039 E7.88802
G1 X220.326 Y180.147 E7.92228
G1 X220.264 Y180.219 E7.92451
G1 X219.242 Y181.38 E7.96088
G1 X219.183 Y181.447 E7.96298
G1 X218.199 Y182.533 E7.99744
G1 X218.133 Y182.604 E7.99972
G1 X217.118 Y183.69 E8.03467
G1 X217.054 Y183.757 E8.03685
G1 X216.012 Y184.839 E8.07217
G1 X215.946 Y184.907 E8.0744
G1 X214.894 Y185.967 E8.10951
G1 X214.831 Y186.029 E8.11159
G1 X213.762 Y187.076 E8.14678
G1 X213.692 Y187.144 E8.14907
G1 X212.59 Y188.19 E8.1848
G1 X212.522 Y188.254 E8.18699
G1 X211.431 Y189.259 E8.22187
G1 X211.364 Y189.319 E8.22398
G1 X210.25 Y190.316 E8.25914
G1 X210.172 Y190.385 E8.26159
G1 X209.034 Y191.37 E8.29697
G1 X208.971 Y191.424 E8.29893
G1 X207.861 Y192.359 E8.33305
G1 X207.789 Y192.419 E8.33525
G1 X206.619 Y193.375 E8.37078
G1 X206.545 Y193.434 E8.37301
G1 X205.338 Y194.39 E8.40921
G1 X205.26 Y194.451 E8.41154
G1 X204.056 Y195.374 E8.44721
G1 X203.981 Y195.43 E8.44941
G1 X202.844 Y196.275 E8.48272
G1 X202.773 Y196.328 E8.4848
G1 X201.52 Y197.232 E8.52113
G1 X201.44 Y197.288 E8.52343
G1 X200.235 Y198.129 E8.55798
G1 X200.162 Y198.179 E8.56006
G1 X198.905 Y199.03 E8.59575
G1 X198.826 Y199.083 E8.59799
G1 X197.573 Y199.904 E8.63321
G1 X197.492 Y199.956 E8.63548
G1 X196.248 Y200.744 E8.6701
G1 X196.17 Y200.793 E8.67227
G1 X194.863 Y201.594 E8.70831
G1 X194.784 Y201.641 E8.71047
G1 X193.512 Y202.395 E8.74524
G1 X193.429 Y202.443 E8.7475
G1 X192.136 Y203.183 E8.78253
G1 X192.059 Y203.227 E8.78461
G1 X190.704 Y203.977 E8.82103
G1 X190.694 Y203.983 E8.8213
G1 X188.133 Y205.395 E8.89006
G1 X185.83 Y206.754 E8.95294
G1 X183.609 Y208.15 E9.01462
G1 X181.376 Y209.645 E9.07781
G1 X179.242 Y211.163 E9.13938
G1 X177.131 Y212.754 E9.20154
G1 X174.059 Y215.229 E9.2943
G1 X173.484 Y215.641 E9.31093
G1 X172.867 Y215.985 E9.32754
G1 X172.228 Y216.252 E9.34382
G1 X171.825 Y216.395 E9.35388
G1 X171.147 Y216.593 E9.37049
G1 X170.45 Y216.714 E9.38712
G1 X169.605 Y216.754 E9.40701
G1 X169.173 Y216.745 E9.41717
G1 X168.618 Y216.708 E9.43025
G1 X168.084 Y216.649 E9.44288
G1 X165.361 Y216.386 E9.50721
G1 X162.74 Y216.207 E9.56898
G1 X160.099 Y216.102 E9.63113
G1 X157.41 Y216.071 E9.69436
G1 X154.793 Y216.115 E9.7559
G1 X152.136 Y216.235 E9.81844
G1 X147.373 Y216.599 E9.93076
G1 X147.276 Y216.605 E9.93304
G1 X145.734 Y216.699 E9.96937
G1 X145.642 Y216.704 E9.97153
G1 X144.081 Y216.776 E10.00828
G1 X143.984 Y216.78 E10.01056
G1 X142.483 Y216.826 E10.04587
G1 X142.389 Y216.828 E10.04808
G1 X140.902 Y216.851 E10.08305
G1 X140.809 Y216.852 E10.08524
G1 X139.283 Y216.853 E10.12112
G1 X139.188 Y216.852 E10.12335
G1 X137.604 Y216.829 E10.1606
G1 X137.504 Y216.827 E10.16295
G1 X136.036 Y216.782 E10.19749
G1 X135.945 Y216.779 E10.19963
G1 X134.415 Y216.71 E10.23564
G1 X134.316 Y216.704 E10.23797
G1 X132.746 Y216.608 E10.27496
G1 X132.644 Y216.601 E10.27736
G1 X128.223 Y216.259 E10.38162
G1 X125.558 Y216.13 E10.44436
G1 X122.906 Y216.078 E10.50673
G1 X120.256 Y216.099 E10.56904
G1 X117.6 Y216.197 E10.63153
G1 X114.974 Y216.367 E10.69341
G1 X111.091 Y216.744 E10.78514
G1 X110.385 Y216.772 E10.80175
G1 X109.51 Y216.696 E10.8224
G1 X109.087 Y216.629 E10.83247
G1 X108.396 Y216.479 E10.8491
G1 X107.727 Y216.252 E10.86571
G1 X107.04 Y215.925 E10.8836
G1 X106.711 Y215.743 E10.89244
G1 X106.112 Y215.366 E10.90908
G1 X105.83 Y215.153 E10.91739
G1 X105.263 Y214.699 E10.93447
G1 X105.181 Y214.632 E10.93696
G1 X104.131 Y213.762 E10.96902
G1 X101.999 Y212.095 E11.03266
G1 X99.914 Y210.558 E11.09356
G1 X97.716 Y209.03 E11.15651
G1 X95.487 Y207.573 E11.21912
G1 X93.232 Y206.191 E11.28131
G1 X90.897 Y204.846 E11.34467
G1 X89.349 Y204.004 E11.3861
G1 X89.315 Y203.986 E11.38701
G1 X87.956 Y203.236 E11.42351
G1 X87.871 Y203.188 E11.4258
G1 X86.613 Y202.468 E11.45988
G1 X86.532 Y202.421 E11.46209
G1 X85.241 Y201.656 E11.49737
G1 X85.165 Y201.61 E11.49946
G1 X83.869 Y200.817 E11.53518
G1 X83.785 Y200.765 E11.53751
G1 X82.553 Y199.984 E11.57181
G1 X82.476 Y199.934 E11.57396
G1 X81.179 Y199.085 E11.61041
G1 X81.104 Y199.035 E11.61253
G1 X79.853 Y198.19 E11.64803
G1 X79.773 Y198.135 E11.65031
G1 X78.626 Y197.334 E11.68321
G1 X78.552 Y197.282 E11.68533
G1 X77.288 Y196.372 E11.72196
G1 X77.212 Y196.317 E11.72416
G1 X76.017 Y195.429 E11.75917
G1 X75.942 Y195.372 E11.76138
G1 X74.759 Y194.465 E11.79643
G1 X74.683 Y194.406 E11.7987
G1 X73.474 Y193.449 E11.83495
G1 X73.403 Y193.392 E11.83709
G1 X72.287 Y192.482 E11.87095
G1 X72.215 Y192.422 E11.87316
G1 X71.054 Y191.446 E11.90882
G1 X70.979 Y191.382 E11.91114
G1 X69.842 Y190.395 E11.94654
G1 X69.78 Y190.34 E11.94849
G1 X68.692 Y189.37 E11.98276
G1 X68.616 Y189.302 E11.98516
G1 X67.486 Y188.261 E12.02129
G1 X67.419 Y188.197 E12.02346
G1 X66.339 Y187.172 E12.05847
G1 X66.274 Y187.11 E12.06059
G1 X65.243 Y186.103 E12.09447
G1 X65.173 Y186.034 E12.09678
G1 X64.041 Y184.893 E12.13458
G1 X63.976 Y184.826 E12.13677
G1 X62.991 Y183.803 E12.17016
G1 X62.929 Y183.738 E12.17228
G1 X61.899 Y182.637 E12.20773
G1 X61.838 Y182.571 E12.20984
G1 X60.818 Y181.449 E12.24549
G1 X60.751 Y181.373 E12.24788
G1 X59.785 Y180.275 E12.28226
G1 X59.725 Y180.206 E12.28441
G1 X58.753 Y179.068 E12.3196
G1 X58.696 Y179.001 E12.32167
G1 X57.734 Y177.842 E12.35709
G1 X57.671 Y177.764 E12.35944
G1 X56.678 Y176.528 E12.39672
G1 X56.62 Y176.456 E12.3989
G1 X56.055 Y175.731 E12.42051
G1 X54.397 Y173.665 E12.4828
G1 X52.667 Y171.631 E12.54558
G1 X50.909 Y169.677 E12.60739
G1 X49.082 Y167.759 E12.66967
G1 X47.203 Y165.893 E12.73194
G1 X45.249 Y164.062 E12.7949
G1 X42.763 Y161.874 E12.87277
G1 X42.189 Y161.387 E12.89047
G1 X41.677 Y160.9 E12.90708
G1 X41.313 Y160.477 E12.9202
G1 X41.071 Y160.168 E12.92943
G1 X40.668 Y159.587 E12.94606
G1 X40.332 Y158.965 E12.96268
G1 X40.052 Y158.259 E12.98054
G1 X39.922 Y157.862 E12.99036
G1 X39.741 Y157.179 E13.00698
G1 X39.637 Y156.48 E13.02359
G1 X39.616 Y155.7 E13.04194
G1 X39.649 Y154.748 E13.06434
G1 X39.654 Y154.637 E13.06695
G1 X39.731 Y153.172 E13.10145
G1 X39.795 Y150.524 E13.16373
G1 X39.783 Y147.868 E13.22618
G1 X39.682 Y144.724 E13.30014
G1 X39.699 Y144.018 E13.31675
G1 X39.796 Y143.318 E13.33336
G1 X40.05 Y142.401 E13.35574
G1 X41.124 Y139.426 E13.43011
G1 X41.953 Y136.91 E13.49239
G1 X42.711 Y134.366 E13.55481
G1 X43.399 Y131.798 E13.61732
G1 X44.02 Y129.188 E13.68041
G1 X44.544 Y126.656 E13.7412
G1 X45.018 Y124.003 E13.80457
G1 X45.405 Y121.411 E13.86619
G1 X45.724 Y118.772 E13.9287
G1 X45.969 Y116.1 E13.99179
G1 X46.135 Y113.493 E14.05321
G1 X46.229 Y110.835 E14.11575
G1 X46.25 Y108.791 E14.16381
G1 X46.25 Y68.788 E15.10441
G1 X46.251 Y68.685 E15.10683
G1 X46.262 Y68.02 E15.12247
G1 X46.313 Y67.315 E15.13909
G1 X46.444 Y66.62 E15.15572
G1 X46.653 Y65.945 E15.17233
G1 X46.936 Y65.297 E15.18896
G1 X47.291 Y64.686 E15.20557
G1 X47.712 Y64.118 E15.2222
G1 X48.195 Y63.602 E15.23882
G1 X48.733 Y63.144 E15.25543
G1 X49.32 Y62.749 E15.27207
G1 X49.947 Y62.423 E15.28868
G1 X50.607 Y62.17 E15.3053
G1 X51.291 Y61.993 E15.32192
G1 X52.335 Y61.875 E15.34662
G1 X52.654 Y61.866 E15.35412
G1 X52.83 Y61.864 E15.35826
G1 X54.293 Y61.864 E15.39266
G1 X54.382 Y61.865 E15.39475
