;FLAVOR:Marlin
;TIME:4201
;Filament used: 4.4184m
;Layer height: 0.3
;MINX:40.115
;MINY:62.364
;MINZ:0.3
;MAXX:239.893
;MAXY:216.353
;MAXZ:13.5
;Generated with Cura_SteamEngine 4.4.1
M105
M109 S0
M82 ;absolute extrusion mode
; LULZBOT TAZ 6 DUAL EXTRUDER V3
; START CODE FOR PETG NO SUPPORT

M73 P0                        ; clear GLCD progress bar
M75 		; start GLCD timer
G26                          ; clear potential 'probe fail' condition
M107                         ; disable fans
M420 S0                      ; disable leveling matrix
G90                          ; absolute positioning
M117 Soften Temp...

; --- SOFTEN TEMP
T0
M104 S140		; soften filament -- HARDCODED TEMP
M140 S75		; get bed heating up
M109 R140
; ----------

G28
; G28 X Y                      ; home X and Y
; G1 X-17 F3000                ; clear X endstop
; G1 Y258 F3000                ; move over the Z_MIN switch
; G1 X-19 F3000                ; move left as far as possible
M117 Heating...              ; LCD status message
; G28 Z                        ; home Z

; --- RETRACTION
T0                           ; select this extruder first
M82                          ; set extruder to absolute mode
G92 E0                       ; set extruder to zero
G1  E-5 F125                 ; retract XXmm of filament
; ----------

G1 X-19 Y100 F5000          ; move above wiper pad

; --- WIPING TEMP
M117 Wiping temp...			; LCD status message
M107						; Turn off fan
M109 R170 T0				; wait for T0 to reach temp
; ----------

T0                           ; switch extruders
G1 Z1                        ; push nozzle into wiper
G1 X -19 Y90 F1000                   ; slow wipe
G1 X -19 Y90 F1000                   ; slow wipe
G1 X -19 Y85 F1000                   ; slow wipe
G1 X -19 Y90 F1000                   ; slow wipe
G1 X -19 Y80 F1000                   ; slow wipe
G1 X -19 Y95 F1000                   ; slow wipe
G1 X -19 Y75 F2000                   ; fast wipe
G1 X -19 Y65 F2000                   ; fast wipe
G1 X -19 Y70 F2000                   ; fast wipe
G1 X -19 Y60 F2000                   ; fast wipe
G1 X -19 Y55 F2000                   ; fast wipe
G1 X -19 Y50 F2000                   ; fast wipe
G1 X -19 Y40 F2000                   ; fast wipe
G1 X -19 Y45 F2000                   ; fast wipe
G1 X -19 Y35 F2000                   ; fast wipe
G1 X -19 Y40 F2000                   ; fast wipe
G1 X -19 Y70 F2000                   ; fast wipe
G1 X -19 Y30 Z2 F2000                ; fast wipe
G1 X -19 Y35 F2000                   ; fast wipe
G1 X -19 Y25 F2000                   ; fast wipe
G1 X -19 Y30 F2000                   ; fast wipe
G1 X -19 Y25 Z1.5 F1000              ; slow wipe
G1 X -19 Y23 F1000                   ; slow wipe
G1 X -19 Y10 Z25                      ; raise extruder

; --- probing temp
M106
M109 R140
M107

M204 S200                    ; set accel for probing
G29                          ; probe sequence (for auto-leveling)
M420 S1                      ; enable leveling matrix
M425 Z					     ; use measured Z backlash for compensation
M425 Z F0		    		 ; turn off measured Z backlash compensation. (if activated in the quality settings, this command will automatically be ignored)
M204 S500                    ; set accel back to normal

; --- PRINT TEMP
M104 S235 T0				 ; set extruder temp -- HARDCODED TEMP
; ----------

G1 X100 Y-25 Z0.5 F4500      ; move to open space
M400                         ; clear buffer
M117 Heating...              ; LCD status message

; --- PRINT TEMP
M109 R235 T0				 ; set extruder temp and wait -- HARDCODED TEMP
; ----------

M117 Purging...              ; LCD status message

; -------------------- PURGE EXT 1 ------------------------------------
T0                           ; select this extruder first
G1  E0 F125  	             ; undo retraction
G92 E-50                     ; set extruder negative amount to purge
G1  E0 F125                  ; purge XXmm of filament

T0
G1 Z0.5                      ; clear bed (barely)
G1 X100 Y0 F5000             ; move above bed to shear off filament
M400                         ; clear buffer
M107

; -------------------- TURN EXT 2 OFF FOR SINGLE EXTRUDER PRINT ------------------
; M104 S0 T1                     ; T1 hotend off
; --------------------------------------------------------------------------------

M117 TAZ Printing...         ; LCD status message

G92 E0
T0
M109 R235
G92 E0
G1 F1500 E-6
;LAYER_COUNT:45
;LAYER:0
M107
G0 F7200 X58.795 Y63.809 Z0.3
;TYPE:SKIRT
G1 F1500 E0.1254
G1 X59.277 Y64.286 E0.14135
G1 X59.846 Y65.037 E0.1635
G1 X60.472 Y66.02 E0.19091
G1 X61.957 Y68.283 E0.25455
G1 X63.468 Y70.447 E0.31661
G1 X65.067 Y72.607 E0.3798
G1 X66.719 Y74.712 E0.44272
G1 X68.417 Y76.752 E0.50513
G1 X70.182 Y78.753 E0.56786
G1 X72.014 Y80.719 E0.63105
G1 X73.848 Y82.577 E0.69243
G1 X75.812 Y84.457 E0.75636
G1 X77.777 Y86.234 E0.81866
G1 X79.788 Y87.952 E0.88085
G1 X81.885 Y89.645 E0.94422
G1 X83.987 Y91.243 E1.0063
G1 X86.162 Y92.803 E1.06924
G1 X88.383 Y94.302 E1.13224
G1 X90.612 Y95.717 E1.19432
G1 X92.911 Y97.087 E1.25725
G1 X95.243 Y98.388 E1.32004
G1 X97.609 Y99.623 E1.38279
G1 X99.999 Y100.785 E1.44528
G1 X102.43 Y101.883 E1.508
G1 X104.936 Y102.931 E1.57187
G1 X107.386 Y103.873 E1.63359
G1 X109.879 Y104.752 E1.69574
G1 X112.423 Y105.57 E1.75858
G1 X114.989 Y106.316 E1.82141
G1 X117.581 Y106.99 E1.88438
G1 X120.182 Y107.59 E1.94715
G1 X122.806 Y108.114 E2.01006
G1 X125.389 Y108.557 E2.07169
G1 X128.068 Y108.937 E2.13531
G1 X130.695 Y109.235 E2.19747
G1 X133.342 Y109.461 E2.25994
G1 X136.008 Y109.611 E2.32272
G1 X138.691 Y109.687 E2.38584
G1 X141.334 Y109.687 E2.44798
G1 X144.008 Y109.611 E2.51088
G1 X146.691 Y109.458 E2.57407
G1 X149.329 Y109.234 E2.63632
G1 X151.95 Y108.936 E2.69834
G1 X154.64 Y108.553 E2.76223
G1 X157.249 Y108.105 E2.82448
G1 X159.838 Y107.586 E2.88656
G1 X162.449 Y106.985 E2.94956
G1 X165.011 Y106.318 E3.01181
G1 X167.603 Y105.565 E3.07528
G1 X170.143 Y104.747 E3.13802
G1 X172.639 Y103.867 E3.20025
G1 X175.128 Y102.907 E3.26298
G1 X177.577 Y101.882 E3.3254
G1 X180.04 Y100.771 E3.38893
G1 X182.403 Y99.621 E3.45073
G1 X184.787 Y98.377 E3.51395
G1 X187.115 Y97.077 E3.57665
G1 X189.409 Y95.71 E3.63944
G1 X191.638 Y94.294 E3.70153
G1 X193.869 Y92.788 E3.76482
G1 X196.018 Y91.246 E3.82701
G1 X198.146 Y89.625 E3.88991
G1 X200.213 Y87.959 E3.95234
G1 X202.242 Y86.225 E4.01509
G1 X204.243 Y84.413 E4.07857
G1 X206.145 Y82.592 E4.14048
G1 X208.031 Y80.682 E4.2036
G1 X209.817 Y78.764 E4.26522
G1 X211.602 Y76.737 E4.32873
G1 X213.305 Y74.69 E4.39134
G1 X214.968 Y72.574 E4.45462
G1 X216.53 Y70.464 E4.51635
G1 X218.051 Y68.282 E4.57889
G1 X219.559 Y65.984 E4.64352
G1 X220.08 Y65.151 E4.66662
G1 X220.219 Y64.94 E4.67256
G1 X220.272 Y64.863 E4.67476
G1 X220.688 Y64.328 E4.69069
G1 X221.165 Y63.846 E4.70664
G1 X221.695 Y63.423 E4.72258
G1 X222.271 Y63.066 E4.73852
G1 X222.885 Y62.779 E4.75445
G1 X223.529 Y62.566 E4.7704
G1 X224.193 Y62.431 E4.78633
G1 X224.847 Y62.375 E4.80177
G1 X225.169 Y62.366 E4.80934
G1 X225.33 Y62.364 E4.81313
G1 X226.867 Y62.364 E4.84927
G1 X227.565 Y62.373 E4.86568
G1 X228.241 Y62.422 E4.88162
G1 X228.907 Y62.55 E4.89756
G1 X229.553 Y62.756 E4.91351
G1 X230.171 Y63.036 E4.92946
G1 X230.751 Y63.386 E4.94539
G1 X231.286 Y63.803 E4.96134
G1 X231.768 Y64.279 E4.97727
G1 X232.19 Y64.81 E4.99321
G1 X232.548 Y65.386 E5.00916
G1 X232.835 Y66 E5.0251
G1 X233.047 Y66.644 E5.04104
G1 X233.183 Y67.308 E5.05698
G1 X233.239 Y67.962 E5.07241
G1 X233.248 Y68.283 E5.07996
G1 X233.25 Y68.444 E5.08375
G1 X233.25 Y108.841 E6.03361
G1 X233.288 Y111.485 E6.09578
G1 X233.401 Y114.161 E6.15876
G1 X233.591 Y116.842 E6.22196
G1 X233.855 Y119.5 E6.28476
G1 X234.19 Y122.116 E6.34678
G1 X234.604 Y124.755 E6.40959
G1 X235.093 Y127.384 E6.47246
G1 X235.654 Y129.991 E6.53517
G1 X236.282 Y132.55 E6.59712
G1 X236.988 Y135.119 E6.65977
G1 X237.774 Y137.691 E6.723
G1 X239.097 Y141.519 E6.81824
G1 X239.464 Y142.515 E6.84319
G1 X239.66 Y143.164 E6.85913
G1 X239.779 Y143.831 E6.87507
G1 X239.815 Y144.732 E6.89627
G1 X239.792 Y145.314 E6.90996
G1 X239.715 Y148.012 E6.97343
G1 X239.713 Y150.655 E7.03557
G1 X239.788 Y153.323 E7.09833
G1 X239.852 Y154.451 E7.1249
G1 X239.855 Y154.526 E7.12666
G1 X239.893 Y155.388 E7.14695
G1 X239.868 Y156.239 E7.16697
G1 X239.822 Y156.679 E7.17737
G1 X239.712 Y157.348 E7.19331
G1 X239.524 Y157.999 E7.20924
G1 X239.278 Y158.588 E7.22425
G1 X239.106 Y158.943 E7.23353
G1 X238.775 Y159.535 E7.24948
G1 X238.376 Y160.083 E7.26542
G1 X237.928 Y160.569 E7.28096
G1 X237.624 Y160.863 E7.2909
G1 X237.377 Y161.089 E7.29877
G1 X236.475 Y161.865 E7.32675
G1 X234.481 Y163.629 E7.38935
G1 X232.537 Y165.446 E7.45192
G1 X230.624 Y167.342 E7.51525
G1 X228.804 Y169.249 E7.57723
G1 X227.01 Y171.239 E7.64023
G1 X225.27 Y173.281 E7.70331
G1 X223.566 Y175.404 E7.76732
G1 X222.977 Y176.159 E7.78983
G1 X222.927 Y176.221 E7.79171
G1 X221.976 Y177.406 E7.82743
G1 X221.919 Y177.476 E7.82956
G1 X220.946 Y178.65 E7.86541
G1 X220.892 Y178.715 E7.8674
G1 X219.946 Y179.823 E7.90165
G1 X219.889 Y179.888 E7.90369
G1 X218.867 Y181.049 E7.94005
G1 X218.812 Y181.111 E7.942
G1 X217.828 Y182.197 E7.97646
G1 X217.768 Y182.262 E7.97854
G1 X216.753 Y183.348 E8.01349
G1 X216.694 Y183.411 E8.01552
G1 X215.652 Y184.493 E8.05084
G1 X215.591 Y184.554 E8.05287
G1 X214.539 Y185.614 E8.08799
G1 X214.481 Y185.672 E8.08992
G1 X213.412 Y186.719 E8.1251
G1 X213.348 Y186.781 E8.12719
G1 X212.246 Y187.827 E8.16292
G1 X212.183 Y187.886 E8.16495
G1 X211.092 Y188.891 E8.19983
G1 X211.031 Y188.947 E8.20177
G1 X209.917 Y189.944 E8.23693
G1 X209.845 Y190.007 E8.23918
G1 X208.707 Y190.992 E8.27456
G1 X208.648 Y191.042 E8.27638
G1 X207.538 Y191.977 E8.31051
G1 X207.472 Y192.032 E8.31253
G1 X206.302 Y192.988 E8.34805
G1 X206.234 Y193.042 E8.3501
G1 X205.027 Y193.998 E8.3863
G1 X204.955 Y194.054 E8.38845
G1 X203.751 Y194.977 E8.42412
G1 X203.683 Y195.029 E8.42613
G1 X202.546 Y195.874 E8.45944
G1 X202.48 Y195.922 E8.46136
G1 X201.227 Y196.826 E8.49769
G1 X201.154 Y196.878 E8.49979
G1 X199.949 Y197.719 E8.53435
G1 X199.882 Y197.765 E8.53626
G1 X198.625 Y198.616 E8.57195
G1 X198.552 Y198.665 E8.57402
G1 X197.299 Y199.486 E8.60924
G1 X197.225 Y199.533 E8.6113
G1 X195.981 Y200.321 E8.64593
G1 X195.909 Y200.367 E8.64793
G1 X194.602 Y201.168 E8.68398
G1 X194.529 Y201.211 E8.68597
G1 X193.257 Y201.965 E8.72074
G1 X193.181 Y202.009 E8.7228
G1 X191.888 Y202.749 E8.75783
G1 X191.817 Y202.79 E8.75976
G1 X190.462 Y203.54 E8.79618
G1 X190.452 Y203.545 E8.79644
G1 X187.874 Y204.966 E8.86566
G1 X185.603 Y206.306 E8.92766
G1 X183.301 Y207.754 E8.9916
G1 X181.142 Y209.199 E9.05269
G1 X178.928 Y210.773 E9.11656
G1 X176.821 Y212.362 E9.17861
G1 X173.745 Y214.84 E9.27149
G1 X173.193 Y215.233 E9.28742
G1 X172.598 Y215.559 E9.30337
G1 X172.061 Y215.781 E9.31704
G1 X171.658 Y215.924 E9.32709
G1 X171.007 Y216.113 E9.34303
G1 X170.338 Y216.223 E9.35897
G1 X169.615 Y216.254 E9.37599
G1 X169.183 Y216.245 E9.38615
G1 X168.673 Y216.211 E9.39817
G1 X168.115 Y216.15 E9.41136
G1 X165.441 Y215.891 E9.47453
G1 X162.727 Y215.706 E9.5385
G1 X160.124 Y215.602 E9.59975
G1 X157.408 Y215.571 E9.66362
G1 X154.76 Y215.616 E9.72589
G1 X152.106 Y215.735 E9.78835
G1 X147.334 Y216.1 E9.90089
G1 X147.246 Y216.106 E9.90296
G1 X145.704 Y216.2 E9.93929
G1 X145.619 Y216.205 E9.94129
G1 X144.058 Y216.277 E9.97803
G1 X143.969 Y216.28 E9.98013
G1 X142.468 Y216.326 E10.01543
G1 X142.381 Y216.328 E10.01748
G1 X140.894 Y216.351 E10.05245
G1 X140.809 Y216.352 E10.05445
G1 X139.283 Y216.353 E10.09033
G1 X139.196 Y216.352 E10.09238
G1 X137.612 Y216.329 E10.12962
G1 X137.519 Y216.327 E10.13181
G1 X136.051 Y216.282 E10.16634
G1 X135.968 Y216.279 E10.1683
G1 X134.438 Y216.21 E10.20431
G1 X134.346 Y216.205 E10.20648
G1 X132.776 Y216.109 E10.24346
G1 X132.683 Y216.103 E10.24565
G1 X128.217 Y215.757 E10.35098
G1 X125.594 Y215.631 E10.41272
G1 X122.912 Y215.578 E10.4758
G1 X120.233 Y215.599 E10.53879
G1 X117.587 Y215.697 E10.60105
G1 X114.925 Y215.869 E10.66377
G1 X111.043 Y216.246 E10.75548
G1 X110.366 Y216.272 E10.77141
G1 X109.588 Y216.202 E10.78978
G1 X109.165 Y216.135 E10.79985
G1 X108.503 Y215.99 E10.81578
G1 X107.863 Y215.768 E10.83171
G1 X107.282 Y215.487 E10.84689
G1 X106.953 Y215.305 E10.85573
G1 X106.142 Y214.762 E10.87867
G1 X105.575 Y214.308 E10.89575
G1 X105.5 Y214.247 E10.89803
G1 X104.441 Y213.37 E10.93036
G1 X102.326 Y211.716 E10.99349
G1 X100.202 Y210.149 E11.05555
G1 X97.973 Y208.6 E11.11938
G1 X95.769 Y207.16 E11.18128
G1 X93.476 Y205.754 E11.24452
G1 X91.147 Y204.413 E11.30771
G1 X89.588 Y203.565 E11.34944
G1 X89.557 Y203.548 E11.35027
G1 X88.198 Y202.798 E11.38677
G1 X88.12 Y202.754 E11.38888
G1 X86.862 Y202.034 E11.42296
G1 X86.787 Y201.991 E11.42499
G1 X85.496 Y201.226 E11.46028
G1 X85.426 Y201.184 E11.4622
G1 X84.13 Y200.391 E11.49792
G1 X84.052 Y200.342 E11.50009
G1 X82.82 Y199.561 E11.53439
G1 X82.75 Y199.516 E11.53634
G1 X81.453 Y198.667 E11.57279
G1 X81.384 Y198.621 E11.57474
G1 X80.133 Y197.776 E11.61024
G1 X80.059 Y197.725 E11.61235
G1 X78.912 Y196.924 E11.64525
G1 X78.844 Y196.876 E11.6472
G1 X77.58 Y195.966 E11.68383
G1 X77.51 Y195.915 E11.68586
G1 X76.315 Y195.027 E11.72087
G1 X76.246 Y194.975 E11.7229
G1 X75.063 Y194.068 E11.75795
G1 X74.993 Y194.013 E11.76004
G1 X73.784 Y193.056 E11.7963
G1 X73.719 Y193.004 E11.79826
G1 X72.603 Y192.094 E11.83212
G1 X72.537 Y192.039 E11.83414
G1 X71.376 Y191.063 E11.8698
G1 X71.307 Y191.004 E11.87193
G1 X70.17 Y190.017 E11.90734
G1 X70.113 Y189.967 E11.90912
G1 X69.025 Y188.997 E11.94339
G1 X68.955 Y188.934 E11.94561
G1 X67.825 Y187.893 E11.98173
G1 X67.763 Y187.835 E11.98373
G1 X66.683 Y186.81 E12.01874
G1 X66.623 Y186.752 E12.0207
G1 X65.592 Y185.745 E12.05459
G1 X65.528 Y185.682 E12.0567
G1 X64.396 Y184.541 E12.09449
G1 X64.336 Y184.479 E12.09652
G1 X63.351 Y183.456 E12.12991
G1 X63.294 Y183.396 E12.13186
G1 X62.264 Y182.295 E12.16731
G1 X62.208 Y182.235 E12.16924
G1 X61.188 Y181.113 E12.20489
G1 X61.126 Y181.043 E12.20709
G1 X60.16 Y179.945 E12.24148
G1 X60.105 Y179.881 E12.24346
G1 X59.133 Y178.743 E12.27865
G1 X59.081 Y178.681 E12.28056
G1 X58.119 Y177.522 E12.31597
G1 X58.06 Y177.451 E12.31814
G1 X57.067 Y176.215 E12.35542
G1 X57.015 Y176.148 E12.35742
G1 X56.5 Y175.487 E12.37712
G1 X54.778 Y173.341 E12.44181
G1 X53.066 Y171.327 E12.50397
G1 X51.255 Y169.315 E12.56762
G1 X49.443 Y167.412 E12.6294
G1 X47.543 Y165.527 E12.69233
G1 X45.592 Y163.697 E12.75523
G1 X43.12 Y161.522 E12.83265
G1 X42.512 Y161.006 E12.8514
G1 X42.022 Y160.538 E12.86733
G1 X41.707 Y160.168 E12.87876
G1 X41.465 Y159.859 E12.88799
G1 X41.079 Y159.302 E12.90392
G1 X40.762 Y158.703 E12.91986
G1 X40.528 Y158.103 E12.935
G1 X40.398 Y157.706 E12.94482
G1 X40.225 Y157.051 E12.96075
G1 X40.131 Y156.379 E12.97671
G1 X40.115 Y155.718 E12.99225
G1 X40.148 Y154.766 E13.01465
G1 X40.153 Y154.663 E13.01708
G1 X40.231 Y153.175 E13.05211
G1 X40.295 Y150.534 E13.11423
G1 X40.283 Y147.85 E13.17734
G1 X40.182 Y144.708 E13.25126
G1 X40.2 Y144.031 E13.26718
G1 X40.298 Y143.36 E13.28312
G1 X40.521 Y142.57 E13.30243
G1 X41.595 Y139.594 E13.37682
G1 X42.437 Y137.04 E13.44005
G1 X43.184 Y134.534 E13.50154
G1 X43.881 Y131.93 E13.56492
G1 X44.505 Y129.307 E13.62832
G1 X45.037 Y126.739 E13.68998
G1 X45.51 Y124.088 E13.7533
G1 X45.901 Y121.474 E13.81545
G1 X46.222 Y118.81 E13.87854
G1 X46.468 Y116.141 E13.94156
G1 X46.635 Y113.504 E14.00369
G1 X46.728 Y110.858 E14.06594
G1 X46.75 Y108.796 E14.11443
G1 X46.75 Y68.788 E15.05515
G1 X46.751 Y68.693 E15.05738
G1 X46.762 Y68.028 E15.07302
G1 X46.813 Y67.352 E15.08896
G1 X46.943 Y66.687 E15.10489
G1 X47.151 Y66.041 E15.12085
G1 X47.433 Y65.425 E15.13678
G1 X47.786 Y64.846 E15.15272
G1 X48.205 Y64.313 E15.16866
G1 X48.683 Y63.832 E15.18461
G1 X49.215 Y63.412 E15.20055
G1 X49.792 Y63.056 E15.21649
G1 X50.407 Y62.772 E15.23242
G1 X51.052 Y62.561 E15.24837
G1 X51.717 Y62.428 E15.26432
G1 X52.349 Y62.375 E15.27923
G1 X52.668 Y62.366 E15.28673
G1 X52.83 Y62.364 E15.29054
G1 X54.293 Y62.364 E15.32494
G1 X54.375 Y62.365 E15.32687
G1 X55.077 Y62.375 E15.34338
G1 X55.753 Y62.424 E15.35932
