;FLAVOR:Marlin
;TIME:4714
;Filament used: 4.90892m
;Layer height: 0.3
;MINX:39.616
;MINY:61.864
;MINZ:0.3
;MAXX:240.393
;MAXY:216.853
;MAXZ:15
;Generated with Cura_SteamEngine 4.4.1
M105
M109 S0
M82 ;absolute extrusion mode
; LULZBOT TAZ 6 DUAL EXTRUDER V3
; START CODE FOR PETG NO SUPPORT

M73 P0                        ; clear GLCD progress bar
M75 		; start GLCD timer
G26                          ; clear potential 'probe fail' condition
M107                         ; disable fans
M420 S0                      ; disable leveling matrix
G90                          ; absolute positioning
M117 Soften Temp...

; --- SOFTEN TEMP
T0
M104 S140		; soften filament -- HARDCODED TEMP
M140 S75		; get bed heating up
M109 R140
; ----------

G28
; G28 X Y                      ; home X and Y
; G1 X-17 F3000                ; clear X endstop
; G1 Y258 F3000                ; move over the Z_MIN switch
; G1 X-19 F3000                ; move left as far as possible
M117 Heating...              ; LCD status message
; G28 Z                        ; home Z

; --- RETRACTION
T0                           ; select this extruder first
M82                          ; set extruder to absolute mode
G92 E0                       ; set extruder to zero
G1  E-5 F125                 ; retract XXmm of filament
; ----------

G1 X-19 Y100 F5000          ; move above wiper pad

; --- WIPING TEMP
M117 Wiping temp...			; LCD status message
M107						; Turn off fan
M109 R180 T0				; wait for T0 to reach temp
; ----------

T0                           ; switch extruders
G1 Z1                        ; push nozzle into wiper
G1 X -19 Y90 F1000                   ; slow wipe
G1 X -19 Y90 F1000                   ; slow wipe
G1 X -19 Y85 F1000                   ; slow wipe
G1 X -19 Y90 F1000                   ; slow wipe
G1 X -19 Y80 F1000                   ; slow wipe
G1 X -19 Y95 F1000                   ; slow wipe
G1 X -19 Y75 F2000                   ; fast wipe
G1 X -19 Y65 F2000                   ; fast wipe
G1 X -19 Y70 F2000                   ; fast wipe
G1 X -19 Y60 F2000                   ; fast wipe
G1 X -19 Y55 F2000                   ; fast wipe
G1 X -19 Y50 F2000                   ; fast wipe
G1 X -19 Y40 F2000                   ; fast wipe
G1 X -19 Y45 F2000                   ; fast wipe
G1 X -19 Y35 F2000                   ; fast wipe
G1 X -19 Y40 F2000                   ; fast wipe
G1 X -19 Y70 F2000                   ; fast wipe
G1 X -19 Y30 Z2 F2000                ; fast wipe
G1 X -19 Y35 F2000                   ; fast wipe
G1 X -19 Y25 F2000                   ; fast wipe
G1 X -19 Y30 F2000                   ; fast wipe
G1 X -19 Y25 Z1.5 F1000              ; slow wipe
G1 X -19 Y23 F1000                   ; slow wipe
G1 X -19 Y10 Z25                      ; raise extruder

; --- probing temp
M106
M109 R140
M107

M204 S175                    ; set accel for probing
G29                          ; probe sequence (for auto-leveling)
M420 S1                      ; enable leveling matrix
M425 Z					     ; use measured Z backlash for compensation
M425 Z F0		    		 ; turn off measured Z backlash compensation. (if activated in the quality settings, this command will automatically be ignored)
M204 S500                    ; set accel back to normal

; --- PRINT TEMP
M104 S230 T0				 ; set extruder temp -- HARDCODED TEMP
; ----------

G1 X100 Y-25 Z0.5 F4500      ; move to open space
M400                         ; clear buffer
M117 Heating...              ; LCD status message

; --- PRINT TEMP
M109 R230 T0				 ; set extruder temp and wait -- HARDCODED TEMP
; ----------

M117 Purging...              ; LCD status message

; -------------------- PURGE EXT 1 ------------------------------------
T0                           ; select this extruder first
G1  E0 F125  	             ; undo retraction
G92 E-50                     ; set extruder negative amount to purge
G1  E0 F125                  ; purge XXmm of filament

T0
G1 Z0.5                      ; clear bed (barely)
G1 X100 Y0 F5000             ; move above bed to shear off filament
M400                         ; clear buffer
M107

; -------------------- TURN EXT 2 OFF FOR SINGLE EXTRUDER PRINT ------------------
; M104 S0 T1                     ; T1 hotend off
; --------------------------------------------------------------------------------

M117 TAZ Printing...         ; LCD status message

G92 E0
T0
M109 R230
G92 E0
G1 F1500 E-7
;LAYER_COUNT:50
;LAYER:0
M107
G0 F7200 X59.965 Y64.335 Z0.3
;TYPE:SKIRT
G1 F1500 E0.15675
G1 X60.268 Y64.768 E0.16918
G1 X60.914 Y65.783 E0.19747
G1 X62.359 Y67.986 E0.25942
G1 X63.888 Y70.174 E0.32218
G1 X65.475 Y72.318 E0.3849
G1 X67.096 Y74.383 E0.44663
G1 X68.804 Y76.436 E0.50943
G1 X70.552 Y78.418 E0.57156
G1 X72.364 Y80.362 E0.63405
G1 X74.196 Y82.218 E0.69537
G1 X76.14 Y84.079 E0.75865
G1 X78.101 Y85.852 E0.82081
G1 X80.132 Y87.587 E0.88362
G1 X82.18 Y89.24 E0.9455
G1 X84.31 Y90.86 E1.00842
G1 X86.44 Y92.388 E1.07006
G1 X88.629 Y93.865 E1.13215
G1 X90.909 Y95.313 E1.19566
G1 X93.173 Y96.662 E1.25763
G1 X95.466 Y97.941 E1.31936
G1 X97.835 Y99.177 E1.38219
G1 X100.214 Y100.334 E1.44439
G1 X102.619 Y101.42 E1.50644
G1 X105.111 Y102.462 E1.56995
G1 X107.541 Y103.396 E1.63116
G1 X110.063 Y104.286 E1.69405
G1 X112.569 Y105.092 E1.75595
G1 X115.126 Y105.835 E1.81856
G1 X117.706 Y106.506 E1.88124
G1 X120.287 Y107.101 E1.94352
G1 X122.877 Y107.618 E2.00562
G1 X125.474 Y108.064 E2.06758
G1 X128.128 Y108.441 E2.13061
G1 X130.755 Y108.739 E2.19277
G1 X133.38 Y108.963 E2.25472
G1 X136.05 Y109.113 E2.3176
G1 X138.67 Y109.187 E2.37923
G1 X141.32 Y109.187 E2.44154
G1 X144.001 Y109.111 E2.5046
G1 X146.657 Y108.96 E2.56715
G1 X149.266 Y108.738 E2.62872
G1 X151.895 Y108.439 E2.69093
G1 X154.551 Y108.061 E2.75401
G1 X157.144 Y107.616 E2.81588
G1 X159.767 Y107.089 E2.87878
G1 X162.316 Y106.503 E2.94028
G1 X164.883 Y105.835 E3.00265
G1 X167.457 Y105.087 E3.06568
G1 X169.96 Y104.281 E3.12751
G1 X172.484 Y103.391 E3.19044
G1 X174.953 Y102.439 E3.25266
G1 X177.388 Y101.419 E3.31473
G1 X179.796 Y100.333 E3.37684
G1 X182.204 Y99.161 E3.43981
G1 X184.537 Y97.944 E3.50168
G1 X186.852 Y96.651 E3.56403
G1 X189.138 Y95.289 E3.6266
G1 X191.392 Y93.857 E3.68939
G1 X193.551 Y92.399 E3.75065
G1 X195.74 Y90.829 E3.81399
G1 X197.823 Y89.242 E3.87556
G1 X199.911 Y87.559 E3.93862
G1 X201.916 Y85.845 E4.00064
G1 X203.898 Y84.051 E4.0635
G1 X205.779 Y82.251 E4.12472
G1 X207.679 Y80.325 E4.18833
G1 X209.464 Y78.409 E4.2499
G1 X211.23 Y76.404 E4.31273
G1 X212.901 Y74.396 E4.37415
G1 X214.56 Y72.283 E4.43732
G1 X216.134 Y70.158 E4.4995
G1 X217.639 Y67.999 E4.56138
G1 X219.108 Y65.761 E4.62432
G1 X219.656 Y64.885 E4.64862
G1 X219.807 Y64.656 E4.65507
G1 X219.86 Y64.579 E4.65727
G1 X220.293 Y64.021 E4.67388
G1 X220.786 Y63.515 E4.69049
G1 X221.333 Y63.067 E4.70711
G1 X221.928 Y62.685 E4.72374
G1 X222.561 Y62.372 E4.74034
G1 X223.227 Y62.132 E4.75699
G1 X223.914 Y61.969 E4.77359
G1 X224.833 Y61.875 E4.79531
G1 X225.155 Y61.866 E4.80288
G1 X225.33 Y61.864 E4.807
G1 X226.793 Y61.864 E4.8414
G1 X226.874 Y61.865 E4.8433
G1 X227.572 Y61.874 E4.85972
G1 X228.277 Y61.923 E4.87633
G1 X228.972 Y62.051 E4.89295
G1 X229.648 Y62.257 E4.90957
G1 X230.296 Y62.538 E4.92617
G1 X230.909 Y62.891 E4.94281
G1 X231.478 Y63.31 E4.95942
G1 X231.996 Y63.791 E4.97604
G1 X232.456 Y64.327 E4.99265
G1 X232.853 Y64.912 E5.00928
G1 X233.181 Y65.538 E5.02589
G1 X233.437 Y66.197 E5.04252
G1 X233.616 Y66.881 E5.05914
G1 X233.717 Y67.58 E5.07575
G1 X233.739 Y67.948 E5.08442
G1 X233.748 Y68.269 E5.09197
G1 X233.75 Y68.444 E5.09608
G1 X233.75 Y108.86 E6.04639
G1 X233.788 Y111.511 E6.10873
G1 X233.9 Y114.159 E6.17105
G1 X234.086 Y116.777 E6.23276
G1 X234.353 Y119.477 E6.29656
G1 X234.685 Y122.066 E6.35793
G1 X235.095 Y124.676 E6.42005
G1 X235.585 Y127.312 E6.4831
G1 X236.14 Y129.891 E6.54512
G1 X236.763 Y132.431 E6.60662
G1 X237.48 Y135.04 E6.67024
G1 X238.251 Y137.557 E6.73214
G1 X239.096 Y140.062 E6.7943
G1 X239.939 Y142.364 E6.85194
G1 X240.144 Y143.04 E6.86855
G1 X240.271 Y143.736 E6.88518
G1 X240.317 Y144.714 E6.90821
G1 X240.272 Y146.118 E6.94124
G1 X240.269 Y146.198 E6.94312
G1 X240.251 Y146.592 E6.95239
G1 X240.209 Y149.206 E7.01386
G1 X240.241 Y151.891 E7.077
G1 X240.348 Y154.554 E7.13967
G1 X240.373 Y154.95 E7.149
G1 X240.379 Y155.057 E7.15152
G1 X240.393 Y155.369 E7.15886
G1 X240.366 Y156.294 E7.18062
G1 X240.321 Y156.728 E7.19088
G1 X240.208 Y157.425 E7.20748
G1 X240.018 Y158.106 E7.2241
G1 X239.719 Y158.827 E7.24246
G1 X239.547 Y159.179 E7.25167
G1 X239.202 Y159.795 E7.26827
G1 X238.789 Y160.369 E7.2849
G1 X238.285 Y160.92 E7.30246
G1 X237.98 Y161.216 E7.31245
G1 X237.698 Y161.473 E7.32142
G1 X236.858 Y162.194 E7.34745
G1 X234.833 Y163.984 E7.411
G1 X232.874 Y165.815 E7.47405
G1 X231.013 Y167.658 E7.53563
G1 X229.18 Y169.578 E7.59805
G1 X227.403 Y171.547 E7.66041
G1 X225.668 Y173.582 E7.72329
G1 X223.929 Y175.749 E7.78862
G1 X223.34 Y176.506 E7.81118
G1 X223.279 Y176.582 E7.81347
G1 X222.339 Y177.752 E7.84876
G1 X222.28 Y177.825 E7.85096
G1 X221.358 Y178.938 E7.88495
G1 X221.299 Y179.008 E7.8871
G1 X220.316 Y180.16 E7.92271
G1 X220.251 Y180.236 E7.92506
G1 X219.247 Y181.375 E7.96076
G1 X219.19 Y181.439 E7.96278
G1 X218.206 Y182.525 E7.99723
G1 X218.14 Y182.596 E7.99951
G1 X217.096 Y183.713 E8.03546
G1 X217.034 Y183.778 E8.03758
G1 X216.019 Y184.833 E8.072
G1 X215.953 Y184.901 E8.07423
G1 X214.887 Y185.976 E8.10982
G1 X214.819 Y186.043 E8.11207
G1 X213.77 Y187.069 E8.14657
G1 X213.704 Y187.133 E8.14873
G1 X212.592 Y188.189 E8.18479
G1 X212.522 Y188.255 E8.18705
G1 X211.423 Y189.267 E8.22218
G1 X211.354 Y189.329 E8.22436
G1 X210.244 Y190.321 E8.25937
G1 X210.175 Y190.382 E8.26153
G1 X209.08 Y191.332 E8.29562
G1 X209.004 Y191.397 E8.29797
G1 X207.773 Y192.431 E8.33577
G1 X207.706 Y192.486 E8.33781
G1 X206.615 Y193.377 E8.37093
G1 X206.539 Y193.438 E8.37322
G1 X205.344 Y194.383 E8.40904
G1 X205.274 Y194.438 E8.41114
G1 X204.127 Y195.319 E8.44514
G1 X204.05 Y195.377 E8.44741
G1 X202.781 Y196.321 E8.4846
G1 X202.707 Y196.375 E8.48675
G1 X201.556 Y197.205 E8.52012
G1 X201.476 Y197.262 E8.52243
G1 X200.186 Y198.162 E8.55941
G1 X200.114 Y198.211 E8.56146
G1 X198.953 Y198.997 E8.59443
G1 X198.874 Y199.05 E8.59666
G1 X197.543 Y199.922 E8.63408
G1 X197.466 Y199.972 E8.63624
G1 X196.252 Y200.742 E8.67004
G1 X196.17 Y200.793 E8.67231
G1 X194.863 Y201.594 E8.70835
G1 X194.784 Y201.641 E8.71052
G1 X193.512 Y202.395 E8.74528
G1 X193.429 Y202.443 E8.74754
G1 X192.136 Y203.183 E8.78257
G1 X192.059 Y203.227 E8.78465
G1 X190.755 Y203.949 E8.8197
G1 X190.739 Y203.958 E8.82013
G1 X188.21 Y205.349 E8.888
G1 X185.922 Y206.697 E8.95044
G1 X183.653 Y208.12 E9.01341
G1 X181.49 Y209.565 E9.07458
G1 X179.307 Y211.113 E9.1375
G1 X177.196 Y212.704 E9.19966
G1 X175.13 Y214.372 E9.26209
G1 X175.107 Y214.39 E9.26278
G1 X174.042 Y215.242 E9.29485
G1 X173.466 Y215.652 E9.31147
G1 X172.848 Y215.994 E9.32808
G1 X172.228 Y216.252 E9.34387
G1 X171.825 Y216.395 E9.35393
G1 X171.147 Y216.593 E9.37053
G1 X170.45 Y216.714 E9.38717
G1 X169.605 Y216.754 E9.40706
G1 X169.173 Y216.745 E9.41722
G1 X168.618 Y216.708 E9.4303
G1 X168.084 Y216.649 E9.44293
G1 X165.361 Y216.386 E9.50725
G1 X162.74 Y216.207 E9.56902
G1 X160.099 Y216.102 E9.63117
G1 X157.41 Y216.071 E9.6944
G1 X154.793 Y216.115 E9.75595
G1 X152.136 Y216.235 E9.81848
G1 X147.372 Y216.599 E9.93083
G1 X147.274 Y216.605 E9.93314
G1 X145.727 Y216.699 E9.96958
G1 X145.634 Y216.704 E9.97177
G1 X144.083 Y216.775 E10.00828
G1 X143.992 Y216.779 E10.01042
G1 X142.486 Y216.826 E10.04585
G1 X142.388 Y216.828 E10.04815
G1 X140.9 Y216.851 E10.08314
G1 X140.807 Y216.852 E10.08533
G1 X139.281 Y216.853 E10.12121
G1 X139.186 Y216.852 E10.12344
G1 X137.602 Y216.829 E10.16069
G1 X137.502 Y216.827 E10.16304
G1 X136.034 Y216.782 E10.19758
G1 X135.943 Y216.779 E10.19972
G1 X134.413 Y216.71 E10.23573
G1 X134.315 Y216.704 E10.23804
G1 X132.789 Y216.611 E10.27399
G1 X132.687 Y216.604 E10.27639
G1 X128.281 Y216.263 E10.3803
G1 X125.599 Y216.132 E10.44344
G1 X122.948 Y216.078 E10.50578
G1 X120.296 Y216.098 E10.56814
G1 X117.648 Y216.194 E10.63045
G1 X115.021 Y216.363 E10.69234
G1 X111.09 Y216.744 E10.78521
G1 X110.384 Y216.772 E10.80182
G1 X109.51 Y216.696 E10.82245
G1 X109.087 Y216.629 E10.83252
G1 X108.396 Y216.479 E10.84914
G1 X107.727 Y216.252 E10.86576
G1 X107.04 Y215.925 E10.88365
G1 X106.711 Y215.743 E10.89249
G1 X106.112 Y215.366 E10.90913
G1 X105.83 Y215.153 E10.91744
G1 X105.263 Y214.699 E10.93452
G1 X105.181 Y214.632 E10.93701
G1 X104.131 Y213.762 E10.96907
G1 X101.999 Y212.095 E11.0327
G1 X99.914 Y210.558 E11.09361
G1 X97.716 Y209.03 E11.15655
G1 X95.487 Y207.573 E11.21917
G1 X93.232 Y206.191 E11.28136
G1 X90.929 Y204.864 E11.34385
G1 X89.367 Y204.015 E11.38565
G1 X89.331 Y203.995 E11.38662
G1 X87.964 Y203.24 E11.42334
G1 X87.881 Y203.193 E11.42558
G1 X86.597 Y202.458 E11.46037
G1 X86.517 Y202.411 E11.46255
G1 X85.239 Y201.654 E11.49748
G1 X85.162 Y201.608 E11.49959
G1 X83.866 Y200.815 E11.53531
G1 X83.783 Y200.763 E11.53762
G1 X82.489 Y199.943 E11.57364
G1 X82.411 Y199.893 E11.57582
G1 X81.247 Y199.131 E11.60853
G1 X81.176 Y199.084 E11.61053
G1 X79.908 Y198.229 E11.64649
G1 X79.822 Y198.17 E11.64894
G1 X78.544 Y197.277 E11.6856
G1 X78.466 Y197.222 E11.68785
G1 X77.312 Y196.389 E11.72131
G1 X77.243 Y196.338 E11.72333
G1 X75.999 Y195.414 E11.75976
G1 X75.923 Y195.357 E11.762
G1 X74.757 Y194.463 E11.79655
G1 X74.681 Y194.404 E11.79881
G1 X73.472 Y193.447 E11.83506
G1 X73.401 Y193.39 E11.8372
G1 X72.285 Y192.48 E11.87106
G1 X72.213 Y192.42 E11.87327
G1 X71.052 Y191.444 E11.90893
G1 X70.977 Y191.38 E11.91125
G1 X69.84 Y190.393 E11.94665
G1 X69.778 Y190.338 E11.9486
G1 X68.69 Y189.368 E11.98287
G1 X68.616 Y189.301 E11.98522
G1 X67.469 Y188.245 E12.02188
G1 X67.399 Y188.18 E12.02412
G1 X66.358 Y187.192 E12.05787
G1 X66.295 Y187.131 E12.05993
G1 X65.236 Y186.097 E12.09473
G1 X65.165 Y186.027 E12.09708
G1 X64.039 Y184.892 E12.13467
G1 X63.976 Y184.827 E12.1368
G1 X62.993 Y183.807 E12.17011
G1 X62.927 Y183.738 E12.17235
G1 X61.896 Y182.635 E12.20785
G1 X61.834 Y182.568 E12.21
G1 X60.821 Y181.452 E12.24544
G1 X60.756 Y181.378 E12.24776
G1 X59.772 Y180.259 E12.28279
G1 X59.713 Y180.191 E12.28491
G1 X58.752 Y179.066 E12.3197
G1 X58.695 Y178.999 E12.32177
G1 X57.733 Y177.84 E12.35718
G1 X57.669 Y177.761 E12.35957
G1 X56.707 Y176.563 E12.3957
G1 X56.652 Y176.494 E12.39778
G1 X56.11 Y175.799 E12.4185
G1 X54.382 Y173.647 E12.48339
G1 X52.668 Y171.632 E12.54559
G1 X50.907 Y169.674 E12.60751
G1 X49.083 Y167.76 E12.66968
G1 X47.2 Y165.893 E12.73203
G1 X45.247 Y164.061 E12.79499
G1 X42.865 Y161.963 E12.86963
G1 X42.183 Y161.384 E12.89066
G1 X41.671 Y160.897 E12.90728
G1 X41.3 Y160.464 E12.92069
G1 X41.074 Y160.174 E12.92933
G1 X40.672 Y159.593 E12.94594
G1 X40.338 Y158.97 E12.96257
G1 X40.091 Y158.355 E12.97815
G1 X39.949 Y157.94 E12.98846
G1 X39.758 Y157.26 E13.00507
G1 X39.645 Y156.562 E13.0217
G1 X39.616 Y155.7 E13.04198
G1 X39.649 Y154.748 E13.06437
G1 X39.654 Y154.637 E13.06699
G1 X39.731 Y153.172 E13.10148
G1 X39.795 Y150.524 E13.16376
G1 X39.783 Y147.868 E13.22621
G1 X39.683 Y144.74 E13.2998
G1 X39.701 Y144.033 E13.31643
G1 X39.798 Y143.333 E13.33305
G1 X40.024 Y142.494 E13.35348
G1 X40.167 Y142.081 E13.36375
G1 X40.194 Y142.005 E13.36565
G1 X41.12 Y139.438 E13.42982
G1 X41.953 Y136.91 E13.4924
G1 X42.711 Y134.366 E13.55482
G1 X43.399 Y131.798 E13.61733
G1 X44.02 Y129.188 E13.68041
G1 X44.544 Y126.656 E13.74121
G1 X45.018 Y124.003 E13.80458
G1 X45.405 Y121.411 E13.8662
G1 X45.724 Y118.772 E13.9287
G1 X45.969 Y116.1 E13.99179
G1 X46.135 Y113.493 E14.05321
G1 X46.229 Y110.835 E14.11575
G1 X46.25 Y108.791 E14.16382
G1 X46.25 Y68.788 E15.10441
G1 X46.251 Y68.685 E15.10684
G1 X46.262 Y68.02 E15.12247
G1 X46.313 Y67.315 E15.13909
G1 X46.444 Y66.62 E15.15572
G1 X46.653 Y65.945 E15.17234
G1 X46.936 Y65.297 E15.18896
G1 X47.291 Y64.686 E15.20558
G1 X47.712 Y64.118 E15.2222
G1 X48.195 Y63.602 E15.23882
G1 X48.733 Y63.144 E15.25544
G1 X49.32 Y62.749 E15.27207
G1 X49.947 Y62.423 E15.28869
G1 X50.607 Y62.17 E15.30531
G1 X51.291 Y61.993 E15.32192
