;FLAVOR:Marlin
;TIME:4568
;Filament used: 11.0071m
;Layer height: 0.3
;MINX:49.408
;MINY:71.664
;MINZ:0.3
;MAXX:250.593
;MAXY:226.973
;MAXZ:13.5
;Generated with Cura_SteamEngine 4.4.1
M105
M109 S0
M82 ;absolute extrusion mode
; ConnectedFab START code
M140 S80		; set bed temperature to the minimum that will ever be used by a print
M104 S170		; set hotend temperature just to soften filament
G90				; set all axes to absolute positioning
M107			; turn off fans
M302 S120		; Allow extrusion at soften temperature
G92 E0			; reset extruder position
M109 R170		; wait for hotend temperature
G1 E-100 F400	; retract filament to prevent oozing
M400			; wait for movements to finish
M190 R80		; wait for bed temperature

G28				; home
G1 X0 Y0 F5000		; move away from a likely print start position to protect area
G1 Z50			; raise hotend to allow for manipulation while heating if necessary
M501			; Recall saved configuration from eeprom
M420 S1			; Enable ABL with saved Mesh

M109 R235		; wait for print temperature
G1 E5			; feed filament back into the nozzle
G0 Z0.3	; position nozzle at layer 1 height
G92 E0
G92 E0
G1 F1500 E-7
;LAYER_COUNT:45
;LAYER:0
M107
G0 F6000 X58.633 Y73.071 Z0.3
;TYPE:SKIRT
G1 F1500 E0
G1 X59.223 Y72.656 E0.06532
G1 X59.855 Y72.309 E0.1306
G1 X60.521 Y72.035 E0.19582
G1 X61.214 Y71.836 E0.2611
G1 X61.925 Y71.715 E0.32641
G1 X62.477 Y71.676 E0.37652
G1 X62.797 Y71.667 E0.40551
G1 X62.98 Y71.664 E0.42208
G1 X64.243 Y71.664 E0.53644
G1 X64.336 Y71.665 E0.54487
G1 X65.037 Y71.675 E0.60835
G1 X65.756 Y71.725 E0.67361
G1 X66.465 Y71.854 E0.73887
G1 X67.155 Y72.062 E0.80412
G1 X67.818 Y72.344 E0.86936
G1 X68.446 Y72.698 E0.93464
G1 X69.031 Y73.12 E0.99996
G1 X69.566 Y73.603 E1.06523
G1 X70.043 Y74.143 E1.13047
G1 X70.427 Y74.683 E1.19047
G1 X71.076 Y75.703 E1.29994
G1 X72.579 Y77.991 E1.54782
G1 X74.094 Y80.163 E1.78762
G1 X75.657 Y82.272 E2.02532
G1 X77.31 Y84.378 E2.26774
G1 X78.979 Y86.384 E2.50404
G1 X80.762 Y88.405 E2.74808
G1 X82.536 Y90.309 E2.98373
G1 X84.374 Y92.17 E3.22057
G1 X86.325 Y94.038 E3.46516
G1 X88.274 Y95.802 E3.70319
G1 X90.271 Y97.507 E3.94096
G1 X92.367 Y99.198 E4.18483
G1 X94.437 Y100.772 E4.4203
G1 X96.605 Y102.327 E4.66189
G1 X98.76 Y103.783 E4.89739
G1 X101.024 Y105.22 E5.1402
G1 X103.297 Y106.573 E5.37973
G1 X105.594 Y107.855 E5.61793
G1 X107.951 Y109.084 E5.85863
G1 X110.321 Y110.237 E6.09728
G1 X112.737 Y111.328 E6.33732
G1 X115.219 Y112.366 E6.58093
G1 X117.628 Y113.292 E6.81463
G1 X120.126 Y114.173 E7.05448
G1 X122.67 Y114.991 E7.29646
G1 X125.183 Y115.722 E7.53344
G1 X127.76 Y116.392 E7.77455
G1 X130.36 Y116.991 E8.01615
G1 X132.913 Y117.501 E8.25189
G1 X135.533 Y117.949 E8.49258
G1 X138.133 Y118.32 E8.7304
G1 X140.783 Y118.621 E8.9719
G1 X143.404 Y118.843 E9.21008
G1 X146.081 Y118.994 E9.45287
G1 X148.678 Y119.067 E9.68812
G1 X151.352 Y119.067 E9.93026
G1 X153.983 Y118.993 E10.16859
G1 X156.59 Y118.844 E10.40504
G1 X159.29 Y118.614 E10.65041
G1 X161.865 Y118.322 E10.88508
G1 X164.517 Y117.944 E11.12764
G1 X167.084 Y117.504 E11.36348
G1 X169.724 Y116.974 E11.6073
G1 X172.25 Y116.392 E11.84202
G1 X174.832 Y115.72 E12.08362
G1 X177.373 Y114.981 E12.32324
G1 X179.894 Y114.171 E12.56301
G1 X182.404 Y113.284 E12.80407
G1 X184.826 Y112.351 E13.03909
G1 X187.299 Y111.315 E13.28188
G1 X189.729 Y110.218 E13.5233
G1 X192.078 Y109.076 E13.75981
G1 X194.441 Y107.843 E14.00116
G1 X196.722 Y106.568 E14.23778
G1 X199.004 Y105.209 E14.47828
G1 X201.235 Y103.792 E14.71761
G1 X203.436 Y102.305 E14.95813
G1 X205.589 Y100.76 E15.19809
G1 X207.685 Y99.165 E15.43659
G1 X209.736 Y97.511 E15.67517
G1 X211.762 Y95.778 E15.91659
G1 X213.718 Y94.008 E16.15546
G1 X215.606 Y92.2 E16.39216
G1 X217.499 Y90.283 E16.63612
G1 X219.286 Y88.364 E16.87356
G1 X221.037 Y86.375 E17.11351
G1 X222.722 Y84.35 E17.35206
G1 X224.365 Y82.259 E17.59286
G1 X225.937 Y80.135 E17.83213
G1 X227.432 Y77.991 E18.06881
G1 X228.919 Y75.724 E18.31431
G1 X229.506 Y74.786 E18.41451
G1 X229.662 Y74.548 E18.44027
G1 X229.704 Y74.487 E18.44698
G1 X230.145 Y73.917 E18.51224
G1 X230.647 Y73.399 E18.57756
G1 X231.203 Y72.94 E18.64284
G1 X231.806 Y72.545 E18.70811
G1 X232.449 Y72.22 E18.77335
G1 X233.124 Y71.967 E18.83863
G1 X233.823 Y71.791 E18.9039
G1 X234.876 Y71.676 E18.99982
G1 X235.198 Y71.667 E19.02898
G1 X235.38 Y71.664 E19.04547
G1 X236.643 Y71.664 E19.15983
G1 X236.727 Y71.665 E19.16744
G1 X237.425 Y71.674 E19.23065
G1 X238.144 Y71.723 E19.29591
G1 X238.853 Y71.851 E19.36114
G1 X239.544 Y72.058 E19.42646
G1 X240.207 Y72.339 E19.49167
G1 X240.836 Y72.692 E19.55698
G1 X241.421 Y73.113 E19.62224
G1 X241.956 Y73.596 E19.68751
G1 X242.435 Y74.135 E19.7528
G1 X242.851 Y74.724 E19.8181
G1 X243.199 Y75.355 E19.88335
G1 X243.475 Y76.021 E19.94863
G1 X243.675 Y76.714 E20.01394
G1 X243.798 Y77.424 E20.07919
G1 X243.838 Y77.991 E20.13066
G1 X243.847 Y78.312 E20.15974
G1 X243.85 Y78.494 E20.17622
G1 X243.85 Y118.877 E23.83293
G1 X243.888 Y121.514 E24.07174
G1 X243.999 Y124.148 E24.31046
G1 X244.189 Y126.822 E24.5532
G1 X244.448 Y129.438 E24.79124
G1 X244.782 Y132.047 E25.02942
G1 X245.19 Y134.643 E25.26737
G1 X245.679 Y137.273 E25.5096
G1 X246.235 Y139.857 E25.74894
G1 X246.859 Y142.4 E25.98604
G1 X247.57 Y144.987 E26.22898
G1 X248.336 Y147.49 E26.46601
G1 X249.192 Y150.027 E26.70846
G1 X249.966 Y152.139 E26.91214
G1 X249.978 Y152.172 E26.91532
G1 X250.027 Y152.308 E26.92841
G1 X250.234 Y152.998 E26.99364
G1 X250.362 Y153.708 E27.05897
G1 X250.408 Y154.729 E27.15151
G1 X250.391 Y155.233 E27.19718
G1 X250.338 Y157.935 E27.44189
G1 X250.362 Y160.637 E27.68657
G1 X250.46 Y163.241 E27.92253
G1 X250.582 Y165.225 E28.10252
G1 X250.593 Y165.738 E28.14899
G1 X250.588 Y166.023 E28.1748
G1 X250.535 Y166.742 E28.24008
G1 X250.428 Y167.348 E28.2958
G1 X250.376 Y167.577 E28.31707
G1 X250.177 Y168.27 E28.38235
G1 X249.771 Y169.199 E28.47416
G1 X249.621 Y169.48 E28.503
G1 X249.247 Y170.096 E28.56826
G1 X248.807 Y170.667 E28.63353
G1 X248.359 Y171.136 E28.69226
G1 X247.954 Y171.52 E28.7428
G1 X247.65 Y171.791 E28.77968
G1 X246.544 Y172.715 E28.91018
G1 X244.57 Y174.461 E29.14881
G1 X242.659 Y176.25 E29.38585
G1 X240.756 Y178.136 E29.62846
G1 X238.936 Y180.045 E29.86729
G1 X237.18 Y181.994 E30.10484
G1 X235.433 Y184.044 E30.34873
G1 X233.725 Y186.175 E30.59602
G1 X233.397 Y186.596 E30.64435
G1 X233.336 Y186.672 E30.65317
G1 X232.429 Y187.801 E30.78431
G1 X232.365 Y187.88 E30.79352
G1 X231.373 Y189.076 E30.93422
G1 X231.311 Y189.149 E30.94289
G1 X230.369 Y190.251 E31.07417
G1 X230.304 Y190.326 E31.08315
G1 X229.338 Y191.422 E31.21544
G1 X229.278 Y191.489 E31.22359
G1 X228.212 Y192.665 E31.36731
G1 X228.143 Y192.74 E31.37654
G1 X227.19 Y193.759 E31.50288
G1 X227.125 Y193.828 E31.51146
G1 X226.061 Y194.933 E31.65036
G1 X225.993 Y195.003 E31.6592
G1 X224.949 Y196.055 E31.79341
G1 X224.877 Y196.126 E31.80256
G1 X223.759 Y197.218 E31.94408
G1 X223.69 Y197.284 E31.95272
G1 X222.698 Y198.225 E32.07654
G1 X222.632 Y198.287 E32.08473
G1 X221.496 Y199.335 E32.22469
G1 X221.421 Y199.403 E32.23385
G1 X220.298 Y200.407 E32.37026
G1 X220.219 Y200.476 E32.37976
G1 X219.091 Y201.452 E32.51482
G1 X219.022 Y201.511 E32.52304
G1 X217.869 Y202.481 E32.65948
G1 X217.796 Y202.542 E32.6681
G1 X216.679 Y203.454 E32.79867
G1 X216.604 Y203.514 E32.80737
G1 X215.415 Y204.456 E32.94473
G1 X215.335 Y204.518 E32.95389
G1 X214.12 Y205.45 E33.09255
G1 X214.041 Y205.51 E33.10154
G1 X212.877 Y206.375 E33.23285
G1 X212.801 Y206.431 E33.2414
G1 X211.597 Y207.299 E33.3758
G1 X211.518 Y207.355 E33.38457
G1 X210.258 Y208.235 E33.52374
G1 X210.177 Y208.291 E33.53265
G1 X208.988 Y209.095 E33.66262
G1 X208.911 Y209.146 E33.67099
G1 X207.63 Y209.986 E33.8097
G1 X207.541 Y210.043 E33.81927
G1 X206.275 Y210.844 E33.95492
G1 X206.196 Y210.893 E33.96334
G1 X204.933 Y211.667 E34.09747
G1 X204.853 Y211.716 E34.10597
G1 X203.597 Y212.461 E34.2382
G1 X203.513 Y212.509 E34.24696
G1 X202.194 Y213.265 E34.38463
G1 X202.112 Y213.312 E34.39318
G1 X198.651 Y215.23 E34.75149
G1 X196.424 Y216.544 E34.98563
G1 X194.131 Y217.984 E35.23081
G1 X191.957 Y219.438 E35.46764
G1 X189.806 Y220.966 E35.70655
G1 X187.695 Y222.557 E35.94592
G1 X185.608 Y224.225 E36.18784
G1 X185.177 Y224.589 E36.23892
G1 X185.101 Y224.653 E36.24792
G1 X184.42 Y225.211 E36.32764
G1 X184.127 Y225.437 E36.36115
G1 X183.954 Y225.563 E36.38053
G1 X183.348 Y225.955 E36.44588
G1 X182.962 Y226.158 E36.48537
G1 X182.733 Y226.269 E36.50841
G1 X182.068 Y226.547 E36.57368
G1 X181.376 Y226.75 E36.63898
G1 X180.845 Y226.851 E36.68793
G1 X180.485 Y226.904 E36.72088
G1 X179.767 Y226.969 E36.78616
G1 X178.924 Y226.944 E36.86253
G1 X178.018 Y226.858 E36.94493
G1 X177.884 Y226.844 E36.95713
G1 X176.587 Y226.694 E37.07536
G1 X173.932 Y226.463 E37.31668
G1 X171.301 Y226.309 E37.55533
G1 X168.666 Y226.23 E37.79404
G1 X166.025 Y226.225 E38.03318
G1 X163.357 Y226.295 E38.27485
G1 X160.742 Y226.438 E38.512
G1 X159.701 Y226.521 E38.60656
G1 X159.681 Y226.522 E38.60837
G1 X157.303 Y226.703 E38.82433
G1 X157.207 Y226.71 E38.83304
G1 X155.753 Y226.799 E38.96495
G1 X155.655 Y226.804 E38.97383
G1 X154.115 Y226.875 E39.11343
G1 X154.016 Y226.879 E39.1224
G1 X152.487 Y226.926 E39.26092
G1 X152.388 Y226.928 E39.26989
G1 X150.906 Y226.951 E39.4041
G1 X150.809 Y226.952 E39.41288
G1 X149.284 Y226.953 E39.55097
G1 X149.185 Y226.952 E39.55994
G1 X147.604 Y226.929 E39.70311
G1 X147.504 Y226.927 E39.71217
G1 X146.074 Y226.884 E39.84172
G1 X145.972 Y226.88 E39.85096
G1 X144.335 Y226.805 E39.99935
G1 X144.235 Y226.8 E40.00841
G1 X142.812 Y226.713 E40.13751
G1 X142.717 Y226.706 E40.14613
G1 X138.74 Y226.404 E40.50729
G1 X136.114 Y226.276 E40.74536
G1 X133.439 Y226.22 E40.98763
G1 X130.801 Y226.24 E41.22651
G1 X128.166 Y226.334 E41.46527
G1 X125.497 Y226.506 E41.70745
G1 X122.856 Y226.75 E41.94761
G1 X121.122 Y226.936 E42.10553
G1 X120.402 Y226.973 E42.17081
G1 X119.682 Y226.93 E42.23612
G1 X119.17 Y226.85 E42.28305
G1 X118.78 Y226.773 E42.31904
G1 X118.082 Y226.594 E42.38429
G1 X117.407 Y226.339 E42.44963
G1 X116.631 Y225.931 E42.52902
G1 X116.311 Y225.734 E42.56304
G1 X115.631 Y225.253 E42.63847
G1 X115.228 Y224.927 E42.6854
G1 X115.153 Y224.865 E42.69421
G1 X113.825 Y223.758 E42.85077
G1 X111.771 Y222.142 E43.08742
G1 X109.647 Y220.566 E43.32691
G1 X107.483 Y219.053 E43.56601
G1 X105.258 Y217.589 E43.80718
G1 X103.011 Y216.201 E44.04634
G1 X100.685 Y214.855 E44.28968
G1 X99.872 Y214.409 E44.37365
G1 X99.854 Y214.399 E44.37552
G1 X97.888 Y213.312 E44.57894
G1 X97.803 Y213.265 E44.58773
G1 X96.558 Y212.552 E44.71765
G1 X96.476 Y212.504 E44.72625
G1 X95.223 Y211.762 E44.85811
G1 X95.137 Y211.71 E44.86721
G1 X93.774 Y210.874 E45.012
G1 X93.698 Y210.827 E45.02009
G1 X92.493 Y210.065 E45.14919
G1 X92.406 Y210.009 E45.15856
G1 X91.143 Y209.182 E45.29526
G1 X91.062 Y209.128 E45.30408
G1 X89.801 Y208.275 E45.44193
G1 X89.725 Y208.223 E45.45027
G1 X88.562 Y207.412 E45.57866
G1 X88.482 Y207.355 E45.58755
G1 X87.25 Y206.468 E45.72502
G1 X87.172 Y206.411 E45.73376
G1 X85.951 Y205.504 E45.87149
G1 X85.87 Y205.443 E45.88067
G1 X84.723 Y204.563 E46.01158
G1 X84.649 Y204.505 E46.0201
G1 X83.432 Y203.543 E46.16057
G1 X83.352 Y203.479 E46.16984
G1 X82.214 Y202.55 E46.30287
G1 X82.142 Y202.49 E46.31135
G1 X81.012 Y201.54 E46.44503
G1 X80.941 Y201.479 E46.45351
G1 X79.817 Y200.506 E46.58812
G1 X79.736 Y200.436 E46.59782
G1 X78.594 Y199.414 E46.73659
G1 X78.53 Y199.355 E46.74447
G1 X77.441 Y198.354 E46.87841
G1 X77.369 Y198.287 E46.88732
G1 X76.302 Y197.276 E47.02042
G1 X76.231 Y197.208 E47.02932
G1 X75.149 Y196.151 E47.16629
G1 X75.079 Y196.082 E47.17519
G1 X74.034 Y195.03 E47.30946
G1 X73.967 Y194.96 E47.31823
G1 X72.946 Y193.901 E47.45143
G1 X72.878 Y193.831 E47.46027
G1 X71.834 Y192.715 E47.59865
G1 X71.77 Y192.644 E47.60731
G1 X70.769 Y191.542 E47.74211
G1 X70.705 Y191.471 E47.75077
G1 X69.72 Y190.354 E47.88562
G1 X69.656 Y190.28 E47.89448
G1 X68.709 Y189.173 E48.0264
G1 X68.645 Y189.098 E48.03533
G1 X67.667 Y187.919 E48.17403
G1 X67.604 Y187.841 E48.18311
G1 X66.658 Y186.664 E48.31985
G1 X66.6 Y186.591 E48.32829
G1 X66.32 Y186.232 E48.36952
G1 X64.596 Y184.083 E48.61899
G1 X62.906 Y182.095 E48.85526
G1 X61.11 Y180.1 E49.09833
G1 X59.308 Y178.208 E49.33492
G1 X57.43 Y176.345 E49.57446
G1 X55.482 Y174.52 E49.81617
G1 X53.536 Y172.797 E50.05152
G1 X53.168 Y172.49 E50.09492
G1 X53.113 Y172.443 E50.10147
G1 X52.053 Y171.536 E50.2278
G1 X51.506 Y171.009 E50.29657
G1 X51.335 Y170.824 E50.31939
G1 X50.876 Y170.268 E50.38467
G1 X50.463 Y169.634 E50.45319
G1 X50.346 Y169.429 E50.47456
G1 X50.024 Y168.784 E50.53984
G1 X49.738 Y167.981 E50.61703
G1 X49.658 Y167.699 E50.64357
G1 X49.5 Y166.996 E50.70881
G1 X49.419 Y166.251 E50.77667
G1 X49.408 Y166.032 E50.79653
G1 X49.412 Y165.304 E50.86245
G1 X49.48 Y164.207 E50.96197
G1 X49.607 Y161.585 E51.19968
G1 X49.66 Y158.919 E51.44113
G1 X49.605 Y155.09 E51.78789
G1 X49.593 Y154.741 E51.81951
G1 X49.608 Y154.021 E51.88472
G1 X49.702 Y153.306 E51.95002
G1 X49.984 Y152.283 E52.04611
G1 X50.071 Y152.045 E52.06905
G1 X51.005 Y149.47 E52.31709
G1 X51.822 Y146.998 E52.55284
G1 X52.583 Y144.455 E52.7932
G1 X53.277 Y141.876 E53.03503
G1 X53.89 Y139.309 E53.27401
G1 X54.436 Y136.711 E53.5144
G1 X54.897 Y134.131 E53.75172
G1 X55.292 Y131.515 E53.99129
G1 X55.61 Y128.904 E54.22947
G1 X55.859 Y126.243 E54.47147
G1 X56.029 Y123.635 E54.70813
G1 X56.126 Y120.969 E54.9497
G1 X56.15 Y118.808 E55.14539
G1 X56.15 Y78.838 E58.7647
G1 X56.151 Y78.74 E58.77358
G1 X56.161 Y78.075 E58.8338
G1 X56.212 Y77.356 E58.89907
G1 X56.342 Y76.647 E58.96434
G1 X56.549 Y75.957 E59.02957
G1 X56.832 Y75.294 E59.09485
G1 X57.187 Y74.666 E59.16017
G1 X57.609 Y74.082 E59.22541
G1 X58.093 Y73.548 E59.29067
G1 X58.633 Y73.071 E59.35592
G0 F6000 X59.212 Y73.385
G1 F1500 X59.792 Y73.017 E59.41811
G1 X60.411 Y72.719 E59.48032
G1 X61.06 Y72.494 E59.54252
G1 X61.73 Y72.347 E59.60463
G1 X62.494 Y72.275 E59.67412
G1 X62.814 Y72.266 E59.70311
G1 X62.98 Y72.264 E59.71814
G1 X64.243 Y72.264 E59.83251
G1 X64.327 Y72.265 E59.84011
G1 X65.028 Y72.275 E59.9036
G1 X65.713 Y72.324 E59.96578
G1 X66.388 Y72.453 E60.02801
G1 X67.043 Y72.66 E60.09021
G1 X67.669 Y72.941 E60.15235
G1 X68.259 Y73.293 E60.21456
G1 X68.803 Y73.711 E60.27668
G1 X69.296 Y74.19 E60.33892
G1 X69.921 Y75.006 E60.43199
G1 X70.598 Y76.07 E60.54619
G1 X72.069 Y78.309 E60.78877
G1 X73.608 Y80.515 E61.03234
G1 X75.191 Y82.652 E61.27315
G1 X76.835 Y84.745 E61.51415
G1 X78.526 Y86.777 E61.75353
G1 X80.315 Y88.806 E61.99847
G1 X82.094 Y90.715 E62.23476
G1 X83.974 Y92.619 E62.47705
G1 X85.913 Y94.475 E62.7201
G1 X87.852 Y96.23 E62.95691
G1 X89.91 Y97.987 E63.20194
G1 X91.976 Y99.653 E63.44227
G1 X94.089 Y101.261 E63.6827
G1 X96.251 Y102.811 E63.92359
G1 X98.468 Y104.309 E64.16587
G1 X100.704 Y105.728 E64.40567
G1 X102.98 Y107.084 E64.64557
G1 X105.322 Y108.39 E64.88838
G1 X107.679 Y109.62 E65.12912
G1 X110.065 Y110.78 E65.36936
G1 X112.5 Y111.879 E65.61127
G1 X114.983 Y112.918 E65.85499
G1 X117.435 Y113.861 E66.09288
G1 X119.921 Y114.737 E66.33155
G1 X122.488 Y115.563 E66.57574
G1 X125.044 Y116.306 E66.81676
G1 X127.612 Y116.973 E67.05701
G1 X130.22 Y117.575 E67.29938
G1 X132.798 Y118.09 E67.53743
G1 X135.452 Y118.544 E67.78124
G1 X138.089 Y118.92 E68.02244
G1 X140.697 Y119.215 E68.2601
G1 X143.357 Y119.441 E68.50184
G1 X146.031 Y119.593 E68.74436
G1 X148.696 Y119.667 E68.98577
G1 X151.334 Y119.667 E69.22464
G1 X154.034 Y119.591 E69.46923
G1 X156.64 Y119.442 E69.70559
G1 X159.335 Y119.213 E69.9505
G1 X161.951 Y118.915 E70.18891
G1 X164.599 Y118.538 E70.43111
G1 X167.2 Y118.092 E70.67007
G1 X169.824 Y117.565 E70.91242
G1 X172.398 Y116.973 E71.15158
G1 X175.004 Y116.294 E71.39544
G1 X177.555 Y115.553 E71.63598
G1 X180.099 Y114.735 E71.87796
G1 X182.597 Y113.852 E72.11787
G1 X185.075 Y112.898 E72.35831
G1 X187.524 Y111.872 E72.59874
G1 X189.956 Y110.774 E72.84036
G1 X192.378 Y109.596 E73.08424
G1 X194.687 Y108.391 E73.32008
G1 X197.039 Y107.077 E73.56404
G1 X199.35 Y105.701 E73.80759
G1 X201.569 Y104.291 E74.04565
G1 X203.773 Y102.803 E74.28645
G1 X205.914 Y101.266 E74.52511
G1 X208.077 Y99.62 E74.77123
G1 X210.116 Y97.976 E75.0084
