;FLAVOR:Marlin
;TIME:4115
;Filament used: 11.3858m
;Layer height: 0.4
;MINX:49.315
;MINY:71.614
;MINZ:0.4
;MAXX:250.698
;MAXY:227.075
;MAXZ:13.6
;Generated with Cura_SteamEngine 4.4.1
M105
M109 S0
M82 ;absolute extrusion mode
; CREALITY CR10-S PRO
; START CODE
; PETG
; 05/15/2020

M140 S60		; set bed temperature to the minimum that will ever be used by a print
M104 S170		; set hotend temperature just to soften filament

G90				; set all axes to absolute positioning
M107			; turn off fans
M109 R170		; wait for hotend temperature

M302 S140		; Allow extrusion at soften temperature
G92 E0			; reset extruder position
G1 E-100 F400	; retract filament to prevent oozing
M400			; wait for movements to finish
M190 R60		; wait for bed temperature

G28				; home
M400			; wait to complete all tasks

M140 S80		; set target bed temperature
M104 S235		; set target extruder temperature
G1 X0 Y0 F5000	; move away from a likely print start position to protect area
G1 Z50			; raise hotend to allow for manipulation while heating if necessary
M501			; Recall saved configuration from eeprom
; M420 S1			; Enable ABL with saved Mesh

M109 R235		; wait for print temperature
M190 R80		; wait for bed temperature
G1 E5			; feed filament back into the nozzle
G0 Z0.4	; position nozzle at layer 1 height

G92 E0
G92 E0
G1 F1500 E-7
;LAYER_COUNT:34
;LAYER:0
M107
G0 F7200 X69.617 Y73.553 Z0.4
;TYPE:SKIRT
G1 F1500 E0
G1 X70.094 Y74.093 E0.07189
G1 X70.479 Y74.634 E0.13815
G1 X71.125 Y75.649 E0.2582
G1 X72.565 Y77.844 E0.52014
G1 X74.085 Y80.02 E0.78499
G1 X75.664 Y82.153 E1.04979
G1 X77.307 Y84.246 E1.31529
G1 X78.974 Y86.25 E1.57539
G1 X80.746 Y88.259 E1.84268
G1 X82.548 Y90.192 E2.10637
G1 X84.371 Y92.039 E2.36531
G1 X86.323 Y93.907 E2.6349
G1 X88.271 Y95.67 E2.89706
G1 X90.273 Y97.379 E3.1597
G1 X92.333 Y99.042 E3.42387
G1 X94.469 Y100.666 E3.6916
G1 X96.587 Y102.186 E3.95173
G1 X98.764 Y103.655 E4.21378
G1 X101.032 Y105.095 E4.48184
G1 X103.284 Y106.437 E4.74342
G1 X105.591 Y107.724 E5.00701
G1 X107.963 Y108.961 E5.27394
G1 X110.315 Y110.105 E5.53491
G1 X112.72 Y111.191 E5.79822
G1 X115.216 Y112.235 E6.06818
G1 X117.614 Y113.157 E6.32453
G1 X120.143 Y114.049 E6.59211
G1 X122.656 Y114.857 E6.8555
G1 X125.181 Y115.591 E7.11787
G1 X127.756 Y116.261 E7.38336
G1 X130.356 Y116.86 E7.64959
G1 X132.898 Y117.368 E7.90824
G1 X135.55 Y117.822 E8.17671
G1 X138.117 Y118.187 E8.43542
G1 X140.773 Y118.489 E8.70215
G1 X143.414 Y118.714 E8.96662
G1 X146.071 Y118.863 E9.23216
G1 X148.677 Y118.937 E9.49229
G1 X151.348 Y118.937 E9.7588
G1 X153.98 Y118.863 E10.02153
G1 X156.586 Y118.714 E10.28198
G1 X159.287 Y118.484 E10.55246
G1 X161.862 Y118.192 E10.81104
G1 X164.514 Y117.814 E11.07834
G1 X167.081 Y117.374 E11.33821
G1 X169.704 Y116.847 E11.60516
G1 X172.266 Y116.258 E11.86747
G1 X174.829 Y115.591 E12.13172
G1 X177.37 Y114.852 E12.39577
G1 X179.879 Y114.044 E12.65878
G1 X182.41 Y113.151 E12.92658
G1 X184.835 Y112.217 E13.18588
G1 X187.3 Y111.185 E13.45252
G1 X189.695 Y110.104 E13.71471
G1 X192.077 Y108.945 E13.97903
G1 X194.439 Y107.713 E14.24484
G1 X196.715 Y106.442 E14.50496
G1 X199.014 Y105.071 E14.77204
G1 X201.232 Y103.663 E15.03418
G1 X203.444 Y102.169 E15.30052
G1 X205.565 Y100.648 E15.56095
G1 X207.693 Y99.027 E15.82787
G1 X209.731 Y97.384 E16.08908
G1 X211.762 Y95.647 E16.35574
G1 X213.715 Y93.88 E16.61853
G1 X215.622 Y92.054 E16.88198
G1 X217.479 Y90.173 E17.14572
G1 X219.286 Y88.233 E17.41025
G1 X221.027 Y86.257 E17.67303
G1 X222.725 Y84.215 E17.93802
G1 X224.354 Y82.141 E18.20117
G1 X225.936 Y80.004 E18.46647
G1 X227.433 Y77.858 E18.72755
G1 X228.902 Y75.619 E18.99475
G1 X229.444 Y74.753 E19.09669
G1 X229.601 Y74.515 E19.12514
G1 X229.654 Y74.438 E19.13447
G1 X230.095 Y73.867 E19.20646
G1 X230.596 Y73.35 E19.27829
G1 X231.152 Y72.89 E19.35029
G1 X231.755 Y72.496 E19.42217
G1 X232.398 Y72.17 E19.4941
G1 X233.073 Y71.918 E19.56599
G1 X233.772 Y71.742 E19.63792
G1 X234.826 Y71.626 E19.74372
G1 X235.148 Y71.617 E19.77586
G1 X235.33 Y71.614 E19.79402
G1 X236.693 Y71.614 E19.93002
G1 X236.777 Y71.615 E19.93841
G1 X237.475 Y71.624 E20.00806
G1 X238.194 Y71.673 E20.07997
G1 X238.903 Y71.801 E20.15186
G1 X239.594 Y72.008 E20.22383
G1 X240.257 Y72.289 E20.29568
G1 X240.886 Y72.642 E20.36765
G1 X241.471 Y73.063 E20.43957
G1 X242.006 Y73.546 E20.51149
G1 X242.485 Y74.085 E20.58344
G1 X242.901 Y74.674 E20.65539
G1 X243.249 Y75.305 E20.72729
G1 X243.525 Y75.971 E20.79922
G1 X243.725 Y76.664 E20.87119
G1 X243.848 Y77.374 E20.94309
G1 X243.888 Y77.941 E20.99981
G1 X243.897 Y78.262 E21.03185
G1 X243.9 Y78.444 E21.05001
G1 X243.9 Y118.806 E25.07735
G1 X243.938 Y121.443 E25.3405
G1 X244.049 Y124.077 E25.60355
G1 X244.239 Y126.751 E25.87104
G1 X244.498 Y129.367 E26.13334
G1 X244.832 Y131.976 E26.39579
G1 X245.24 Y134.572 E26.658
G1 X245.729 Y137.202 E26.92492
G1 X246.285 Y139.786 E27.18866
G1 X246.909 Y142.329 E27.44992
G1 X247.62 Y144.916 E27.71763
G1 X248.386 Y147.419 E27.97881
G1 X249.231 Y149.924 E28.2426
G1 X249.788 Y151.424 E28.40226
G1 X249.815 Y151.498 E28.41012
G1 X250.097 Y152.287 E28.49372
G1 X250.301 Y152.979 E28.56571
G1 X250.428 Y153.688 E28.63758
G1 X250.474 Y154.636 E28.73228
G1 X250.447 Y155.718 E28.84028
G1 X250.418 Y158.466 E29.11449
G1 X250.464 Y161.083 E29.37565
G1 X250.637 Y164.543 E29.72132
G1 X250.685 Y165.24 E29.79104
G1 X250.698 Y165.861 E29.85301
G1 X250.692 Y166.086 E29.87547
G1 X250.633 Y166.805 E29.94745
G1 X250.544 Y167.303 E29.99793
G1 X250.5 Y167.504 E30.01846
G1 X250.196 Y168.501 E30.12247
G1 X250.119 Y168.696 E30.14339
G1 X249.817 Y169.351 E30.21535
G1 X249.594 Y169.74 E30.26009
G1 X249.484 Y169.917 E30.28089
G1 X249.07 Y170.507 E30.35281
G1 X248.593 Y171.048 E30.42477
G1 X248.197 Y171.418 E30.47885
G1 X246.19 Y173.14 E30.74272
G1 X244.168 Y174.946 E31.01323
G1 X242.267 Y176.74 E31.27405
G1 X240.402 Y178.604 E31.53715
G1 X238.579 Y180.531 E31.80183
G1 X236.814 Y182.508 E32.06627
G1 X235.108 Y184.53 E32.33025
G1 X232.514 Y187.775 E32.74477
G1 X232.442 Y187.864 E32.75619
G1 X231.414 Y189.105 E32.91699
G1 X231.35 Y189.18 E32.92683
G1 X230.406 Y190.285 E33.07184
G1 X230.343 Y190.358 E33.08146
G1 X229.364 Y191.47 E33.22929
G1 X229.297 Y191.545 E33.23933
G1 X228.267 Y192.679 E33.39218
G1 X228.207 Y192.744 E33.40101
G1 X227.227 Y193.794 E33.54432
G1 X227.157 Y193.868 E33.55449
G1 X226.114 Y194.951 E33.70451
G1 X226.043 Y195.023 E33.7146
G1 X224.954 Y196.119 E33.86877
G1 X224.884 Y196.188 E33.87858
G1 X223.86 Y197.188 E34.02139
G1 X223.798 Y197.249 E34.03007
G1 X222.683 Y198.309 E34.18358
G1 X222.606 Y198.381 E34.19409
G1 X221.527 Y199.374 E34.34041
G1 X221.457 Y199.437 E34.34981
G1 X220.335 Y200.44 E34.49997
G1 X220.26 Y200.506 E34.50994
G1 X219.098 Y201.513 E34.66337
G1 X219.025 Y201.575 E34.67292
G1 X217.954 Y202.476 E34.81257
G1 X217.881 Y202.537 E34.82207
G1 X216.698 Y203.503 E34.97446
G1 X216.621 Y203.565 E34.98433
G1 X215.412 Y204.522 E35.13818
G1 X215.335 Y204.582 E35.14792
G1 X214.209 Y205.446 E35.28954
G1 X214.131 Y205.505 E35.29929
G1 X212.886 Y206.431 E35.45412
G1 X212.808 Y206.488 E35.46375
G1 X211.637 Y207.332 E35.60778
G1 X211.559 Y207.387 E35.61731
G1 X210.288 Y208.275 E35.77201
G1 X210.206 Y208.332 E35.78198
G1 X209.014 Y209.138 E35.92556
G1 X208.934 Y209.191 E35.93513
G1 X207.619 Y210.052 E36.09196
G1 X207.538 Y210.104 E36.10157
G1 X206.355 Y210.854 E36.24133
G1 X206.272 Y210.906 E36.25111
G1 X204.949 Y211.717 E36.40594
G1 X204.867 Y211.766 E36.41548
G1 X203.614 Y212.509 E36.56083
G1 X203.528 Y212.559 E36.57075
G1 X202.202 Y213.318 E36.7232
G1 X202.12 Y213.364 E36.73259
G1 X200.172 Y214.442 E36.95474
G1 X198.791 Y215.216 E37.1127
G1 X196.494 Y216.576 E37.37906
G1 X194.263 Y217.984 E37.64229
G1 X192.056 Y219.466 E37.90755
G1 X189.918 Y220.99 E38.16953
G1 X187.794 Y222.596 E38.43523
G1 X185.319 Y224.592 E38.75248
G1 X184.5 Y225.276 E38.85896
G1 X183.922 Y225.706 E38.93084
G1 X183.602 Y225.905 E38.96844
G1 X183.222 Y226.126 E39.0123
G1 X182.58 Y226.453 E39.08419
G1 X181.613 Y226.792 E39.18644
G1 X181.416 Y226.844 E39.20677
G1 X180.71 Y226.989 E39.27868
G1 X180.326 Y227.034 E39.31726
G1 X180.121 Y227.052 E39.33779
G1 X179.4 Y227.075 E39.40977
G1 X178.931 Y227.047 E39.45665
G1 X178.368 Y226.993 E39.51309
G1 X178.25 Y226.981 E39.52492
G1 X176.259 Y226.753 E39.72488
G1 X173.635 Y226.528 E39.98767
G1 X170.994 Y226.375 E40.25163
G1 X168.359 Y226.298 E40.51466
G1 X165.724 Y226.296 E40.77758
G1 X163.051 Y226.369 E41.0444
G1 X160.43 Y226.515 E41.30633
G1 X159.676 Y226.576 E41.38181
G1 X159.637 Y226.579 E41.38571
G1 X157.377 Y226.749 E41.61185
G1 X157.286 Y226.755 E41.62095
G1 X155.784 Y226.847 E41.7711
G1 X155.685 Y226.852 E41.78099
G1 X154.074 Y226.926 E41.94191
G1 X153.976 Y226.93 E41.95169
G1 X152.483 Y226.976 E42.10074
G1 X152.386 Y226.978 E42.11042
G1 X150.931 Y227.001 E42.25562
G1 X150.832 Y227.002 E42.26549
G1 X149.28 Y227.003 E42.42035
G1 X149.181 Y227.002 E42.43023
G1 X147.612 Y226.979 E42.5868
G1 X147.511 Y226.977 E42.59688
G1 X146.054 Y226.933 E42.74233
G1 X145.956 Y226.929 E42.75212
G1 X144.388 Y226.858 E42.90873
G1 X144.289 Y226.853 E42.91862
G1 X142.787 Y226.762 E43.06877
G1 X142.69 Y226.755 E43.07847
G1 X139.125 Y226.485 E43.43521
G1 X136.424 Y226.35 E43.70505
G1 X133.82 Y226.291 E43.96495
G1 X131.147 Y226.308 E44.23167
G1 X128.511 Y226.399 E44.49484
G1 X125.878 Y226.564 E44.75808
G1 X123.237 Y226.805 E45.0227
G1 X121.344 Y227.024 E45.21284
G1 X120.648 Y227.067 E45.28242
G1 X120.391 Y227.069 E45.30806
G1 X119.671 Y227.034 E45.37999
G1 X118.841 Y226.894 E45.46398
G1 X118.512 Y226.816 E45.49772
G1 X117.82 Y226.611 E45.56973
G1 X117.051 Y226.278 E45.65335
G1 X116.832 Y226.166 E45.67789
G1 X116.21 Y225.803 E45.74975
G1 X115.796 Y225.506 E45.80059
G1 X115.524 Y225.294 E45.835
G1 X115.365 Y225.166 E45.85537
G1 X113.523 Y223.635 E46.09436
G1 X111.422 Y221.987 E46.3608
G1 X109.323 Y220.432 E46.62145
G1 X107.154 Y218.92 E46.88527
G1 X104.909 Y217.447 E47.15319
G1 X102.686 Y216.078 E47.41368
G1 X100.376 Y214.743 E47.6799
G1 X99.852 Y214.456 E47.73951
G1 X99.829 Y214.443 E47.74215
G1 X97.898 Y213.375 E47.96233
G1 X97.815 Y213.328 E47.97185
G1 X96.557 Y212.608 E48.11648
G1 X96.477 Y212.562 E48.12569
G1 X95.133 Y211.767 E48.2815
G1 X95.043 Y211.712 E48.29202
G1 X93.819 Y210.961 E48.43531
G1 X93.744 Y210.915 E48.44409
G1 X92.468 Y210.108 E48.59473
G1 X92.384 Y210.054 E48.6047
G1 X91.132 Y209.235 E48.75398
G1 X91.052 Y209.182 E48.76355
G1 X89.829 Y208.356 E48.91081
G1 X89.747 Y208.299 E48.92077
G1 X88.489 Y207.421 E49.07385
G1 X88.409 Y207.365 E49.08359
G1 X87.232 Y206.517 E49.22834
G1 X87.156 Y206.461 E49.23776
G1 X85.935 Y205.554 E49.38953
G1 X85.859 Y205.497 E49.399
G1 X84.659 Y204.578 E49.54982
G1 X84.58 Y204.516 E49.55984
G1 X83.463 Y203.633 E49.70191
G1 X83.384 Y203.57 E49.712
G1 X82.165 Y202.575 E49.869
G1 X82.093 Y202.515 E49.87836
G1 X80.991 Y201.589 E50.02198
G1 X80.919 Y201.528 E50.0314
G1 X79.773 Y200.536 E50.18263
G1 X79.695 Y200.467 E50.19302
G1 X78.602 Y199.49 E50.3393
G1 X78.535 Y199.429 E50.34834
G1 X77.358 Y198.347 E50.50787
G1 X77.281 Y198.275 E50.51839
G1 X76.308 Y197.351 E50.65228
G1 X76.244 Y197.29 E50.6611
G1 X75.122 Y196.195 E50.81753
G1 X75.05 Y196.124 E50.82762
G1 X74.005 Y195.072 E50.97558
G1 X73.938 Y195.003 E50.98517
G1 X72.916 Y193.943 E51.13209
G1 X72.85 Y193.873 E51.14169
G1 X71.809 Y192.761 E51.29368
G1 X71.743 Y192.69 E51.30335
G1 X70.729 Y191.574 E51.45381
G1 X70.662 Y191.499 E51.46384
G1 X69.657 Y190.358 E51.61556
G1 X69.595 Y190.286 E51.62504
G1 X68.675 Y189.21 E51.7663
G1 X68.61 Y189.133 E51.77635
G1 X67.615 Y187.932 E51.93197
G1 X67.554 Y187.858 E51.94154
G1 X66.647 Y186.73 E52.08597
G1 X66.589 Y186.656 E52.09535
G1 X66.406 Y186.421 E52.12507
G1 X64.682 Y184.273 E52.39989
G1 X62.993 Y182.288 E52.65995
G1 X61.211 Y180.307 E52.92582
G1 X59.375 Y178.381 E53.19133
G1 X57.498 Y176.519 E53.45514
G1 X55.583 Y174.726 E53.7169
G1 X53.589 Y172.961 E53.98261
G1 X52.641 Y172.169 E54.10587
G1 X52.577 Y172.116 E54.11416
G1 X51.937 Y171.567 E54.19829
G1 X51.417 Y171.068 E54.2702
G1 X50.978 Y170.544 E54.33841
G1 X50.758 Y170.252 E54.37489
G1 X50.356 Y169.653 E54.44687
G1 X49.967 Y168.884 E54.53286
G1 X49.859 Y168.63 E54.5604
G1 X49.614 Y167.952 E54.63234
G1 X49.446 Y167.252 E54.70417
G1 X49.372 Y166.718 E54.75796
G1 X49.332 Y166.308 E54.79906
G1 X49.315 Y165.25 E54.90464
G1 X49.384 Y164.203 E55.00934
G1 X49.52 Y161.567 E55.27271
G1 X49.583 Y158.926 E55.53631
G1 X49.569 Y156.265 E55.80183
G1 X49.528 Y154.722 E55.95584
G1 X49.549 Y154.002 E56.02771
G1 X49.649 Y153.288 E56.09965
G1 X49.814 Y152.635 E56.16686
G1 X49.947 Y152.203 E56.21196
G1 X50.046 Y151.905 E56.24329
G1 X50.981 Y149.319 E56.51767
G1 X51.807 Y146.811 E56.78114
G1 X52.555 Y144.307 E57.0419
G1 X53.249 Y141.714 E57.30974
G1 X53.856 Y139.167 E57.571
G1 X54.404 Y136.542 E57.83857
G1 X54.864 Y133.959 E58.10036
G1 X55.251 Y131.374 E58.36116
G1 X55.575 Y128.703 E58.62963
G1 X55.813 Y126.121 E58.88836
G1 X55.983 Y123.454 E59.15501
G1 X56.078 Y120.81 E59.419
G1 X56.1 Y118.738 E59.62576
G1 X56.1 Y78.788 E63.61198
G1 X56.101 Y78.69 E63.62176
G1 X56.111 Y78.025 E63.68812
G1 X56.162 Y77.306 E63.76005
G1 X56.292 Y76.597 E63.83197
G1 X56.499 Y75.907 E63.90385
G1 X56.782 Y75.244 E63.97578
G1 X57.137 Y74.616 E64.04776
G1 X57.559 Y74.032 E64.11965
G1 X58.043 Y73.498 E64.19156
G1 X58.583 Y73.021 E64.26346
G1 X59.173 Y72.606 E64.33543
G1 X59.805 Y72.259 E64.40737
G1 X60.471 Y71.985 E64.47923
G1 X61.164 Y71.786 E64.55117
G1 X61.875 Y71.665 E64.62314
G1 X62.427 Y71.626 E64.67835
G1 X62.747 Y71.617 E64.7103
G1 X62.93 Y71.614 E64.72856
G1 X64.293 Y71.614 E64.86456
G1 X64.386 Y71.615 E64.87384
G1 X65.088 Y71.625 E64.94389
G1 X65.807 Y71.675 E65.01581
G1 X66.516 Y71.804 E65.08771
G1 X67.206 Y72.012 E65.15962
G1 X67.869 Y72.294 E65.23151
G1 X68.497 Y72.648 E65.30344
G1 X69.082 Y73.07 E65.37542
G1 X69.617 Y73.553 E65.44734
G0 F7200 X69.347 Y74.14
G1 F1500 X69.972 Y74.956 E65.5499
G1 X70.574 Y75.902 E65.66178
G1 X72.087 Y78.208 E65.93698
G1 X73.604 Y80.379 E66.20125
G1 X75.181 Y82.51 E66.46577
G1 X76.832 Y84.613 E66.73255
G1 X78.521 Y86.643 E66.99604
G1 X80.315 Y88.678 E67.26674
G1 X82.09 Y90.581 E67.5264
G1 X83.971 Y92.487 E67.79359
G1 X85.911 Y94.344 E68.06156
G1 X87.849 Y96.097 E68.3223
G1 X89.912 Y97.859 E68.59301
G1 X91.963 Y99.515 E68.85604
G1 X94.098 Y101.138 E69.12364
G1 X96.25 Y102.682 E69.38792
G1 X98.445 Y104.164 E69.65218
G1 X100.712 Y105.603 E69.92011
G1 X102.967 Y106.947 E70.18204
G1 X105.319 Y108.259 E70.45077
G1 X107.663 Y109.482 E70.71458
G1 X110.088 Y110.661 E70.98363
G1 X112.483 Y111.742 E71.24582
G1 X114.98 Y112.787 E71.51591
G1 X117.422 Y113.726 E71.77696
G1 X119.939 Y114.614 E72.04328
G1 X122.474 Y115.429 E72.30898
G1 X125.041 Y116.175 E72.57571
G1 X127.608 Y116.842 E72.84035
G1 X130.216 Y117.444 E73.10742
G1 X132.818 Y117.963 E73.37216
G1 X135.435 Y118.412 E73.63711
G1 X138.075 Y118.787 E73.90317
G1 X140.689 Y119.084 E74.16567
G1 X143.363 Y119.312 E74.43345
G1 X146.022 Y119.461 E74.69919
G1 X148.695 Y119.537 E74.96601
G1 X151.33 Y119.537 E75.22893
G1 X154.031 Y119.461 E75.49854
G1 X156.636 Y119.312 E75.7589
G1 X159.332 Y119.083 E76.02887
G1 X161.948 Y118.785 E76.29159
G1 X164.596 Y118.408 E76.55847
G1 X167.197 Y117.962 E76.82179
G1 X169.838 Y117.432 E77.09056
G1 X172.381 Y116.847 E77.35093
G1 X175.001 Y116.165 E77.62106
G1 X177.552 Y115.424 E77.88613
G1 X180.084 Y114.608 E78.15157
G1 X182.603 Y113.72 E78.41807
G1 X185.084 Y112.764 E78.68337
G1 X187.525 Y111.742 E78.94742
G1 X189.95 Y110.647 E79.21291
G1 X192.349 Y109.481 E79.47906
G1 X194.712 Y108.248 E79.74501
G1 X197.048 Y106.943 E80.012
G1 X199.304 Y105.599 E80.27403
G1 X201.581 Y104.152 E80.54322
G1 X203.764 Y102.678 E80.80605
G1 X205.923 Y101.129 E81.07118
G1 X208.068 Y99.495 E81.34024
G1 X210.11 Y97.849 E81.60194
G1 X212.167 Y96.09 E81.872
G1 X214.108 Y94.334 E82.13317
G1 X216.04 Y92.484 E82.40007
G1 X217.92 Y90.58 E82.66706
G1 X219.735 Y88.631 E82.9328
G1 X221.481 Y86.649 E83.19636
G1 X223.197 Y84.586 E83.46411
G1 X224.82 Y82.52 E83.72626
G1 X226.422 Y80.356 E83.99491
G1 X227.938 Y78.181 E84.25945
G1 X229.407 Y75.945 E84.5264
G1 X229.953 Y75.071 E84.62923
