;FLAVOR:Marlin
;TIME:8271
;Filament used: 0m, 4.1828m
;Layer height: 0.3
;MINX:33.116
;MINY:61.864
;MINZ:0.3
;MAXX:233.893
;MAXY:216.853
;MAXZ:13.5
;Generated with Cura_SteamEngine 4.4.1
T1
M105
M109 S0
M82 ;absolute extrusion mode
; LULZBOT TAZ 6 DUAL EXTRUDER V3
; START CODE
; EXTRUDER 2 ONLY | PETG
; 05/12/2020

M73 P0                        ; clear GLCD progress bar
M75 		; start GLCD timer
G26                          ; clear potential 'probe fail' condition
M107                         ; disable fans
M420 S0                      ; disable leveling matrix
G90                          ; absolute positioning
M117 Soften Temp...

; --- SOFTEN TEMP
; T0
M104 S100 T0
; T1
M104 S170 T1		; soften filament -- HARDCODED TEMP
M140 S80		; get bed heating up
M109 R170 T1
; ----------

G28

M117 Heating...              ; LCD status message

; --- RETRACTION
T1                           ; select this extruder first
M82                          ; set extruder to absolute mode
G92 E0                       ; set extruder to zero
G1  E-5 F125                 ; retract XXmm of filament
; ----------

G1 Y100 F5000          ; move above wiper pad

; --- WIPING TEMP
M117 Wiping temp...			; LCD status message
M107						; Turn off fan
M109 R170 T1					; wait for T0 to reach temp
; ----------

; T0                           ; switch extruders
G1 Z1                        ; push nozzle into wiper
G1 Y90 F1000                   ; slow wipe
G1 Y85 F1000                   ; slow wipe
G1 Y90 F1000                   ; slow wipe
G1 Y80 F1000                   ; slow wipe
G1 Y95 F1000                   ; slow wipe
G1 Y75 F2000                   ; fast wipe
G1 Y65 F2000                   ; fast wipe
G1 Y70 F2000                   ; fast wipe
G1 Y60 F2000                   ; fast wipe
G1 Y55 F2000                   ; fast wipe
G1 Y50 F2000                   ; fast wipe
G1 Y40 F2000                   ; fast wipe
G1 Y45 F2000                   ; fast wipe
G1 Y35 F2000                   ; fast wipe
G1 Y40 F2000                   ; fast wipe
G1 Y70 F2000                   ; fast wipe
G1 Y30 Z2 F2000                ; fast wipe
G1 Y35 F2000                   ; fast wipe
G1 Y25 F2000                   ; fast wipe
G1 Y30 F2000                   ; fast wipe
G1 Y25 Z1.5 F1000              ; slow wipe
G1 Y23 F1000                   ; slow wipe
G1 Y10 Z25                      ; raise extruder

; --- probing temp
M106
; T1
M109 R140 T1
M107

M204 S175                    ; set accel for probing
G29                          ; probe sequence (for auto-leveling)
M420 S1                      ; enable leveling matrix
M425 Z					     ; use measured Z backlash for compensation
M425 Z F0		    		 ; turn off measured Z backlash compensation. (if activated in the quality settings, this command will automatically be ignored)
M204 S500                    ; set accel back to normal

; --- PRINT TEMP
M104 S245 T1				 ; set extruder temp -- HARDCODED TEMP
; ----------

G1 X100 Y-25 Z0.5 F4500      ; move to open space
M400                         ; clear buffer
M117 Heating...              ; LCD status message

; --- PRINT TEMP
; T1
M109 R245 T1				 ; set extruder temp and wait -- HARDCODED TEMP
; ----------

M117 Purging...              ; LCD status message

; -------------------- PURGE EXT 1 ------------------------------------
T1                           ; select this extruder first
G1  E0 F125  	             ; undo retraction
G92 E-50                     ; set extruder negative amount to purge
G1  E0 F125                  ; purge XXmm of filament

T1
G1 Z0.5                      ; clear bed (barely)
G1 X100 Y0 F5000             ; move above bed to shear off filament
M400                         ; clear buffer
M107

; -------------------- TURN EXT 2 OFF FOR SINGLE EXTRUDER PRINT ------------------
; T0
M104 S0 T0                     ; T1 hotend off
T1
; --------------------------------------------------------------------------------

M117 TAZ Printing...         ; LCD status message
G92 E0
G92 E0
G1 F1500 E-7
;LAYER_COUNT:45
;LAYER:0
M107
G0 F7200 X93.714 Y100.334 Z0.3
;TYPE:SKIRT
G1 F1500 E0.07838
G1 X96.119 Y101.42 E0.14678
G1 X98.611 Y102.462 E0.21681
G1 X101.041 Y103.396 E0.28429
G1 X103.563 Y104.286 E0.35362
G1 X106.069 Y105.092 E0.42186
G1 X108.626 Y105.835 E0.49089
G1 X111.206 Y106.506 E0.56
G1 X113.787 Y107.101 E0.62866
G1 X116.377 Y107.618 E0.69713
G1 X118.974 Y108.064 E0.76544
G1 X121.628 Y108.441 E0.83493
G1 X124.255 Y108.739 E0.90346
G1 X126.88 Y108.963 E0.97176
G1 X129.55 Y109.113 E1.04108
G1 X132.17 Y109.187 E1.10903
G1 X134.82 Y109.187 E1.17773
G1 X137.501 Y109.111 E1.24725
G1 X140.157 Y108.96 E1.31622
G1 X142.766 Y108.738 E1.3841
G1 X145.395 Y108.439 E1.45269
G1 X148.051 Y108.061 E1.52223
G1 X150.644 Y107.616 E1.59044
G1 X153.267 Y107.089 E1.65979
G1 X155.816 Y106.503 E1.72759
G1 X158.383 Y105.835 E1.79636
G1 X160.957 Y105.087 E1.86584
G1 X163.46 Y104.281 E1.93401
G1 X165.984 Y103.391 E2.00339
G1 X168.453 Y102.439 E2.07199
G1 X170.888 Y101.419 E2.14042
G1 X173.296 Y100.333 E2.2089
G1 X175.704 Y99.161 E2.27833
G1 X178.037 Y97.944 E2.34654
G1 X180.352 Y96.651 E2.41528
G1 X182.638 Y95.289 E2.48426
G1 X184.892 Y93.857 E2.55349
G1 X187.051 Y92.399 E2.62102
G1 X189.24 Y90.829 E2.69085
G1 X191.323 Y89.242 E2.75874
G1 X193.411 Y87.559 E2.82826
G1 X195.416 Y85.845 E2.89664
G1 X197.398 Y84.051 E2.96594
G1 X199.279 Y82.251 E3.03343
G1 X201.179 Y80.325 E3.10357
G1 X202.964 Y78.409 E3.17145
G1 X204.73 Y76.404 E3.24071
G1 X206.401 Y74.396 E3.30843
G1 X208.06 Y72.283 E3.37808
G1 X209.634 Y70.158 E3.44663
G1 X211.139 Y67.999 E3.51485
G1 X212.608 Y65.761 E3.58425
G1 X213.156 Y64.885 E3.61104
G1 X213.307 Y64.656 E3.61815
G1 X213.36 Y64.579 E3.62057
G1 X213.793 Y64.021 E3.63888
G1 X214.286 Y63.515 E3.65719
G1 X214.833 Y63.067 E3.67552
G1 X215.428 Y62.685 E3.69385
G1 X216.061 Y62.372 E3.71216
G1 X216.727 Y62.132 E3.73051
G1 X217.414 Y61.969 E3.74881
G1 X218.333 Y61.875 E3.77276
G1 X218.655 Y61.866 E3.78111
G1 X218.83 Y61.864 E3.78565
G1 X220.293 Y61.864 E3.82358
G1 X220.374 Y61.865 E3.82568
G1 X221.072 Y61.874 E3.84377
G1 X221.777 Y61.923 E3.86209
G1 X222.472 Y62.051 E3.88041
G1 X223.148 Y62.257 E3.89873
G1 X223.796 Y62.538 E3.91704
G1 X224.409 Y62.891 E3.93538
G1 X224.978 Y63.31 E3.9537
G1 X225.496 Y63.791 E3.97202
G1 X225.956 Y64.327 E3.99033
G1 X226.353 Y64.912 E4.00866
G1 X226.681 Y65.538 E4.02698
G1 X226.937 Y66.197 E4.04531
G1 X227.116 Y66.881 E4.06364
G1 X227.217 Y67.58 E4.08194
G1 X227.239 Y67.948 E4.0915
G1 X227.248 Y68.269 E4.09983
G1 X227.25 Y68.444 E4.10436
G1 X227.25 Y108.841 E5.15159
G1 X227.288 Y111.492 E5.22032
G1 X227.4 Y114.14 E5.28902
G1 X227.586 Y116.758 E5.35706
G1 X227.853 Y119.458 E5.42739
G1 X228.185 Y122.047 E5.49506
G1 X228.595 Y124.657 E5.56355
G1 X229.085 Y127.293 E5.63305
G1 X229.64 Y129.872 E5.70144
G1 X230.263 Y132.412 E5.76924
G1 X230.977 Y135.01 E5.83908
G1 X231.753 Y137.549 E5.90791
G1 X233.058 Y141.327 E6.01152
G1 X233.433 Y142.342 E6.03957
G1 X233.64 Y143.018 E6.0579
G1 X233.769 Y143.713 E6.07623
G1 X233.814 Y144.752 E6.10319
G1 X233.791 Y145.334 E6.11828
G1 X233.715 Y147.99 E6.18717
G1 X233.713 Y150.642 E6.25591
G1 X233.788 Y153.315 E6.32523
G1 X233.851 Y154.423 E6.354
G1 X233.855 Y154.504 E6.35611
G1 X233.893 Y155.366 E6.37847
G1 X233.865 Y156.291 E6.40246
G1 X233.819 Y156.731 E6.41393
G1 X233.706 Y157.429 E6.43226
G1 X233.515 Y158.109 E6.45057
G1 X233.228 Y158.806 E6.47011
G1 X233.056 Y159.161 E6.48034
G1 X232.712 Y159.779 E6.49867
G1 X232.301 Y160.354 E6.517
G1 X231.776 Y160.929 E6.53718
G1 X231.472 Y161.223 E6.54814
G1 X231.203 Y161.468 E6.55758
G1 X230.326 Y162.223 E6.58757
G1 X228.318 Y163.999 E6.65707
G1 X226.36 Y165.83 E6.72656
G1 X224.499 Y167.674 E6.79448
G1 X222.666 Y169.595 E6.86331
G1 X220.88 Y171.575 E6.93243
G1 X219.165 Y173.588 E7.00099
G1 X217.44 Y175.737 E7.07242
G1 X216.871 Y176.466 E7.0964
G1 X216.817 Y176.534 E7.09865
G1 X215.866 Y177.719 E7.13804
G1 X215.804 Y177.795 E7.14058
G1 X214.831 Y178.969 E7.18011
G1 X214.772 Y179.039 E7.18248
G1 X213.826 Y180.147 E7.22025
G1 X213.764 Y180.219 E7.22271
G1 X212.742 Y181.38 E7.26281
G1 X212.683 Y181.447 E7.26512
G1 X211.699 Y182.533 E7.30311
G1 X211.633 Y182.604 E7.30562
G1 X210.618 Y183.69 E7.34416
G1 X210.554 Y183.757 E7.34656
G1 X209.512 Y184.839 E7.3855
G1 X209.446 Y184.907 E7.38796
G1 X208.394 Y185.967 E7.42667
G1 X208.331 Y186.029 E7.42896
G1 X207.262 Y187.076 E7.46775
G1 X207.192 Y187.144 E7.47028
G1 X206.09 Y188.19 E7.50967
G1 X206.022 Y188.254 E7.51209
G1 X204.931 Y189.259 E7.55054
G1 X204.864 Y189.319 E7.55288
G1 X203.75 Y190.316 E7.59163
G1 X203.672 Y190.385 E7.59433
G1 X202.534 Y191.37 E7.63335
G1 X202.471 Y191.424 E7.6355
G1 X201.361 Y192.359 E7.67312
G1 X201.289 Y192.419 E7.67555
G1 X200.119 Y193.375 E7.71472
G1 X200.045 Y193.434 E7.71717
G1 X198.838 Y194.39 E7.75709
G1 X198.76 Y194.451 E7.75965
G1 X197.556 Y195.374 E7.79898
G1 X197.481 Y195.43 E7.80141
G1 X196.344 Y196.275 E7.83813
G1 X196.273 Y196.328 E7.84043
G1 X195.02 Y197.232 E7.88048
G1 X194.94 Y197.288 E7.88301
G1 X193.735 Y198.129 E7.92111
G1 X193.662 Y198.179 E7.9234
G1 X192.405 Y199.03 E7.96275
G1 X192.326 Y199.083 E7.96522
G1 X191.073 Y199.904 E8.00405
G1 X190.992 Y199.956 E8.00655
G1 X189.748 Y200.744 E8.04472
G1 X189.67 Y200.793 E8.04711
G1 X188.363 Y201.594 E8.08685
G1 X188.284 Y201.641 E8.08923
G1 X187.012 Y202.395 E8.12756
G1 X186.929 Y202.443 E8.13005
G1 X185.636 Y203.183 E8.16867
G1 X185.559 Y203.227 E8.17097
G1 X184.204 Y203.977 E8.21111
G1 X184.194 Y203.983 E8.21142
G1 X181.633 Y205.395 E8.28723
G1 X179.33 Y206.754 E8.35655
G1 X177.109 Y208.15 E8.42455
G1 X174.876 Y209.645 E8.49422
G1 X172.742 Y211.163 E8.5621
G1 X170.631 Y212.754 E8.63063
G1 X167.559 Y215.229 E8.7329
G1 X166.984 Y215.641 E8.75123
G1 X166.367 Y215.985 E8.76955
G1 X165.728 Y216.252 E8.7875
G1 X165.325 Y216.395 E8.79859
G1 X164.647 Y216.593 E8.8169
G1 X163.95 Y216.714 E8.83523
G1 X163.105 Y216.754 E8.85716
G1 X162.673 Y216.745 E8.86837
G1 X162.118 Y216.708 E8.88278
G1 X161.584 Y216.649 E8.89671
G1 X158.861 Y216.386 E8.96763
G1 X156.24 Y216.207 E9.03573
G1 X153.599 Y216.102 E9.10425
G1 X150.91 Y216.071 E9.17396
G1 X148.293 Y216.115 E9.24181
G1 X145.636 Y216.235 E9.31076
G1 X140.873 Y216.599 E9.43459
G1 X140.776 Y216.605 E9.43711
G1 X139.234 Y216.699 E9.47716
G1 X139.142 Y216.704 E9.47955
G1 X137.581 Y216.776 E9.52006
G1 X137.484 Y216.78 E9.52258
G1 X135.983 Y216.826 E9.56151
G1 X135.889 Y216.828 E9.56394
G1 X134.402 Y216.851 E9.6025
G1 X134.309 Y216.852 E9.60491
G1 X132.783 Y216.853 E9.64447
G1 X132.688 Y216.852 E9.64693
G1 X131.104 Y216.829 E9.688
G1 X131.004 Y216.827 E9.69059
G1 X129.536 Y216.782 E9.72866
G1 X129.445 Y216.779 E9.73102
G1 X127.915 Y216.71 E9.77072
G1 X127.816 Y216.704 E9.7733
G1 X126.246 Y216.608 E9.81407
G1 X126.144 Y216.601 E9.81672
G1 X121.723 Y216.259 E9.93167
G1 X119.058 Y216.13 E10.00084
G1 X116.406 Y216.078 E10.0696
G1 X113.756 Y216.099 E10.1383
G1 X111.1 Y216.197 E10.2072
G1 X108.474 Y216.367 E10.27541
G1 X104.591 Y216.744 E10.37655
G1 X103.885 Y216.772 E10.39486
G1 X103.01 Y216.696 E10.41763
G1 X102.587 Y216.629 E10.42873
G1 X101.896 Y216.479 E10.44706
G1 X101.227 Y216.252 E10.46538
G1 X100.54 Y215.925 E10.4851
G1 X100.211 Y215.743 E10.49485
G1 X99.612 Y215.366 E10.5132
G1 X99.33 Y215.153 E10.52236
G1 X98.763 Y214.699 E10.54119
G1 X98.681 Y214.632 E10.54393
G1 X97.631 Y213.762 E10.57928
G1 X95.499 Y212.095 E10.64944
G1 X93.414 Y210.558 E10.71659
G1 X91.216 Y209.03 E10.78598
G1 X88.987 Y207.573 E10.85502
G1 X86.732 Y206.191 E10.92358
G1 X84.397 Y204.846 E10.99343
G1 X82.849 Y204.004 E11.03911
G1 X82.815 Y203.986 E11.04011
G1 X81.456 Y203.236 E11.08035
G1 X81.371 Y203.188 E11.08288
G1 X80.113 Y202.468 E11.12046
G1 X80.032 Y202.421 E11.12288
G1 X78.741 Y201.656 E11.16178
G1 X78.665 Y201.61 E11.16409
G1 X77.369 Y200.817 E11.20347
G1 X77.285 Y200.765 E11.20604
G1 X76.053 Y199.984 E11.24385
G1 X75.976 Y199.934 E11.24623
G1 X74.679 Y199.085 E11.28641
G1 X74.604 Y199.035 E11.28875
G1 X73.353 Y198.19 E11.32789
G1 X73.273 Y198.135 E11.3304
G1 X72.126 Y197.334 E11.36667
G1 X72.052 Y197.282 E11.36901
G1 X70.788 Y196.372 E11.40939
G1 X70.712 Y196.317 E11.41182
G1 X69.517 Y195.429 E11.45042
G1 X69.442 Y195.372 E11.45286
G1 X68.259 Y194.465 E11.4915
G1 X68.183 Y194.406 E11.494
G1 X66.974 Y193.449 E11.53397
G1 X66.903 Y193.392 E11.53633
G1 X65.787 Y192.482 E11.57366
G1 X65.715 Y192.422 E11.57609
G1 X64.554 Y191.446 E11.61541
G1 X64.479 Y191.382 E11.61796
G1 X63.342 Y190.395 E11.65699
G1 X63.28 Y190.34 E11.65914
G1 X62.192 Y189.37 E11.69693
G1 X62.116 Y189.302 E11.69957
G1 X60.986 Y188.261 E11.7394
G1 X60.919 Y188.197 E11.7418
G1 X59.839 Y187.172 E11.7804
G1 X59.774 Y187.11 E11.78273
G1 X58.743 Y186.103 E11.82009
G1 X58.673 Y186.034 E11.82264
G1 X57.541 Y184.893 E11.8643
G1 X57.476 Y184.826 E11.86672
G1 X56.491 Y183.803 E11.90354
G1 X56.429 Y183.738 E11.90587
G1 X55.399 Y182.637 E11.94495
G1 X55.338 Y182.571 E11.94728
G1 X54.318 Y181.449 E11.98659
G1 X54.251 Y181.373 E11.98922
G1 X53.285 Y180.275 E12.02713
G1 X53.225 Y180.206 E12.0295
G1 X52.253 Y179.068 E12.06829
G1 X52.196 Y179.001 E12.07057
G1 X51.234 Y177.842 E12.10962
G1 X51.171 Y177.764 E12.11222
G1 X50.178 Y176.528 E12.15332
G1 X50.12 Y176.456 E12.15572
G1 X49.555 Y175.731 E12.17955
G1 X47.897 Y173.665 E12.24822
G1 X46.167 Y171.631 E12.31744
G1 X44.409 Y169.677 E12.38558
G1 X42.582 Y167.759 E12.45424
G1 X40.703 Y165.893 E12.52289
G1 X38.749 Y164.062 E12.59231
G1 X36.263 Y161.874 E12.67816
G1 X35.689 Y161.387 E12.69767
G1 X35.177 Y160.9 E12.71599
G1 X34.813 Y160.477 E12.73046
G1 X34.571 Y160.168 E12.74063
G1 X34.168 Y159.587 E12.75896
G1 X33.832 Y158.965 E12.77729
G1 X33.552 Y158.259 E12.79698
G1 X33.422 Y157.862 E12.80781
G1 X33.241 Y157.179 E12.82612
G1 X33.137 Y156.48 E12.84444
G1 X33.116 Y155.7 E12.86467
G1 X33.149 Y154.748 E12.88937
G1 X33.154 Y154.637 E12.89225
G1 X33.231 Y153.172 E12.93028
G1 X33.295 Y150.524 E12.99894
G1 X33.283 Y147.868 E13.06779
G1 X33.182 Y144.724 E13.14934
G1 X33.199 Y144.018 E13.16765
G1 X33.296 Y143.318 E13.18597
G1 X33.55 Y142.401 E13.21063
G1 X34.624 Y139.426 E13.29263
G1 X35.453 Y136.91 E13.3613
G1 X36.211 Y134.366 E13.43011
G1 X36.899 Y131.798 E13.49903
G1 X37.52 Y129.188 E13.56858
G1 X38.044 Y126.656 E13.63561
G1 X38.518 Y124.003 E13.70547
G1 X38.905 Y121.411 E13.77341
G1 X39.224 Y118.772 E13.84232
G1 X39.469 Y116.1 E13.91188
G1 X39.635 Y113.493 E13.9796
G1 X39.729 Y110.835 E14.04854
G1 X39.75 Y108.791 E14.10153
G1 X39.75 Y68.788 E15.13854
G1 X39.751 Y68.685 E15.14121
G1 X39.762 Y68.02 E15.15845
G1 X39.813 Y67.315 E15.17678
G1 X39.944 Y66.62 E15.19511
G1 X40.153 Y65.945 E15.21343
G1 X40.436 Y65.297 E15.23176
G1 X40.791 Y64.686 E15.25008
G1 X41.212 Y64.118 E15.26841
G1 X41.695 Y63.602 E15.28673
G1 X42.233 Y63.144 E15.30505
G1 X42.82 Y62.749 E15.32339
G1 X43.447 Y62.423 E15.34171
G1 X44.107 Y62.17 E15.36003
G1 X44.791 Y61.993 E15.37835
G1 X45.835 Y61.875 E15.40558
G1 X46.154 Y61.866 E15.41385
G1 X46.33 Y61.864 E15.41842
G1 X47.793 Y61.864 E15.45634
G1 X47.882 Y61.865 E15.45865
G1 X48.584 Y61.875 E15.47685
G1 X49.289 Y61.925 E15.49517
G1 X49.984 Y62.054 E15.5135
G1 X50.66 Y62.261 E15.53182
G1 X51.308 Y62.543 E15.55014
G1 X51.92 Y62.896 E15.56846
G1 X52.489 Y63.316 E15.58679
G1 X53.006 Y63.798 E15.60512
G1 X53.465 Y64.335 E15.62343
G1 X53.768 Y64.768 E15.63713
G1 X54.414 Y65.783 E15.66832
G1 X55.859 Y67.986 E15.73662
G1 X57.388 Y70.174 E15.80581
G1 X58.975 Y72.318 E15.87496
G1 X60.596 Y74.383 E15.94302
G1 X62.304 Y76.436 E16.01225
G1 X64.052 Y78.418 E16.08076
G1 X65.864 Y80.362 E16.14965
G1 X67.696 Y82.218 E16.21725
G1 X69.64 Y84.079 E16.28702
G1 X71.601 Y85.852 E16.35555
G1 X73.632 Y87.587 E16.4248
G1 X75.68 Y89.24 E16.49302
G1 X77.81 Y90.86 E16.56239
G1 X79.94 Y92.388 E16.63035
G1 X82.129 Y93.865 E16.6988
G1 X84.409 Y95.313 E16.76882
G1 X86.673 Y96.662 E16.83714
G1 X88.966 Y97.941 E16.9052
G1 X91.335 Y99.177 E16.97447
G1 X93.714 Y100.334 E17.04305
G0 F7200 X93.499 Y100.785
G1 F1500 X95.93 Y101.883 E17.1122
G1 X98.436 Y102.931 E17.18262
G1 X100.886 Y103.873 E17.25066
G1 X103.379 Y104.752 E17.31919
