;FLAVOR:Marlin
;TIME:4619
;Filament used: 0m, 3.68514m
;Layer height: 0.3
;MINX:33.116
;MINY:61.864
;MINZ:0.3
;MAXX:233.893
;MAXY:216.853
;MAXZ:13.5
;Generated with Cura_SteamEngine 4.4.1
T1
M105
M109 S0
M82 ;absolute extrusion mode
; LULZBOT TAZ 6 DUAL EXTRUDER V3
; START CODE
; EXTRUDER 2 ONLY | PETG
; 05/12/2020

M73 P0                        ; clear GLCD progress bar
M75 		; start GLCD timer
G26                          ; clear potential 'probe fail' condition
M107                         ; disable fans
M420 S0                      ; disable leveling matrix
G90                          ; absolute positioning
M117 Soften Temp...

; --- SOFTEN TEMP
; T0
M104 S100 T0
; T1
M104 S170 T1		; soften filament -- HARDCODED TEMP
M140 S80		; get bed heating up
M109 R170 T1
; ----------

G28

M117 Heating...              ; LCD status message

; --- RETRACTION
T1                           ; select this extruder first
M82                          ; set extruder to absolute mode
G92 E0                       ; set extruder to zero
G1  E-5 F125                 ; retract XXmm of filament
; ----------

G1 Y100 F5000          ; move above wiper pad

; --- WIPING TEMP
M117 Wiping temp...			; LCD status message
M107						; Turn off fan
M109 R170 T1					; wait for T0 to reach temp
; ----------

; T0                           ; switch extruders
G1 Z1                        ; push nozzle into wiper
G1 Y90 F1000                   ; slow wipe
G1 Y85 F1000                   ; slow wipe
G1 Y90 F1000                   ; slow wipe
G1 Y80 F1000                   ; slow wipe
G1 Y95 F1000                   ; slow wipe
G1 Y75 F2000                   ; fast wipe
G1 Y65 F2000                   ; fast wipe
G1 Y70 F2000                   ; fast wipe
G1 Y60 F2000                   ; fast wipe
G1 Y55 F2000                   ; fast wipe
G1 Y50 F2000                   ; fast wipe
G1 Y40 F2000                   ; fast wipe
G1 Y45 F2000                   ; fast wipe
G1 Y35 F2000                   ; fast wipe
G1 Y40 F2000                   ; fast wipe
G1 Y70 F2000                   ; fast wipe
G1 Y30 Z2 F2000                ; fast wipe
G1 Y35 F2000                   ; fast wipe
G1 Y25 F2000                   ; fast wipe
G1 Y30 F2000                   ; fast wipe
G1 Y25 Z1.5 F1000              ; slow wipe
G1 Y23 F1000                   ; slow wipe
G1 Y10 Z25                      ; raise extruder

; --- probing temp
M106
; T1
M109 R140 T1
M107

M204 S175                    ; set accel for probing
G29                          ; probe sequence (for auto-leveling)
M420 S1                      ; enable leveling matrix
M425 Z					     ; use measured Z backlash for compensation
M425 Z F0		    		 ; turn off measured Z backlash compensation. (if activated in the quality settings, this command will automatically be ignored)
M204 S500                    ; set accel back to normal

; --- PRINT TEMP
M104 S245 T1				 ; set extruder temp -- HARDCODED TEMP
; ----------

G1 X100 Y-25 Z0.5 F4500      ; move to open space
M400                         ; clear buffer
M117 Heating...              ; LCD status message

; --- PRINT TEMP
; T1
M109 R245 T1				 ; set extruder temp and wait -- HARDCODED TEMP
; ----------

M117 Purging...              ; LCD status message

; -------------------- PURGE EXT 1 ------------------------------------
T1                           ; select this extruder first
G1  E0 F125  	             ; undo retraction
G92 E-50                     ; set extruder negative amount to purge
G1  E0 F125                  ; purge XXmm of filament

T1
G1 Z0.5                      ; clear bed (barely)
G1 X100 Y0 F5000             ; move above bed to shear off filament
M400                         ; clear buffer
M107

; -------------------- TURN EXT 2 OFF FOR SINGLE EXTRUDER PRINT ------------------
; T0
M104 S0 T0                     ; T1 hotend off
T1
; --------------------------------------------------------------------------------

M117 TAZ Printing...         ; LCD status message
G92 E0
G92 E0
G1 F1500 E-7
;LAYER_COUNT:45
;LAYER:0
M107
G0 F7200 X93.714 Y100.334 Z0.3
;TYPE:SKIRT
G1 F1500 E0
G1 X96.119 Y101.42 E0.06841
G1 X98.611 Y102.462 E0.13843
G1 X101.041 Y103.396 E0.20591
G1 X103.563 Y104.286 E0.27524
G1 X106.069 Y105.092 E0.34349
G1 X108.626 Y105.835 E0.41251
G1 X111.206 Y106.506 E0.48162
G1 X113.787 Y107.101 E0.55028
G1 X116.377 Y107.618 E0.61875
G1 X118.974 Y108.064 E0.68706
G1 X121.628 Y108.441 E0.75655
G1 X124.255 Y108.739 E0.82509
G1 X126.88 Y108.963 E0.89338
G1 X129.55 Y109.113 E0.96271
G1 X132.17 Y109.187 E1.03065
G1 X134.82 Y109.187 E1.09935
G1 X137.501 Y109.111 E1.16888
G1 X140.157 Y108.96 E1.23784
G1 X142.766 Y108.738 E1.30572
G1 X145.395 Y108.439 E1.37431
G1 X148.051 Y108.061 E1.44386
G1 X150.644 Y107.616 E1.51206
G1 X153.267 Y107.089 E1.58141
G1 X155.816 Y106.503 E1.64922
G1 X158.383 Y105.835 E1.71798
G1 X160.957 Y105.087 E1.78746
G1 X163.46 Y104.281 E1.85563
G1 X165.984 Y103.391 E1.92501
G1 X168.453 Y102.439 E1.99361
G1 X170.888 Y101.419 E2.06205
G1 X173.296 Y100.333 E2.13052
G1 X175.704 Y99.161 E2.19995
G1 X178.037 Y97.944 E2.26816
G1 X180.352 Y96.651 E2.3369
G1 X182.638 Y95.289 E2.40588
G1 X184.892 Y93.857 E2.47511
G1 X187.051 Y92.399 E2.54264
G1 X189.24 Y90.829 E2.61248
G1 X191.323 Y89.242 E2.68036
G1 X193.411 Y87.559 E2.74988
G1 X195.416 Y85.845 E2.81826
G1 X197.398 Y84.051 E2.88756
G1 X199.279 Y82.251 E2.95506
G1 X201.179 Y80.325 E3.02519
G1 X202.964 Y78.409 E3.09307
G1 X204.73 Y76.404 E3.16234
G1 X206.401 Y74.396 E3.23006
G1 X208.06 Y72.283 E3.2997
G1 X209.634 Y70.158 E3.36825
G1 X211.139 Y67.999 E3.43648
G1 X212.608 Y65.761 E3.50587
G1 X213.156 Y64.885 E3.53266
G1 X213.307 Y64.656 E3.53977
G1 X213.36 Y64.579 E3.54219
G1 X213.793 Y64.021 E3.5605
G1 X214.286 Y63.515 E3.57882
G1 X214.833 Y63.067 E3.59715
G1 X215.428 Y62.685 E3.61548
G1 X216.061 Y62.372 E3.63378
G1 X216.727 Y62.132 E3.65213
G1 X217.414 Y61.969 E3.67044
G1 X218.333 Y61.875 E3.69439
G1 X218.655 Y61.866 E3.70274
G1 X218.83 Y61.864 E3.70727
G1 X220.293 Y61.864 E3.7452
G1 X220.374 Y61.865 E3.7473
G1 X221.072 Y61.874 E3.76539
G1 X221.777 Y61.923 E3.78371
G1 X222.472 Y62.051 E3.80203
G1 X223.148 Y62.257 E3.82035
G1 X223.796 Y62.538 E3.83866
G1 X224.409 Y62.891 E3.857
G1 X224.978 Y63.31 E3.87532
G1 X225.496 Y63.791 E3.89364
G1 X225.956 Y64.327 E3.91195
G1 X226.353 Y64.912 E3.93028
G1 X226.681 Y65.538 E3.9486
G1 X226.937 Y66.197 E3.96693
G1 X227.116 Y66.881 E3.98526
G1 X227.217 Y67.58 E4.00357
G1 X227.239 Y67.948 E4.01312
G1 X227.248 Y68.269 E4.02145
G1 X227.25 Y68.444 E4.02599
G1 X227.25 Y108.841 E5.07321
G1 X227.288 Y111.492 E5.14194
G1 X227.4 Y114.14 E5.21064
G1 X227.586 Y116.758 E5.27868
G1 X227.853 Y119.458 E5.34902
G1 X228.185 Y122.047 E5.41668
G1 X228.595 Y124.657 E5.48517
G1 X229.085 Y127.293 E5.55468
G1 X229.64 Y129.872 E5.62306
G1 X230.263 Y132.412 E5.69086
G1 X230.977 Y135.01 E5.76071
G1 X231.753 Y137.549 E5.82953
G1 X233.058 Y141.327 E5.93315
G1 X233.433 Y142.342 E5.9612
G1 X233.64 Y143.018 E5.97952
G1 X233.769 Y143.713 E5.99785
G1 X233.814 Y144.752 E6.02481
G1 X233.791 Y145.334 E6.03991
G1 X233.715 Y147.99 E6.10879
G1 X233.713 Y150.642 E6.17754
G1 X233.788 Y153.315 E6.24686
G1 X233.851 Y154.423 E6.27563
G1 X233.855 Y154.504 E6.27773
G1 X233.893 Y155.366 E6.3001
G1 X233.865 Y156.291 E6.32409
G1 X233.819 Y156.731 E6.33555
G1 X233.706 Y157.429 E6.35388
G1 X233.515 Y158.109 E6.37219
G1 X233.228 Y158.806 E6.39174
G1 X233.056 Y159.161 E6.40196
G1 X232.712 Y159.779 E6.4203
G1 X232.301 Y160.354 E6.43862
G1 X231.776 Y160.929 E6.4588
G1 X231.472 Y161.223 E6.46977
G1 X231.203 Y161.468 E6.4792
G1 X230.326 Y162.223 E6.5092
G1 X228.318 Y163.999 E6.57869
G1 X226.36 Y165.83 E6.64818
G1 X224.499 Y167.674 E6.7161
G1 X222.666 Y169.595 E6.78493
G1 X220.88 Y171.575 E6.85406
G1 X219.165 Y173.588 E6.92261
G1 X217.44 Y175.737 E6.99405
G1 X216.871 Y176.466 E7.01802
G1 X216.817 Y176.534 E7.02027
G1 X215.866 Y177.719 E7.05966
G1 X215.804 Y177.795 E7.0622
G1 X214.831 Y178.969 E7.10173
G1 X214.772 Y179.039 E7.1041
G1 X213.826 Y180.147 E7.14187
G1 X213.764 Y180.219 E7.14433
G1 X212.742 Y181.38 E7.18443
G1 X212.683 Y181.447 E7.18674
G1 X211.699 Y182.533 E7.22473
G1 X211.633 Y182.604 E7.22725
G1 X210.618 Y183.69 E7.26578
G1 X210.554 Y183.757 E7.26818
G1 X209.512 Y184.839 E7.30712
G1 X209.446 Y184.907 E7.30958
G1 X208.394 Y185.967 E7.3483
G1 X208.331 Y186.029 E7.35059
G1 X207.262 Y187.076 E7.38938
G1 X207.192 Y187.144 E7.39191
G1 X206.09 Y188.19 E7.43129
G1 X206.022 Y188.254 E7.43371
G1 X204.931 Y189.259 E7.47217
G1 X204.864 Y189.319 E7.4745
G1 X203.75 Y190.316 E7.51325
G1 X203.672 Y190.385 E7.51595
G1 X202.534 Y191.37 E7.55497
G1 X202.471 Y191.424 E7.55712
G1 X201.361 Y192.359 E7.59474
G1 X201.289 Y192.419 E7.59717
G1 X200.119 Y193.375 E7.63634
G1 X200.045 Y193.434 E7.6388
G1 X198.838 Y194.39 E7.67871
G1 X198.76 Y194.451 E7.68128
G1 X197.556 Y195.374 E7.7206
G1 X197.481 Y195.43 E7.72303
G1 X196.344 Y196.275 E7.75975
G1 X196.273 Y196.328 E7.76205
G1 X195.02 Y197.232 E7.8021
G1 X194.94 Y197.288 E7.80464
G1 X193.735 Y198.129 E7.84273
G1 X193.662 Y198.179 E7.84502
G1 X192.405 Y199.03 E7.88437
G1 X192.326 Y199.083 E7.88684
G1 X191.073 Y199.904 E7.92567
G1 X190.992 Y199.956 E7.92817
G1 X189.748 Y200.744 E7.96634
G1 X189.67 Y200.793 E7.96873
G1 X188.363 Y201.594 E8.00847
G1 X188.284 Y201.641 E8.01085
G1 X187.012 Y202.395 E8.04918
G1 X186.929 Y202.443 E8.05167
G1 X185.636 Y203.183 E8.09029
G1 X185.559 Y203.227 E8.09259
G1 X184.204 Y203.977 E8.13274
G1 X184.194 Y203.983 E8.13304
G1 X181.633 Y205.395 E8.20885
G1 X179.33 Y206.754 E8.27817
G1 X177.109 Y208.15 E8.34618
G1 X174.876 Y209.645 E8.41584
G1 X172.742 Y211.163 E8.48373
G1 X170.631 Y212.754 E8.55225
G1 X167.559 Y215.229 E8.65452
G1 X166.984 Y215.641 E8.67286
G1 X166.367 Y215.985 E8.69117
G1 X165.728 Y216.252 E8.70912
G1 X165.325 Y216.395 E8.72021
G1 X164.647 Y216.593 E8.73852
G1 X163.95 Y216.714 E8.75686
G1 X163.105 Y216.754 E8.77879
G1 X162.673 Y216.745 E8.78999
G1 X162.118 Y216.708 E8.80441
G1 X161.584 Y216.649 E8.81833
G1 X158.861 Y216.386 E8.88925
G1 X156.24 Y216.207 E8.95736
G1 X153.599 Y216.102 E9.02587
G1 X150.91 Y216.071 E9.09559
G1 X148.293 Y216.115 E9.16344
G1 X145.636 Y216.235 E9.23238
G1 X140.873 Y216.599 E9.35622
G1 X140.776 Y216.605 E9.35874
G1 X139.234 Y216.699 E9.39878
G1 X139.142 Y216.704 E9.40117
G1 X137.581 Y216.776 E9.44168
G1 X137.484 Y216.78 E9.4442
G1 X135.983 Y216.826 E9.48313
G1 X135.889 Y216.828 E9.48557
G1 X134.402 Y216.851 E9.52412
G1 X134.309 Y216.852 E9.52653
G1 X132.783 Y216.853 E9.56609
G1 X132.688 Y216.852 E9.56855
G1 X131.104 Y216.829 E9.60962
G1 X131.004 Y216.827 E9.61221
G1 X129.536 Y216.782 E9.65028
G1 X129.445 Y216.779 E9.65264
G1 X127.915 Y216.71 E9.69235
G1 X127.816 Y216.704 E9.69492
G1 X126.246 Y216.608 E9.73569
G1 X126.144 Y216.601 E9.73834
G1 X121.723 Y216.259 E9.85329
G1 X119.058 Y216.13 E9.92246
G1 X116.406 Y216.078 E9.99122
G1 X113.756 Y216.099 E10.05992
G1 X111.1 Y216.197 E10.12882
G1 X108.474 Y216.367 E10.19704
G1 X104.591 Y216.744 E10.29817
G1 X103.885 Y216.772 E10.31649
G1 X103.01 Y216.696 E10.33925
G1 X102.587 Y216.629 E10.35036
G1 X101.896 Y216.479 E10.36869
G1 X101.227 Y216.252 E10.387
G1 X100.54 Y215.925 E10.40673
G1 X100.211 Y215.743 E10.41647
G1 X99.612 Y215.366 E10.43482
G1 X99.33 Y215.153 E10.44398
G1 X98.763 Y214.699 E10.46281
G1 X98.681 Y214.632 E10.46556
G1 X97.631 Y213.762 E10.5009
G1 X95.499 Y212.095 E10.57106
G1 X93.414 Y210.558 E10.63821
G1 X91.216 Y209.03 E10.70761
G1 X88.987 Y207.573 E10.77664
G1 X86.732 Y206.191 E10.8452
G1 X84.397 Y204.846 E10.91505
G1 X82.849 Y204.004 E10.96074
G1 X82.815 Y203.986 E10.96173
G1 X81.456 Y203.236 E11.00197
G1 X81.371 Y203.188 E11.0045
G1 X80.113 Y202.468 E11.04208
G1 X80.032 Y202.421 E11.04451
G1 X78.741 Y201.656 E11.08341
G1 X78.665 Y201.61 E11.08571
G1 X77.369 Y200.817 E11.1251
G1 X77.285 Y200.765 E11.12766
G1 X76.053 Y199.984 E11.16547
G1 X75.976 Y199.934 E11.16785
G1 X74.679 Y199.085 E11.20804
G1 X74.604 Y199.035 E11.21037
G1 X73.353 Y198.19 E11.24951
G1 X73.273 Y198.135 E11.25203
G1 X72.126 Y197.334 E11.28829
G1 X72.052 Y197.282 E11.29064
G1 X70.788 Y196.372 E11.33101
G1 X70.712 Y196.317 E11.33344
G1 X69.517 Y195.429 E11.37204
G1 X69.442 Y195.372 E11.37448
G1 X68.259 Y194.465 E11.41312
G1 X68.183 Y194.406 E11.41562
G1 X66.974 Y193.449 E11.45559
G1 X66.903 Y193.392 E11.45795
G1 X65.787 Y192.482 E11.49528
G1 X65.715 Y192.422 E11.49771
G1 X64.554 Y191.446 E11.53703
G1 X64.479 Y191.382 E11.53958
G1 X63.342 Y190.395 E11.57862
G1 X63.28 Y190.34 E11.58076
G1 X62.192 Y189.37 E11.61855
G1 X62.116 Y189.302 E11.62119
G1 X60.986 Y188.261 E11.66102
G1 X60.919 Y188.197 E11.66342
G1 X59.839 Y187.172 E11.70202
G1 X59.774 Y187.11 E11.70435
G1 X58.743 Y186.103 E11.74171
G1 X58.673 Y186.034 E11.74426
G1 X57.541 Y184.893 E11.78593
G1 X57.476 Y184.826 E11.78835
G1 X56.491 Y183.803 E11.82516
G1 X56.429 Y183.738 E11.82749
G1 X55.399 Y182.637 E11.86657
G1 X55.338 Y182.571 E11.8689
G1 X54.318 Y181.449 E11.90821
G1 X54.251 Y181.373 E11.91084
G1 X53.285 Y180.275 E11.94875
G1 X53.225 Y180.206 E11.95112
G1 X52.253 Y179.068 E11.98992
G1 X52.196 Y179.001 E11.9922
G1 X51.234 Y177.842 E12.03124
G1 X51.171 Y177.764 E12.03384
G1 X50.178 Y176.528 E12.07494
G1 X50.12 Y176.456 E12.07734
G1 X49.555 Y175.731 E12.10117
G1 X47.897 Y173.665 E12.16984
G1 X46.167 Y171.631 E12.23906
G1 X44.409 Y169.677 E12.3072
G1 X42.582 Y167.759 E12.37587
G1 X40.703 Y165.893 E12.44451
G1 X38.749 Y164.062 E12.51393
G1 X36.263 Y161.874 E12.59978
G1 X35.689 Y161.387 E12.6193
G1 X35.177 Y160.9 E12.63762
G1 X34.813 Y160.477 E12.65208
G1 X34.571 Y160.168 E12.66226
G1 X34.168 Y159.587 E12.68059
G1 X33.832 Y158.965 E12.69891
G1 X33.552 Y158.259 E12.7186
G1 X33.422 Y157.862 E12.72943
G1 X33.241 Y157.179 E12.74775
G1 X33.137 Y156.48 E12.76607
G1 X33.116 Y155.7 E12.78629
G1 X33.149 Y154.748 E12.81099
G1 X33.154 Y154.637 E12.81387
G1 X33.231 Y153.172 E12.8519
G1 X33.295 Y150.524 E12.92056
G1 X33.283 Y147.868 E12.98942
G1 X33.182 Y144.724 E13.07096
G1 X33.199 Y144.018 E13.08927
G1 X33.296 Y143.318 E13.10759
G1 X33.55 Y142.401 E13.13226
G1 X34.624 Y139.426 E13.21425
G1 X35.453 Y136.91 E13.28292
G1 X36.211 Y134.366 E13.35174
G1 X36.899 Y131.798 E13.42065
G1 X37.52 Y129.188 E13.4902
G1 X38.044 Y126.656 E13.55723
G1 X38.518 Y124.003 E13.62709
G1 X38.905 Y121.411 E13.69503
G1 X39.224 Y118.772 E13.76394
G1 X39.469 Y116.1 E13.8335
G1 X39.635 Y113.493 E13.90122
G1 X39.729 Y110.835 E13.97017
G1 X39.75 Y108.791 E14.02316
G1 X39.75 Y68.788 E15.06017
G1 X39.751 Y68.685 E15.06284
G1 X39.762 Y68.02 E15.08008
G1 X39.813 Y67.315 E15.0984
G1 X39.944 Y66.62 E15.11674
G1 X40.153 Y65.945 E15.13505
G1 X40.436 Y65.297 E15.15338
G1 X40.791 Y64.686 E15.1717
G1 X41.212 Y64.118 E15.19003
G1 X41.695 Y63.602 E15.20835
G1 X42.233 Y63.144 E15.22667
G1 X42.82 Y62.749 E15.24501
G1 X43.447 Y62.423 E15.26333
G1 X44.107 Y62.17 E15.28165
G1 X44.791 Y61.993 E15.29997
G1 X45.835 Y61.875 E15.3272
G1 X46.154 Y61.866 E15.33548
G1 X46.33 Y61.864 E15.34004
G1 X47.793 Y61.864 E15.37797
G1 X47.882 Y61.865 E15.38027
G1 X48.584 Y61.875 E15.39847
G1 X49.289 Y61.925 E15.41679
G1 X49.984 Y62.054 E15.43512
G1 X50.66 Y62.261 E15.45345
G1 X51.308 Y62.543 E15.47177
G1 X51.92 Y62.896 E15.49008
G1 X52.489 Y63.316 E15.50842
G1 X53.006 Y63.798 E15.52674
G1 X53.465 Y64.335 E15.54505
G1 X53.768 Y64.768 E15.55875
G1 X54.414 Y65.783 E15.58994
G1 X55.859 Y67.986 E15.65824
G1 X57.388 Y70.174 E15.72744
G1 X58.975 Y72.318 E15.79659
G1 X60.596 Y74.383 E15.86464
G1 X62.304 Y76.436 E15.93387
G1 X64.052 Y78.418 E16.00238
G1 X65.864 Y80.362 E16.07127
G1 X67.696 Y82.218 E16.13887
G1 X69.64 Y84.079 E16.20864
G1 X71.601 Y85.852 E16.27717
G1 X73.632 Y87.587 E16.34642
G1 X75.68 Y89.24 E16.41464
G1 X77.81 Y90.86 E16.48402
G1 X79.94 Y92.388 E16.55197
G1 X82.129 Y93.865 E16.62043
G1 X84.409 Y95.313 E16.69044
G1 X86.673 Y96.662 E16.75876
G1 X88.966 Y97.941 E16.82683
G1 X91.335 Y99.177 E16.8961
G1 X93.714 Y100.334 E16.96467
G0 F7200 X93.499 Y100.785
G1 F1500 X95.93 Y101.883 E17.03382
G1 X98.436 Y102.931 E17.10424
G1 X100.886 Y103.873 E17.17228
G1 X103.379 Y104.752 E17.24081
