;FLAVOR:Marlin
;TIME:4912
;Filament used: 0m, 4.1545m
;Layer height: 0.3
;MINX:33.116
;MINY:61.864
;MINZ:0.3
;MAXX:233.893
;MAXY:216.853
;MAXZ:13.5
;Generated with Cura_SteamEngine 4.4.1
T1
M105
M109 S0
M82 ;absolute extrusion mode
; LULZBOT TAZ 6 DUAL EXTRUDER V3
; START CODE
; DUAL EXTRUSION - START WITH EXTRUDER 2 | PLA & PETG
; 05/13/2020

M73 P0                        ; clear GLCD progress bar
M75 		; start GLCD timer
G26                          ; clear potential 'probe fail' condition
M107                         ; disable fans
M420 S0                      ; disable leveling matrix
G90                          ; absolute positioning
M117 Soften Temp...

; --- SOFTEN TEMP
; T0
M104 S150 T0
; T1
M104 S170 T1		; soften filament -- HARDCODED TEMP
M140 S80		; get bed heating up

M109 R150 T0
M109 R170 T1
; ----------

G28

M117 Heating...              ; LCD status message

; --- RETRACTION
T0                           ; select this extruder first
M82                          ; set extruder to absolute mode
G92 E0                       ; set extruder to zero
G1 E-5 F125                  ; retract XXmm of filament
T1                           ; select this extruder first
M82                          ; set extruder to absolute mode
G92 E0                       ; set extruder to zero
G1 E-5 F125                  ; retract XXmm of filament
; ----------

G1 Y100 F5000          ; move above wiper pad

; --- WIPING TEMP
M117 Wiping temp...			; LCD status message
M107						; Turn off fan
M109 R150 T0
M109 R170 T1				; wait for T0 to reach temp
; ----------

; T0                           ; switch extruders
G1 Z1                        ; push nozzle into wiper
G1 Y90 F1000                   ; slow wipe
G1 Y85 F1000                   ; slow wipe
G1 Y90 F1000                   ; slow wipe
G1 Y80 F1000                   ; slow wipe
G1 Y95 F1000                   ; slow wipe
G1 Y75 F2000                   ; fast wipe
G1 Y65 F2000                   ; fast wipe
G1 Y70 F2000                   ; fast wipe
G1 Y60 F2000                   ; fast wipe
G1 Y55 F2000                   ; fast wipe
G1 Y50 F2000                   ; fast wipe
G1 Y40 F2000                   ; fast wipe
G1 Y45 F2000                   ; fast wipe
G1 Y35 F2000                   ; fast wipe
G1 Y40 F2000                   ; fast wipe
G1 Y70 F2000                   ; fast wipe
G1 Y30 Z2 F2000                ; fast wipe
G1 Y35 F2000                   ; fast wipe
G1 Y25 F2000                   ; fast wipe
G1 Y30 F2000                   ; fast wipe
G1 Y25 Z1.5 F1000              ; slow wipe
G1 Y23 F1000                   ; slow wipe
G1 Y10 Z25                      ; raise extruder

; --- probing temp
M106
; T1
M104 S140 T0
M109 R140 T1
M107

M204 S175                    ; set accel for probing
G29                          ; probe sequence (for auto-leveling)
M420 S1                      ; enable leveling matrix
M425 Z					     ; use measured Z backlash for compensation
M425 Z F0		    		 ; turn off measured Z backlash compensation. (if activated in the quality settings, this command will automatically be ignored)
M204 S500                    ; set accel back to normal

; --- T1 TO PRINT TEMP
M104 S230 T1				 ; set extruder temp -- HARDCODED TEMP
; ----------

; --- T0 to PRINT TEMP
M104 S200 T0
; ----------

G1 X100 Y-25 Z0.5 F4500      ; move to open space
M400                         ; clear buffer
M117 Heating...              ; LCD status message

; --- PRINT TEMP
; T1
M109 R230 T1				 ; set extruder temp and wait -- HARDCODED TEMP
M109 R200 T0
; ----------

M117 Purging...              ; LCD status message

; -------------------- PURGE EXT 0 ------------------------------------
T0                           ; select this extruder first
G1  E0 F125  	             ; undo retraction
G92 E-50                     ; set extruder negative amount to purge
G1  E0 F125                  ; purge XXmm of filament
; ---- SET EXT 0 TO STANDBY TEMP
M104 S160

; -------------------- PURGE EXT 1 ------------------------------------
T1                           ; select this extruder first
G1  E0 F125  	             ; undo retraction
G92 E-50                     ; set extruder negative amount to purge
G1  E0 F125                  ; purge XXmm of filament

T1
G1 Z0.5                      ; clear bed (barely)
G1 X100 Y0 F5000             ; move above bed to shear off filament
M400                         ; clear buffer
M107

; -------------------- TURN EXT 2 OFF FOR SINGLE EXTRUDER PRINT ------------------
; T0
; M104 S0 T0                     ; T1 hotend off
T1
; --------------------------------------------------------------------------------

M117 TAZ Printing...         ; LCD status message

G92 E0
; LULZBOT TAZ 6 DUAL EXTRUDER V3
; EXTRUDER 1 START CODE (PETG)
; DUAL EXTRUSION - START WITH EXTRUDER 2 | PLA & PETG
; 05/13/2020

T1
M109 R230

G92 E0
G1 F1500 E-7
;LAYER_COUNT:45
;LAYER:0
M107
G0 F6000 X53.465 Y64.335 Z0.3
;TYPE:SKIRT
G1 F1500 E0
G1 X53.764 Y64.764 E0.01488
G1 X54.401 Y65.764 E0.04861
G1 X55.859 Y67.986 E0.12422
G1 X57.388 Y70.174 E0.20017
G1 X58.975 Y72.318 E0.27606
G1 X60.596 Y74.383 E0.35075
G1 X62.304 Y76.436 E0.42673
G1 X64.052 Y78.418 E0.50192
G1 X65.864 Y80.362 E0.57753
G1 X67.696 Y82.218 E0.65172
G1 X69.64 Y84.079 E0.72829
G1 X71.601 Y85.852 E0.80351
G1 X73.632 Y87.587 E0.8795
G1 X75.68 Y89.24 E0.95438
G1 X77.81 Y90.86 E1.03052
G1 X79.94 Y92.388 E1.1051
G1 X82.129 Y93.865 E1.18023
G1 X84.409 Y95.313 E1.25707
G1 X86.673 Y96.662 E1.33205
G1 X88.966 Y97.941 E1.40675
G1 X91.335 Y99.177 E1.48278
G1 X93.714 Y100.334 E1.55804
G1 X96.119 Y101.42 E1.63312
G1 X98.611 Y102.462 E1.70997
G1 X101.041 Y103.396 E1.78403
G1 X103.563 Y104.286 E1.86012
G1 X106.069 Y105.092 E1.93502
G1 X108.626 Y105.835 E2.01078
G1 X111.206 Y106.506 E2.08662
G1 X113.787 Y107.101 E2.16198
G1 X116.377 Y107.618 E2.23712
G1 X118.974 Y108.064 E2.31209
G1 X121.628 Y108.441 E2.38836
G1 X124.255 Y108.739 E2.46358
G1 X126.88 Y108.963 E2.53853
G1 X129.55 Y109.113 E2.61462
G1 X132.17 Y109.187 E2.68919
G1 X134.82 Y109.187 E2.76458
G1 X137.501 Y109.111 E2.84089
G1 X140.157 Y108.96 E2.91658
G1 X142.766 Y108.738 E2.99108
G1 X145.395 Y108.439 E3.06636
G1 X148.051 Y108.061 E3.14268
G1 X150.644 Y107.616 E3.21754
G1 X153.267 Y107.089 E3.29365
G1 X155.816 Y106.503 E3.36807
G1 X158.383 Y105.835 E3.44353
G1 X160.957 Y105.087 E3.5198
G1 X163.46 Y104.281 E3.59461
G1 X165.984 Y103.391 E3.67075
G1 X168.453 Y102.439 E3.74604
G1 X170.888 Y101.419 E3.82115
G1 X173.296 Y100.333 E3.89631
G1 X175.704 Y99.161 E3.9725
G1 X178.037 Y97.944 E4.04736
G1 X180.352 Y96.651 E4.1228
G1 X182.638 Y95.289 E4.19851
G1 X184.892 Y93.857 E4.27449
G1 X187.051 Y92.399 E4.34861
G1 X189.24 Y90.829 E4.42525
G1 X191.323 Y89.242 E4.49975
G1 X193.411 Y87.559 E4.57605
G1 X195.416 Y85.845 E4.6511
G1 X197.398 Y84.051 E4.72716
G1 X199.279 Y82.251 E4.80123
G1 X201.179 Y80.325 E4.8782
G1 X202.964 Y78.409 E4.95271
G1 X204.73 Y76.404 E5.02872
G1 X206.401 Y74.396 E5.10305
G1 X208.06 Y72.283 E5.17948
G1 X209.634 Y70.158 E5.25472
G1 X211.139 Y67.999 E5.32959
G1 X212.608 Y65.761 E5.40576
G1 X213.156 Y64.885 E5.43516
G1 X213.307 Y64.656 E5.44296
G1 X213.36 Y64.579 E5.44562
G1 X213.793 Y64.021 E5.46572
G1 X214.286 Y63.515 E5.48581
G1 X214.833 Y63.067 E5.50593
G1 X215.428 Y62.685 E5.52605
G1 X216.061 Y62.372 E5.54614
G1 X216.727 Y62.132 E5.56628
G1 X217.414 Y61.969 E5.58637
G1 X218.333 Y61.875 E5.61265
G1 X218.655 Y61.866 E5.62182
G1 X218.83 Y61.864 E5.6268
G1 X220.293 Y61.864 E5.66842
G1 X220.374 Y61.865 E5.67072
G1 X221.072 Y61.874 E5.69058
G1 X221.777 Y61.923 E5.71069
G1 X222.472 Y62.051 E5.7308
G1 X223.148 Y62.257 E5.7509
G1 X223.796 Y62.538 E5.771
G1 X224.409 Y62.891 E5.79112
G1 X224.978 Y63.31 E5.81123
G1 X225.496 Y63.791 E5.83134
G1 X225.956 Y64.327 E5.85143
G1 X226.353 Y64.912 E5.87155
G1 X226.681 Y65.538 E5.89166
G1 X226.937 Y66.197 E5.91177
G1 X227.116 Y66.881 E5.93189
G1 X227.217 Y67.58 E5.95198
G1 X227.239 Y67.948 E5.96247
G1 X227.248 Y68.269 E5.9716
G1 X227.25 Y68.444 E5.97658
G1 X227.25 Y108.841 E7.12592
G1 X227.288 Y111.492 E7.20135
G1 X227.4 Y114.14 E7.27675
G1 X227.586 Y116.758 E7.35143
G1 X227.853 Y119.458 E7.42862
G1 X228.185 Y122.047 E7.50288
G1 X228.595 Y124.657 E7.57805
G1 X229.085 Y127.293 E7.65433
G1 X229.64 Y129.872 E7.72939
G1 X230.263 Y132.412 E7.80379
G1 X230.977 Y135.01 E7.88045
G1 X231.753 Y137.549 E7.95598
G1 X233.058 Y141.327 E8.0697
G1 X233.433 Y142.342 E8.10049
G1 X233.64 Y143.018 E8.1206
G1 X233.769 Y143.713 E8.14072
G1 X233.814 Y144.752 E8.1703
G1 X233.791 Y145.334 E8.18688
G1 X233.715 Y147.99 E8.26247
G1 X233.713 Y150.642 E8.33792
G1 X233.788 Y153.315 E8.414
G1 X233.851 Y154.423 E8.44558
G1 X233.855 Y154.504 E8.44789
G1 X233.893 Y155.366 E8.47243
G1 X233.865 Y156.291 E8.49876
G1 X233.819 Y156.731 E8.51135
G1 X233.706 Y157.429 E8.53147
G1 X233.515 Y158.109 E8.55156
G1 X233.228 Y158.806 E8.57301
G1 X233.056 Y159.161 E8.58423
G1 X232.712 Y159.779 E8.60435
G1 X232.301 Y160.354 E8.62446
G1 X231.776 Y160.929 E8.64662
G1 X231.472 Y161.223 E8.65865
G1 X231.203 Y161.468 E8.669
G1 X230.326 Y162.223 E8.70192
G1 X228.318 Y163.999 E8.77819
G1 X226.36 Y165.83 E8.85446
G1 X224.499 Y167.674 E8.929
G1 X222.666 Y169.595 E9.00454
G1 X220.88 Y171.575 E9.08041
G1 X219.165 Y173.588 E9.15565
G1 X217.44 Y175.737 E9.23405
G1 X216.871 Y176.466 E9.26036
G1 X216.817 Y176.534 E9.26283
G1 X215.866 Y177.719 E9.30606
G1 X215.804 Y177.795 E9.30885
G1 X214.831 Y178.969 E9.35223
G1 X214.772 Y179.039 E9.35483
G1 X213.826 Y180.147 E9.39629
G1 X213.764 Y180.219 E9.39899
G1 X212.742 Y181.38 E9.44299
G1 X212.683 Y181.447 E9.44553
G1 X211.699 Y182.533 E9.48723
G1 X211.633 Y182.604 E9.48999
G1 X210.618 Y183.69 E9.53228
G1 X210.554 Y183.757 E9.53492
G1 X209.512 Y184.839 E9.57765
G1 X209.446 Y184.907 E9.58035
G1 X208.394 Y185.967 E9.62284
G1 X208.331 Y186.029 E9.62535
G1 X207.262 Y187.076 E9.66792
G1 X207.192 Y187.144 E9.6707
G1 X206.09 Y188.19 E9.71393
G1 X206.022 Y188.254 E9.71659
G1 X204.931 Y189.259 E9.75879
G1 X204.864 Y189.319 E9.76135
G1 X203.75 Y190.316 E9.80388
G1 X203.672 Y190.385 E9.80684
G1 X202.534 Y191.37 E9.84967
G1 X202.471 Y191.424 E9.85203
G1 X201.361 Y192.359 E9.89332
G1 X201.289 Y192.419 E9.89598
G1 X200.119 Y193.375 E9.93897
G1 X200.045 Y193.434 E9.94166
G1 X198.838 Y194.39 E9.98547
G1 X198.76 Y194.451 E9.98829
G1 X197.556 Y195.374 E10.03145
G1 X197.481 Y195.43 E10.03411
G1 X196.344 Y196.275 E10.07442
G1 X196.273 Y196.328 E10.07694
G1 X195.02 Y197.232 E10.1209
G1 X194.94 Y197.288 E10.12367
G1 X193.735 Y198.129 E10.16548
G1 X193.662 Y198.179 E10.168
G1 X192.405 Y199.03 E10.21119
G1 X192.326 Y199.083 E10.21389
G1 X191.073 Y199.904 E10.25651
G1 X190.992 Y199.956 E10.25925
G1 X189.748 Y200.744 E10.30115
G1 X189.67 Y200.793 E10.30377
G1 X188.363 Y201.594 E10.34738
G1 X188.284 Y201.641 E10.35
G1 X187.012 Y202.395 E10.39207
G1 X186.929 Y202.443 E10.3948
G1 X185.636 Y203.183 E10.43718
G1 X185.559 Y203.227 E10.4397
G1 X184.204 Y203.977 E10.48377
G1 X184.194 Y203.983 E10.4841
G1 X181.633 Y205.395 E10.5673
G1 X179.33 Y206.754 E10.64338
G1 X177.109 Y208.15 E10.71802
G1 X174.876 Y209.645 E10.79447
G1 X172.742 Y211.163 E10.86898
G1 X170.631 Y212.754 E10.94419
G1 X167.559 Y215.229 E11.05643
G1 X166.984 Y215.641 E11.07655
G1 X166.367 Y215.985 E11.09665
G1 X165.728 Y216.252 E11.11635
G1 X165.325 Y216.395 E11.12852
G1 X164.647 Y216.593 E11.14862
G1 X163.95 Y216.714 E11.16874
G1 X163.105 Y216.754 E11.19281
G1 X162.673 Y216.745 E11.2051
G1 X162.118 Y216.708 E11.22093
G1 X161.584 Y216.649 E11.23621
G1 X158.861 Y216.386 E11.31405
G1 X156.24 Y216.207 E11.38879
G1 X153.599 Y216.102 E11.46399
G1 X150.91 Y216.071 E11.5405
G1 X148.293 Y216.115 E11.61497
G1 X145.636 Y216.235 E11.69064
G1 X140.873 Y216.599 E11.82654
G1 X140.776 Y216.605 E11.82931
G1 X139.234 Y216.699 E11.87326
G1 X139.142 Y216.704 E11.87588
G1 X137.581 Y216.776 E11.92034
G1 X137.484 Y216.78 E11.9231
G1 X135.983 Y216.826 E11.96583
G1 X135.889 Y216.828 E11.9685
G1 X134.402 Y216.851 E12.01082
G1 X134.309 Y216.852 E12.01346
G1 X132.783 Y216.853 E12.05688
G1 X132.688 Y216.852 E12.05958
G1 X131.104 Y216.829 E12.10465
G1 X131.004 Y216.827 E12.1075
G1 X129.536 Y216.782 E12.14928
G1 X129.445 Y216.779 E12.15187
G1 X127.915 Y216.71 E12.19545
G1 X127.816 Y216.704 E12.19827
G1 X126.246 Y216.608 E12.24302
G1 X126.144 Y216.601 E12.24593
G1 X121.723 Y216.259 E12.37209
G1 X119.058 Y216.13 E12.448
G1 X116.406 Y216.078 E12.52346
G1 X113.756 Y216.099 E12.59886
G1 X111.1 Y216.197 E12.67448
G1 X108.474 Y216.367 E12.74935
G1 X104.591 Y216.744 E12.86034
G1 X103.885 Y216.772 E12.88044
G1 X103.01 Y216.696 E12.90543
G1 X102.587 Y216.629 E12.91762
G1 X101.896 Y216.479 E12.93774
G1 X101.227 Y216.252 E12.95784
G1 X100.54 Y215.925 E12.97948
G1 X100.211 Y215.743 E12.99018
G1 X99.612 Y215.366 E13.01032
G1 X99.33 Y215.153 E13.02037
G1 X98.763 Y214.699 E13.04104
G1 X98.681 Y214.632 E13.04405
G1 X97.631 Y213.762 E13.08284
G1 X95.499 Y212.095 E13.15984
G1 X93.414 Y210.558 E13.23354
G1 X91.216 Y209.03 E13.3097
G1 X88.987 Y207.573 E13.38546
G1 X86.732 Y206.191 E13.46071
G1 X84.397 Y204.846 E13.53738
G1 X82.849 Y204.004 E13.58751
G1 X82.815 Y203.986 E13.58861
G1 X81.456 Y203.236 E13.63277
G1 X81.371 Y203.188 E13.63555
G1 X80.113 Y202.468 E13.67679
G1 X80.032 Y202.421 E13.67945
G1 X78.741 Y201.656 E13.72214
G1 X78.665 Y201.61 E13.72467
G1 X77.369 Y200.817 E13.7679
G1 X77.285 Y200.765 E13.77071
G1 X76.053 Y199.984 E13.81221
G1 X75.976 Y199.934 E13.81482
G1 X74.679 Y199.085 E13.85893
G1 X74.604 Y199.035 E13.86149
G1 X73.353 Y198.19 E13.90444
G1 X73.273 Y198.135 E13.9072
G1 X72.126 Y197.334 E13.94701
G1 X72.052 Y197.282 E13.94958
G1 X70.788 Y196.372 E13.99389
G1 X70.712 Y196.317 E13.99656
G1 X69.517 Y195.429 E14.03892
G1 X69.442 Y195.372 E14.0416
G1 X68.259 Y194.465 E14.08401
G1 X68.183 Y194.406 E14.08675
G1 X66.974 Y193.449 E14.13062
G1 X66.903 Y193.392 E14.13321
G1 X65.787 Y192.482 E14.17418
G1 X65.715 Y192.422 E14.17684
G1 X64.554 Y191.446 E14.22
G1 X64.479 Y191.382 E14.2228
G1 X63.342 Y190.395 E14.26564
G1 X63.28 Y190.34 E14.268
G1 X62.192 Y189.37 E14.30947
G1 X62.116 Y189.302 E14.31237
G1 X60.986 Y188.261 E14.35608
G1 X60.919 Y188.197 E14.35872
G1 X59.839 Y187.172 E14.40108
G1 X59.774 Y187.11 E14.40364
G1 X58.743 Y186.103 E14.44464
G1 X58.673 Y186.034 E14.44744
G1 X57.541 Y184.893 E14.49316
G1 X57.476 Y184.826 E14.49582
G1 X56.491 Y183.803 E14.53622
G1 X56.429 Y183.738 E14.53878
G1 X55.399 Y182.637 E14.58167
G1 X55.338 Y182.571 E14.58423
G1 X54.318 Y181.449 E14.62737
G1 X54.251 Y181.373 E14.63025
G1 X53.285 Y180.275 E14.67186
G1 X53.225 Y180.206 E14.67446
G1 X52.253 Y179.068 E14.71704
G1 X52.196 Y179.001 E14.71955
G1 X51.234 Y177.842 E14.7624
G1 X51.171 Y177.764 E14.76525
G1 X50.178 Y176.528 E14.81036
G1 X50.12 Y176.456 E14.81299
G1 X49.555 Y175.731 E14.83914
G1 X47.897 Y173.665 E14.91451
G1 X46.167 Y171.631 E14.99048
G1 X44.409 Y169.677 E15.06526
G1 X42.582 Y167.759 E15.14063
G1 X40.703 Y165.893 E15.21597
G1 X38.749 Y164.062 E15.29215
G1 X36.263 Y161.874 E15.38638
G1 X35.689 Y161.387 E15.40779
G1 X35.177 Y160.9 E15.4279
G1 X34.813 Y160.477 E15.44377
G1 X34.571 Y160.168 E15.45494
G1 X34.168 Y159.587 E15.47506
G1 X33.832 Y158.965 E15.49517
G1 X33.552 Y158.259 E15.51678
G1 X33.422 Y157.862 E15.52866
G1 X33.241 Y157.179 E15.54877
G1 X33.137 Y156.48 E15.56887
G1 X33.116 Y155.7 E15.59107
G1 X33.149 Y154.748 E15.61817
G1 X33.154 Y154.637 E15.62134
G1 X33.231 Y153.172 E15.66307
G1 X33.295 Y150.524 E15.73843
G1 X33.283 Y147.868 E15.814
G1 X33.182 Y144.724 E15.9035
G1 X33.199 Y144.018 E15.92359
G1 X33.296 Y143.318 E15.9437
