;FLAVOR:Marlin
;TIME:4692
;Filament used: 0m, 4.27132m
;Layer height: 0.4
;MINX:32.318
;MINY:61.114
;MINZ:0.4
;MAXX:234.687
;MAXY:217.573
;MAXZ:13.2
;Generated with Cura_SteamEngine 4.4.1
T1
M105
M109 S0
M82 ;absolute extrusion mode
; LULZBOT TAZ 6 DUAL EXTRUDER V3
; START CODE FOR PETG NO SUPPORT

M73 P0                        ; clear GLCD progress bar
M75 		; start GLCD timer
G26                          ; clear potential 'probe fail' condition
M107                         ; disable fans
M420 S0                      ; disable leveling matrix
G90                          ; absolute positioning
M117 Soften Temp...

; --- SOFTEN TEMP
; T0
M104 S100 T0
; T1
M104 S170 T1		; soften filament -- HARDCODED TEMP
M140 S80		; get bed heating up
M109 R170 T1
; ----------

G28

M117 Heating...              ; LCD status message

; --- RETRACTION
T1                           ; select this extruder first
M82                          ; set extruder to absolute mode
G92 E0                       ; set extruder to zero
G1  E-5 F125                 ; retract XXmm of filament
; ----------

G1 Y100 F5000          ; move above wiper pad

; --- WIPING TEMP
M117 Wiping temp...			; LCD status message
M107						; Turn off fan
M109 R170 T1					; wait for T0 to reach temp
; ----------

; T0                           ; switch extruders
G1 Z1                        ; push nozzle into wiper
G1 Y90 F1000                   ; slow wipe
G1 Y85 F1000                   ; slow wipe
G1 Y90 F1000                   ; slow wipe
G1 Y80 F1000                   ; slow wipe
G1 Y95 F1000                   ; slow wipe
G1 Y75 F2000                   ; fast wipe
G1 Y65 F2000                   ; fast wipe
G1 Y70 F2000                   ; fast wipe
G1 Y60 F2000                   ; fast wipe
G1 Y55 F2000                   ; fast wipe
G1 Y50 F2000                   ; fast wipe
G1 Y40 F2000                   ; fast wipe
G1 Y45 F2000                   ; fast wipe
G1 Y35 F2000                   ; fast wipe
G1 Y40 F2000                   ; fast wipe
G1 Y70 F2000                   ; fast wipe
G1 Y30 Z2 F2000                ; fast wipe
G1 Y35 F2000                   ; fast wipe
G1 Y25 F2000                   ; fast wipe
G1 Y30 F2000                   ; fast wipe
G1 Y25 Z1.5 F1000              ; slow wipe
G1 Y23 F1000                   ; slow wipe
G1 Y10 Z25                      ; raise extruder

; --- probing temp
M106
; T1
M109 R140 T1
M107

M204 S175                    ; set accel for probing
G29                          ; probe sequence (for auto-leveling)
M420 S1                      ; enable leveling matrix
M425 Z					     ; use measured Z backlash for compensation
M425 Z F0		    		 ; turn off measured Z backlash compensation. (if activated in the quality settings, this command will automatically be ignored)
M204 S500                    ; set accel back to normal

; --- PRINT TEMP
M104 S245 T1				 ; set extruder temp -- HARDCODED TEMP
; ----------

G1 X100 Y-25 Z0.5 F4500      ; move to open space
M400                         ; clear buffer
M117 Heating...              ; LCD status message

; --- PRINT TEMP
; T1
M109 R245 T1				 ; set extruder temp and wait -- HARDCODED TEMP
; ----------

M117 Purging...              ; LCD status message

; -------------------- PURGE EXT 1 ------------------------------------
T1                           ; select this extruder first
G1  E0 F125  	             ; undo retraction
G92 E-50                     ; set extruder negative amount to purge
G1  E0 F125                  ; purge XXmm of filament

T1
G1 Z0.5                      ; clear bed (barely)
G1 X100 Y0 F5000             ; move above bed to shear off filament
M400                         ; clear buffer
M107

; -------------------- TURN EXT 2 OFF FOR SINGLE EXTRUDER PRINT ------------------
; T0
M104 S0 T0                     ; T1 hotend off
T1
; --------------------------------------------------------------------------------

M117 TAZ Printing...         ; LCD status message
G92 E0
T1
M107
M109 R250
G92 E0
G1 F1500 E-7
;LAYER_COUNT:33
;LAYER:0
M107
G0 F7200 X94.03 Y99.653 Z0.4
;TYPE:SKIRT
G1 F1500 E0.07838
G1 X96.439 Y100.741 E0.22456
G1 X98.879 Y101.762 E0.37084
G1 X101.324 Y102.701 E0.51568
G1 X103.783 Y103.569 E0.6599
G1 X106.302 Y104.379 E0.80623
G1 X108.809 Y105.107 E0.9506
G1 X111.382 Y105.777 E1.09764
G1 X113.969 Y106.373 E1.24446
G1 X116.51 Y106.881 E1.38776
G1 X119.1 Y107.324 E1.53308
G1 X121.708 Y107.695 E1.67876
G1 X124.3 Y107.989 E1.82302
G1 X126.949 Y108.215 E1.97005
G1 X129.577 Y108.363 E2.11562
G1 X132.191 Y108.437 E2.26024
G1 X134.834 Y108.437 E2.40641
G1 X137.436 Y108.363 E2.55036
G1 X140.085 Y108.212 E2.6971
G1 X142.724 Y107.988 E2.84357
G1 X145.31 Y107.694 E2.9875
G1 X147.93 Y107.321 E3.13386
G1 X150.503 Y106.879 E3.27824
G1 X153.098 Y106.358 E3.42461
G1 X155.632 Y105.776 E3.5684
G1 X158.2 Y105.107 E3.71516
G1 X160.724 Y104.374 E3.86051
G1 X163.24 Y103.564 E4.00669
G1 X165.701 Y102.695 E4.15102
G1 X168.172 Y101.743 E4.29747
G1 X170.594 Y100.729 E4.44268
G1 X172.995 Y99.645 E4.58836
G1 X175.351 Y98.5 E4.73323
G1 X177.673 Y97.288 E4.87808
G1 X179.993 Y95.992 E5.02505
G1 X182.243 Y94.652 E5.16988
G1 X184.461 Y93.242 E5.31523
G1 X186.65 Y91.765 E5.46126
G1 X188.781 Y90.236 E5.60631
G1 X190.875 Y88.641 E5.75188
G1 X192.93 Y86.984 E5.89788
G1 X194.919 Y85.284 E6.04258
G1 X196.87 Y83.518 E6.18811
G1 X198.756 Y81.712 E6.33252
G1 X200.644 Y79.8 E6.48112
G1 X202.401 Y77.914 E6.62367
G1 X204.155 Y75.923 E6.77041
G1 X205.848 Y73.886 E6.91689
G1 X207.447 Y71.852 E7.05998
G1 X209.028 Y69.715 E7.20699
G1 X210.509 Y67.591 E7.35019
G1 X211.989 Y65.336 E7.49936
G1 X212.52 Y64.488 E7.55469
G1 X212.689 Y64.231 E7.5717
G1 X212.742 Y64.154 E7.57687
G1 X213.198 Y63.561 E7.61824
G1 X213.715 Y63.021 E7.65958
G1 X214.287 Y62.539 E7.70095
G1 X214.907 Y62.12 E7.74233
G1 X215.568 Y61.77 E7.7837
G1 X216.263 Y61.493 E7.82507
G1 X216.984 Y61.291 E7.86648
G1 X217.721 Y61.167 E7.90781
G1 X218.312 Y61.126 E7.94057
G1 X218.634 Y61.117 E7.95839
G1 X218.83 Y61.114 E7.96923
G1 X220.193 Y61.114 E8.04461
G1 X220.283 Y61.115 E8.04959
G1 X220.981 Y61.124 E8.08819
G1 X221.728 Y61.173 E8.12959
G1 X222.465 Y61.302 E8.17097
G1 X223.183 Y61.509 E8.21229
G1 X223.876 Y61.791 E8.25367
G1 X224.535 Y62.146 E8.29507
G1 X225.152 Y62.569 E8.33644
G1 X225.72 Y63.055 E8.37778
G1 X226.233 Y63.6 E8.41917
G1 X226.685 Y64.196 E8.46054
G1 X227.072 Y64.836 E8.5019
G1 X227.387 Y65.515 E8.54329
G1 X227.628 Y66.223 E8.58466
G1 X227.792 Y66.953 E8.62603
G1 X227.888 Y67.927 E8.68016
G1 X227.897 Y68.248 E8.69792
G1 X227.9 Y68.444 E8.70876
G1 X227.9 Y108.804 E10.94079
G1 X227.937 Y111.413 E11.08509
G1 X228.051 Y114.089 E11.23321
G1 X228.232 Y116.648 E11.37509
G1 X228.497 Y119.319 E11.52353
G1 X228.827 Y121.903 E11.66759
G1 X229.237 Y124.512 E11.81365
G1 X229.719 Y127.101 E11.95929
G1 X230.272 Y129.672 E12.10472
G1 X230.887 Y132.179 E12.24748
G1 X231.599 Y134.772 E12.39619
G1 X232.364 Y137.268 E12.54056
G1 X233.202 Y139.753 E12.68559
G1 X233.754 Y141.239 E12.77326
G1 X233.783 Y141.32 E12.77802
G1 X234.068 Y142.117 E12.82483
G1 X234.282 Y142.834 E12.86621
G1 X234.418 Y143.569 E12.90755
G1 X234.475 Y144.65 E12.96741
G1 X234.447 Y145.782 E13.03004
G1 X234.418 Y148.486 E13.17958
G1 X234.463 Y151.081 E13.32312
G1 X234.687 Y155.277 E13.5555
G1 X234.66 Y156.365 E13.61569
G1 X234.614 Y156.813 E13.64059
G1 X234.498 Y157.552 E13.68196
G1 X234.304 Y158.274 E13.72331
G1 X233.946 Y159.16 E13.77615
G1 X233.768 Y159.526 E13.79866
G1 X233.405 Y160.18 E13.84003
G1 X232.975 Y160.792 E13.88139
G1 X232.349 Y161.487 E13.93312
G1 X232.042 Y161.785 E13.95678
G1 X231.726 Y162.073 E13.98043
G1 X230.926 Y162.76 E14.03874
G1 X230.849 Y162.825 E14.04432
G1 X230.327 Y163.26 E14.08189
G1 X228.343 Y165.013 E14.22831
G1 X226.434 Y166.797 E14.37281
G1 X224.547 Y168.665 E14.51965
G1 X222.746 Y170.55 E14.66383
G1 X220.977 Y172.511 E14.80988
G1 X219.252 Y174.533 E14.95687
G1 X217.51 Y176.703 E15.11076
G1 X217.318 Y176.948 E15.12798
G1 X217.258 Y177.024 E15.13333
G1 X216.355 Y178.148 E15.21307
G1 X216.288 Y178.231 E15.21897
G1 X215.315 Y179.405 E15.30329
G1 X215.248 Y179.485 E15.30906
G1 X214.293 Y180.603 E15.39038
G1 X214.221 Y180.685 E15.39641
G1 X213.216 Y181.825 E15.48046
G1 X213.15 Y181.899 E15.48594
G1 X212.165 Y182.985 E15.56703
G1 X212.095 Y183.061 E15.57274
G1 X211.071 Y184.157 E15.65569
G1 X210.998 Y184.233 E15.66152
G1 X209.958 Y185.313 E15.74444
G1 X209.885 Y185.389 E15.75026
G1 X208.841 Y186.441 E15.83223
G1 X208.763 Y186.518 E15.83829
G1 X207.653 Y187.602 E15.92409
G1 X207.581 Y187.671 E15.92961
G1 X206.575 Y188.626 E16.00632
G1 X206.499 Y188.698 E16.01211
G1 X205.358 Y189.749 E16.0979
G1 X205.282 Y189.817 E16.10354
G1 X204.171 Y190.811 E16.18598
G1 X204.088 Y190.884 E16.1921
G1 X202.926 Y191.891 E16.27713
G1 X202.848 Y191.958 E16.28282
G1 X201.777 Y192.859 E16.36022
G1 X201.696 Y192.926 E16.36603
G1 X200.512 Y193.892 E16.45054
G1 X200.434 Y193.955 E16.45609
G1 X199.226 Y194.912 E16.54131
G1 X199.137 Y194.981 E16.54754
G1 X198.011 Y195.844 E16.626
G1 X197.931 Y195.904 E16.63153
G1 X196.685 Y196.831 E16.71742
G1 X196.6 Y196.894 E16.72327
G1 X195.429 Y197.738 E16.8031
G1 X195.344 Y197.798 E16.80885
G1 X194.074 Y198.685 E16.89452
G1 X193.99 Y198.743 E16.90016
G1 X192.798 Y199.55 E16.97977
G1 X192.706 Y199.611 E16.98588
G1 X191.39 Y200.472 E17.07285
G1 X191.306 Y200.526 E17.07837
G1 X190.123 Y201.276 E17.15583
G1 X190.033 Y201.332 E17.1617
G1 X188.71 Y202.143 E17.24751
G1 X188.624 Y202.195 E17.25307
G1 X187.372 Y202.938 E17.33359
G1 X187.277 Y202.993 E17.33966
G1 X185.951 Y203.752 E17.42415
G1 X185.863 Y203.802 E17.42975
G1 X183.915 Y204.88 E17.55288
G1 X182.445 Y205.7 E17.64596
G1 X180.19 Y207.035 E17.79089
G1 X177.931 Y208.459 E17.93857
G1 X175.779 Y209.903 E18.08189
G1 X173.597 Y211.458 E18.23007
G1 X171.54 Y213.014 E18.37271
G1 X169.471 Y214.672 E18.51933
G1 X168.566 Y215.439 E18.58494
G1 X168.457 Y215.529 E18.59276
G1 X168.077 Y215.838 E18.61984
G1 X167.473 Y216.278 E18.66117
G1 X166.824 Y216.652 E18.7026
G1 X166.164 Y216.944 E18.74251
G1 X165.801 Y217.083 E18.764
G1 X165.089 Y217.313 E18.80538
G1 X164.357 Y217.465 E18.84673
G1 X163.482 Y217.544 E18.89532
G1 X163.025 Y217.556 E18.9206
G1 X162.196 Y217.528 E18.96647
G1 X161.926 Y217.503 E18.98147
G1 X161.775 Y217.488 E18.98986
G1 X159.66 Y217.246 E19.10759
G1 X157.048 Y217.024 E19.25256
G1 X154.402 Y216.873 E19.39913
G1 X151.793 Y216.798 E19.54348
G1 X149.148 Y216.796 E19.68975
G1 X146.541 Y216.869 E19.83398
G1 X143.888 Y217.018 E19.98093
G1 X143.226 Y217.073 E20.01767
G1 X143.174 Y217.077 E20.02055
G1 X140.914 Y217.247 E20.14589
G1 X140.817 Y217.254 E20.15127
G1 X139.315 Y217.346 E20.23449
G1 X139.208 Y217.352 E20.24042
G1 X137.597 Y217.426 E20.32961
G1 X137.492 Y217.43 E20.33542
G1 X135.999 Y217.476 E20.41802
G1 X135.894 Y217.478 E20.42383
G1 X134.438 Y217.501 E20.50436
G1 X134.332 Y217.502 E20.51022
G1 X132.782 Y217.503 E20.59594
G1 X132.674 Y217.502 E20.60192
G1 X131.104 Y217.479 E20.68875
G1 X130.996 Y217.477 E20.69473
G1 X129.538 Y217.433 E20.77539
G1 X129.432 Y217.429 E20.78126
G1 X127.867 Y217.358 E20.8679
G1 X127.761 Y217.352 E20.87377
G1 X126.257 Y217.261 E20.9571
G1 X126.146 Y217.254 E20.96325
G1 X123.847 Y217.078 E21.09076
G1 X122.266 Y216.964 E21.17842
G1 X119.63 Y216.838 E21.32437
G1 X116.992 Y216.788 E21.47029
G1 X114.349 Y216.812 E21.61646
G1 X111.736 Y216.91 E21.76107
G1 X109.108 Y217.082 E21.90671
G1 X106.467 Y217.332 E22.05342
G1 X105.341 Y217.468 E22.11614
G1 X105.234 Y217.481 E22.12211
G1 X104.721 Y217.535 E22.15063
G1 X103.974 Y217.573 E22.192
G1 X102.896 Y217.487 E22.2518
G1 X102.459 Y217.418 E22.27627
G1 X101.728 Y217.262 E22.31761
G1 X101.017 Y217.029 E22.35899
G1 X100.177 Y216.637 E22.41025
G1 X99.868 Y216.467 E22.42975
G1 X99.233 Y216.072 E22.47111
G1 X98.798 Y215.742 E22.50131
G1 X96.527 Y213.875 E22.66389
G1 X94.469 Y212.268 E22.80829
G1 X92.326 Y210.692 E22.95541
G1 X90.17 Y209.197 E23.1005
G1 X87.954 Y207.751 E23.24684
G1 X85.745 Y206.398 E23.39009
G1 X83.409 Y205.055 E23.53911
G1 X83.034 Y204.851 E23.56272
G1 X82.991 Y204.827 E23.56544
G1 X81.156 Y203.812 E23.68141
G1 X81.067 Y203.762 E23.68706
G1 X79.809 Y203.042 E23.76722
G1 X79.721 Y202.991 E23.77284
G1 X78.386 Y202.201 E23.85863
G1 X78.296 Y202.147 E23.86444
G1 X77.076 Y201.4 E23.94355
G1 X76.986 Y201.344 E23.94941
G1 X75.688 Y200.522 E24.03438
G1 X75.602 Y200.466 E24.04005
G1 X74.342 Y199.642 E24.12331
G1 X74.251 Y199.582 E24.12934
G1 X73.049 Y198.769 E24.20959
G1 X72.967 Y198.713 E24.21508
G1 X71.708 Y197.835 E24.29997
G1 X71.617 Y197.771 E24.30612
G1 X70.437 Y196.92 E24.38658
G1 X70.361 Y196.863 E24.39183
G1 X69.14 Y195.957 E24.47592
G1 X69.055 Y195.893 E24.4818
G1 X67.855 Y194.974 E24.56539
G1 X67.77 Y194.908 E24.57134
G1 X66.653 Y194.025 E24.65009
G1 X66.568 Y193.957 E24.65611
G1 X65.344 Y192.958 E24.74348
G1 X65.266 Y192.894 E24.74906
G1 X64.188 Y191.988 E24.82694
G1 X64.109 Y191.92 E24.8327
G1 X62.935 Y190.903 E24.9186
G1 X62.857 Y190.834 E24.92436
G1 X61.759 Y189.854 E25.00575
G1 X61.678 Y189.781 E25.01178
G1 X60.591 Y188.78 E25.0935
G1 X60.517 Y188.711 E25.0991
G1 X59.399 Y187.651 E25.1843
G1 X59.325 Y187.58 E25.18997
G1 X58.268 Y186.548 E25.27167
G1 X58.191 Y186.472 E25.27765
G1 X57.168 Y185.442 E25.35793
G1 X57.094 Y185.365 E25.36384
G1 X56.017 Y184.247 E25.44969
G1 X55.952 Y184.179 E25.45489
G1 X54.972 Y183.134 E25.53412
G1 X54.893 Y183.048 E25.54058
G1 X53.861 Y181.91 E25.62554
G1 X53.796 Y181.838 E25.6309
G1 X52.824 Y180.736 E25.71217
G1 X52.755 Y180.656 E25.71801
G1 X51.791 Y179.529 E25.80003
G1 X51.723 Y179.449 E25.80583
G1 X50.757 Y178.285 E25.88949
G1 X50.681 Y178.192 E25.89613
G1 X47.823 Y174.625 E26.1489
G1 X46.16 Y172.668 E26.29093
G1 X44.384 Y170.693 E26.43782
G1 X42.551 Y168.768 E26.58482
G1 X40.711 Y166.942 E26.72818
G1 X38.762 Y165.116 E26.87588
G1 X36.818 Y163.394 E27.0195
G1 X36.29 Y162.956 E27.05744
G1 X36.198 Y162.879 E27.06408
G1 X35.138 Y161.969 E27.14134
G1 X34.598 Y161.452 E27.18268
G1 X34.199 Y160.989 E27.21648
G1 X33.969 Y160.697 E27.23704
G1 X33.538 Y160.086 E27.27839
G1 X33.175 Y159.432 E27.31976
G1 X32.873 Y158.712 E27.36294
G1 X32.719 Y158.279 E27.38835
G1 X32.506 Y157.561 E27.42977
G1 X32.371 Y156.826 E27.4711
G1 X32.318 Y155.708 E27.53299
G1 X32.332 Y155.272 E27.55712
G1 X32.344 Y155.023 E27.57091
G1 X32.385 Y154.419 E27.60439
G1 X32.522 Y151.812 E27.74876
G1 X32.588 Y149.165 E27.89519
G1 X32.577 Y146.506 E28.04224
G1 X32.527 Y144.682 E28.14316
G1 X32.546 Y143.934 E28.18454
G1 X32.645 Y143.193 E28.22588
G1 X32.823 Y142.466 E28.26727
G1 X32.948 Y142.09 E28.28918
G1 X33.068 Y141.761 E28.30855
G1 X33.993 Y139.201 E28.45909
G1 X34.815 Y136.713 E28.604
G1 X35.574 Y134.173 E28.7506
G1 X36.252 Y131.649 E28.89514
G1 X36.86 Y129.096 E29.04027
G1 X37.397 Y126.519 E29.18585
G1 X37.866 Y123.909 E29.3325
G1 X38.251 Y121.349 E29.47567
G1 X38.571 Y118.712 E29.62257
G1 X38.814 Y116.086 E29.76842
G1 X38.983 Y113.476 E29.91306
G1 X39.077 Y110.87 E30.05728
G1 X39.1 Y108.734 E30.17541
G1 X39.1 Y68.788 E32.38455
G1 X39.101 Y68.672 E32.39096
G1 X39.112 Y68.007 E32.42774
G1 X39.164 Y67.261 E32.4691
G1 X39.296 Y66.525 E32.51045
G1 X39.505 Y65.806 E32.55186
G1 X39.79 Y65.115 E32.5932
G1 X40.147 Y64.457 E32.6346
G1 X40.573 Y63.842 E32.67597
G1 X41.061 Y63.275 E32.71734
G1 X41.607 Y62.764 E32.7587
G1 X42.205 Y62.314 E32.80009
G1 X42.847 Y61.931 E32.84143
G1 X43.526 Y61.618 E32.88278
G1 X44.235 Y61.379 E32.92416
G1 X44.966 Y61.217 E32.96557
G1 X45.914 Y61.126 E33.01823
G1 X46.233 Y61.117 E33.03588
G1 X46.43 Y61.114 E33.04678
G1 X47.793 Y61.114 E33.12216
G1 X47.893 Y61.115 E33.12769
G1 X48.595 Y61.125 E33.16651
G1 X49.341 Y61.175 E33.20786
G1 X50.078 Y61.305 E33.24925
G1 X50.796 Y61.513 E33.29059
G1 X51.489 Y61.796 E33.33199
G1 X52.147 Y62.152 E33.37336
G1 X52.763 Y62.576 E33.41472
G1 X53.331 Y63.063 E33.4561
G1 X53.843 Y63.608 E33.49745
G1 X54.4 Y64.365 E33.54943
G1 X55.02 Y65.339 E33.61328
G1 X56.488 Y67.577 E33.7613
G1 X57.993 Y69.731 E33.90662
G1 X59.559 Y71.847 E34.0522
G1 X61.181 Y73.912 E34.19742
G1 X62.879 Y75.954 E34.34429
G1 X64.615 Y77.923 E34.48946
