;FLAVOR:Marlin
;TIME:3560
;Filament used: 0m, 3.77685m
;Layer height: 0.4
;MINX:32.316
;MINY:61.114
;MINZ:0.4
;MAXX:234.694
;MAXY:217.573
;MAXZ:13.6
;Generated with Cura_SteamEngine 4.4.1
T1
M105
M109 S0
M82 ;absolute extrusion mode
; LULZBOT TAZ 6 DUAL EXTRUDER V3
; START CODE FOR PETG NO SUPPORT

M73 P0                        ; clear GLCD progress bar
M75 		; start GLCD timer
G26                          ; clear potential 'probe fail' condition
M107                         ; disable fans
M420 S0                      ; disable leveling matrix
G90                          ; absolute positioning
M117 Soften Temp...

; --- SOFTEN TEMP
T0
M104 S100
T1
M104 S170		; soften filament -- HARDCODED TEMP
M140 S80		; get bed heating up
M109 R170
; ----------

G28
; G28 X Y                      ; home X and Y
; G1 X-17 F3000                ; clear X endstop
; G1 Y258 F3000                ; move over the Z_MIN switch
; G1 X-19 F3000                ; move left as far as possible
M117 Heating...              ; LCD status message
; G28 Z                        ; home Z

; --- RETRACTION
T1                           ; select this extruder first
M82                          ; set extruder to absolute mode
G92 E0                       ; set extruder to zero
G1  E-5 F125                 ; retract XXmm of filament
; ----------

G1 Y100 F5000          ; move above wiper pad

; --- WIPING TEMP
M117 Wiping temp...			; LCD status message
M107						; Turn off fan
T1
M109 R170					; wait for T0 to reach temp
; ----------

T0                           ; switch extruders
G1 Z1                        ; push nozzle into wiper
G1 Y90 F1000                   ; slow wipe
G1 Y85 F1000                   ; slow wipe
G1 Y90 F1000                   ; slow wipe
G1 Y80 F1000                   ; slow wipe
G1 Y95 F1000                   ; slow wipe
G1 Y75 F2000                   ; fast wipe
G1 Y65 F2000                   ; fast wipe
G1 Y70 F2000                   ; fast wipe
G1 Y60 F2000                   ; fast wipe
G1 Y55 F2000                   ; fast wipe
G1 Y50 F2000                   ; fast wipe
G1 Y40 F2000                   ; fast wipe
G1 Y45 F2000                   ; fast wipe
G1 Y35 F2000                   ; fast wipe
G1 Y40 F2000                   ; fast wipe
G1 Y70 F2000                   ; fast wipe
G1 Y30 Z2 F2000                ; fast wipe
G1 Y35 F2000                   ; fast wipe
G1 Y25 F2000                   ; fast wipe
G1 Y30 F2000                   ; fast wipe
G1 Y25 Z1.5 F1000              ; slow wipe
G1 Y23 F1000                   ; slow wipe
G1 Y10 Z25                      ; raise extruder

; --- probing temp
M106
T1
M109 R140
M107

M204 S175                    ; set accel for probing
G29                          ; probe sequence (for auto-leveling)
M420 S1                      ; enable leveling matrix
M425 Z					     ; use measured Z backlash for compensation
M425 Z F0		    		 ; turn off measured Z backlash compensation. (if activated in the quality settings, this command will automatically be ignored)
M204 S500                    ; set accel back to normal

; --- PRINT TEMP
T1
M104 S250				 ; set extruder temp -- HARDCODED TEMP
; ----------

G1 X100 Y-25 Z0.5 F4500      ; move to open space
M400                         ; clear buffer
M117 Heating...              ; LCD status message

; --- PRINT TEMP
T1
M109 R250				 ; set extruder temp and wait -- HARDCODED TEMP
; ----------

M117 Purging...              ; LCD status message

; -------------------- PURGE EXT 1 ------------------------------------
T1                           ; select this extruder first
G1  E0 F125  	             ; undo retraction
G92 E-50                     ; set extruder negative amount to purge
G1  E0 F125                  ; purge XXmm of filament

T1
G1 Z0.5                      ; clear bed (barely)
G1 X100 Y0 F5000             ; move above bed to shear off filament
M400                         ; clear buffer
M107

; -------------------- TURN EXT 2 OFF FOR SINGLE EXTRUDER PRINT ------------------
T0
M104 S0                     ; T1 hotend off
T1
; --------------------------------------------------------------------------------

M117 TAZ Printing...         ; LCD status message
G92 E0
T1
M107
M109 R250
G92 E0
G1 F1500 E-7
;LAYER_COUNT:34
;LAYER:0
M107
G0 F7200 X94.03 Y99.653 Z0.4
;TYPE:SKIRT
G1 F1500 E0.07838
G1 X96.439 Y100.741 E0.22456
G1 X98.879 Y101.762 E0.37084
G1 X101.324 Y102.701 E0.51568
G1 X103.783 Y103.569 E0.6599
G1 X106.302 Y104.379 E0.80623
G1 X108.809 Y105.107 E0.9506
G1 X111.382 Y105.777 E1.09764
G1 X113.969 Y106.373 E1.24446
G1 X116.51 Y106.881 E1.38776
G1 X119.1 Y107.324 E1.53308
G1 X121.708 Y107.695 E1.67876
G1 X124.3 Y107.989 E1.82302
G1 X126.949 Y108.215 E1.97005
G1 X129.577 Y108.363 E2.11562
G1 X132.191 Y108.437 E2.26024
G1 X134.834 Y108.437 E2.40641
G1 X137.436 Y108.363 E2.55036
G1 X140.085 Y108.212 E2.6971
G1 X142.724 Y107.988 E2.84357
G1 X145.31 Y107.694 E2.9875
G1 X147.93 Y107.321 E3.13386
G1 X150.503 Y106.879 E3.27824
G1 X153.098 Y106.358 E3.42461
G1 X155.632 Y105.776 E3.5684
G1 X158.2 Y105.107 E3.71516
G1 X160.724 Y104.374 E3.86051
G1 X163.24 Y103.564 E4.00669
G1 X165.701 Y102.695 E4.15102
G1 X168.172 Y101.743 E4.29747
G1 X170.594 Y100.729 E4.44268
G1 X172.995 Y99.645 E4.58836
G1 X175.351 Y98.5 E4.73323
G1 X177.673 Y97.288 E4.87808
G1 X179.993 Y95.992 E5.02505
G1 X182.243 Y94.652 E5.16988
G1 X184.461 Y93.242 E5.31523
G1 X186.65 Y91.765 E5.46126
G1 X188.781 Y90.236 E5.60631
G1 X190.875 Y88.641 E5.75188
G1 X192.93 Y86.984 E5.89788
G1 X194.919 Y85.284 E6.04258
G1 X196.87 Y83.518 E6.18811
G1 X198.756 Y81.712 E6.33252
G1 X200.644 Y79.8 E6.48112
G1 X202.401 Y77.914 E6.62367
G1 X204.155 Y75.923 E6.77041
G1 X205.848 Y73.886 E6.91689
G1 X207.447 Y71.852 E7.05998
G1 X209.028 Y69.715 E7.20699
G1 X210.509 Y67.591 E7.35019
G1 X211.989 Y65.336 E7.49936
G1 X212.52 Y64.488 E7.55469
G1 X212.689 Y64.231 E7.5717
G1 X212.742 Y64.154 E7.57687
G1 X213.198 Y63.561 E7.61824
G1 X213.715 Y63.021 E7.65958
G1 X214.287 Y62.539 E7.70095
G1 X214.907 Y62.12 E7.74233
G1 X215.568 Y61.77 E7.7837
G1 X216.263 Y61.493 E7.82507
G1 X216.984 Y61.291 E7.86648
G1 X217.721 Y61.167 E7.90781
G1 X218.312 Y61.126 E7.94057
G1 X218.634 Y61.117 E7.95839
G1 X218.83 Y61.114 E7.96923
G1 X220.193 Y61.114 E8.04461
G1 X220.283 Y61.115 E8.04959
G1 X220.981 Y61.124 E8.08819
G1 X221.728 Y61.173 E8.12959
G1 X222.465 Y61.302 E8.17097
G1 X223.183 Y61.509 E8.21229
G1 X223.876 Y61.791 E8.25367
G1 X224.535 Y62.146 E8.29507
G1 X225.152 Y62.569 E8.33644
G1 X225.72 Y63.055 E8.37778
G1 X226.233 Y63.6 E8.41917
G1 X226.685 Y64.196 E8.46054
G1 X227.072 Y64.836 E8.5019
G1 X227.387 Y65.515 E8.54329
G1 X227.628 Y66.223 E8.58466
G1 X227.792 Y66.953 E8.62603
G1 X227.888 Y67.927 E8.68016
G1 X227.897 Y68.248 E8.69792
G1 X227.9 Y68.444 E8.70876
G1 X227.9 Y108.806 E10.9409
G1 X227.937 Y111.415 E11.0852
G1 X228.051 Y114.091 E11.23333
G1 X228.234 Y116.667 E11.37614
G1 X228.497 Y119.321 E11.52364
G1 X228.827 Y121.905 E11.6677
G1 X229.237 Y124.514 E11.81376
G1 X229.719 Y127.103 E11.9594
G1 X230.272 Y129.674 E12.10483
G1 X230.887 Y132.181 E12.24759
G1 X231.599 Y134.774 E12.3963
G1 X232.364 Y137.27 E12.54067
G1 X233.2 Y139.748 E12.6853
G1 X233.757 Y141.25 E12.77389
G1 X233.786 Y141.33 E12.7786
G1 X234.068 Y142.119 E12.82494
G1 X234.281 Y142.836 E12.8663
G1 X234.417 Y143.572 E12.90769
G1 X234.474 Y144.649 E12.96734
G1 X234.446 Y145.791 E13.03051
G1 X234.418 Y148.494 E13.18001
G1 X234.464 Y151.088 E13.32349
G1 X234.661 Y154.894 E13.53425
G1 X234.679 Y155.14 E13.54789
G1 X234.694 Y155.888 E13.58927
G1 X234.66 Y156.38 E13.61654
G1 X234.613 Y156.828 E13.64145
G1 X234.495 Y157.567 E13.68284
G1 X234.299 Y158.289 E13.72421
G1 X233.949 Y159.153 E13.77577
G1 X233.771 Y159.52 E13.79832
G1 X233.409 Y160.174 E13.83966
G1 X232.98 Y160.787 E13.88104
G1 X232.34 Y161.496 E13.93386
G1 X232.033 Y161.793 E13.95749
G1 X231.726 Y162.073 E13.98046
G1 X230.926 Y162.76 E14.03878
G1 X230.849 Y162.825 E14.04435
G1 X230.327 Y163.26 E14.08193
G1 X228.343 Y165.013 E14.22835
G1 X226.434 Y166.797 E14.37284
G1 X224.547 Y168.665 E14.51969
G1 X222.746 Y170.55 E14.66387
G1 X220.977 Y172.511 E14.80992
G1 X219.252 Y174.533 E14.95691
G1 X217.51 Y176.703 E15.1108
G1 X217.318 Y176.948 E15.12801
G1 X217.259 Y177.023 E15.13329
G1 X216.374 Y178.125 E15.21146
G1 X216.305 Y178.209 E15.21747
G1 X215.297 Y179.425 E15.30482
G1 X215.231 Y179.504 E15.31051
G1 X214.283 Y180.614 E15.39124
G1 X214.211 Y180.697 E15.39731
G1 X213.235 Y181.804 E15.47893
G1 X213.168 Y181.879 E15.48449
G1 X212.139 Y183.013 E15.56918
G1 X212.07 Y183.088 E15.57481
G1 X211.089 Y184.138 E15.65428
G1 X211.016 Y184.215 E15.66015
G1 X209.973 Y185.298 E15.7433
G1 X209.897 Y185.376 E15.74932
G1 X208.808 Y186.472 E15.83477
G1 X208.735 Y186.544 E15.84044
G1 X207.712 Y187.544 E15.91955
G1 X207.64 Y187.614 E15.92511
G1 X206.525 Y188.673 E16.01015
G1 X206.446 Y188.746 E16.0161
G1 X205.357 Y189.749 E16.09798
G1 X205.282 Y189.817 E16.10357
G1 X204.171 Y190.811 E16.18602
G1 X204.088 Y190.884 E16.19213
G1 X202.926 Y191.891 E16.27717
G1 X202.848 Y191.958 E16.28285
G1 X201.777 Y192.859 E16.36025
G1 X201.696 Y192.926 E16.36607
G1 X200.512 Y193.892 E16.45057
G1 X200.434 Y193.955 E16.45612
G1 X199.226 Y194.912 E16.54135
G1 X199.137 Y194.981 E16.54758
G1 X198.011 Y195.844 E16.62603
G1 X197.931 Y195.904 E16.63156
G1 X196.685 Y196.831 E16.71745
G1 X196.6 Y196.894 E16.7233
G1 X195.429 Y197.738 E16.80313
G1 X195.344 Y197.798 E16.80888
G1 X194.074 Y198.685 E16.89455
G1 X193.99 Y198.743 E16.9002
G1 X192.798 Y199.55 E16.97981
G1 X192.706 Y199.611 E16.98591
G1 X191.39 Y200.472 E17.07288
G1 X191.306 Y200.526 E17.0784
G1 X190.123 Y201.276 E17.15587
G1 X190.033 Y201.332 E17.16173
G1 X188.71 Y202.143 E17.24755
G1 X188.624 Y202.195 E17.25311
G1 X187.372 Y202.938 E17.33362
G1 X187.277 Y202.993 E17.33969
G1 X185.951 Y203.752 E17.42419
G1 X185.863 Y203.802 E17.42978
G1 X183.915 Y204.88 E17.55291
G1 X182.445 Y205.7 E17.646
G1 X180.19 Y207.035 E17.79092
G1 X177.931 Y208.459 E17.9386
G1 X175.779 Y209.903 E18.08192
G1 X173.597 Y211.458 E18.2301
G1 X171.54 Y213.014 E18.37274
G1 X169.471 Y214.672 E18.51937
G1 X168.566 Y215.439 E18.58498
G1 X168.457 Y215.529 E18.59279
G1 X168.077 Y215.838 E18.61988
G1 X167.473 Y216.278 E18.66121
G1 X166.824 Y216.652 E18.70263
G1 X166.164 Y216.944 E18.74254
G1 X165.801 Y217.083 E18.76404
G1 X165.089 Y217.313 E18.80542
G1 X164.357 Y217.465 E18.84676
G1 X163.482 Y217.544 E18.89535
G1 X163.025 Y217.556 E18.92063
G1 X162.196 Y217.528 E18.96651
G1 X161.926 Y217.503 E18.9815
G1 X161.775 Y217.488 E18.98989
G1 X159.66 Y217.246 E19.10762
G1 X157.048 Y217.024 E19.25259
G1 X154.402 Y216.873 E19.39916
G1 X151.793 Y216.798 E19.54351
G1 X149.148 Y216.796 E19.68979
G1 X146.541 Y216.869 E19.83402
G1 X143.888 Y217.018 E19.98097
G1 X143.226 Y217.073 E20.0177
G1 X143.174 Y217.077 E20.02059
G1 X140.914 Y217.247 E20.14593
G1 X140.817 Y217.254 E20.1513
G1 X139.315 Y217.346 E20.23453
G1 X139.208 Y217.352 E20.24045
G1 X137.597 Y217.426 E20.32964
G1 X137.492 Y217.43 E20.33545
G1 X135.999 Y217.476 E20.41806
G1 X135.894 Y217.478 E20.42387
G1 X134.439 Y217.501 E20.50434
G1 X134.333 Y217.502 E20.5102
G1 X132.781 Y217.503 E20.59603
G1 X132.673 Y217.502 E20.60201
G1 X131.104 Y217.479 E20.68879
G1 X130.996 Y217.477 E20.69476
G1 X129.539 Y217.433 E20.77537
G1 X129.433 Y217.429 E20.78124
G1 X127.865 Y217.358 E20.86804
G1 X127.759 Y217.352 E20.87392
G1 X126.257 Y217.261 E20.95713
G1 X126.146 Y217.254 E20.96328
G1 X123.847 Y217.078 E21.0908
G1 X122.266 Y216.964 E21.17846
G1 X119.63 Y216.838 E21.3244
G1 X116.992 Y216.788 E21.47032
G1 X114.349 Y216.812 E21.61649
G1 X111.736 Y216.91 E21.7611
G1 X109.108 Y217.082 E21.90675
G1 X106.467 Y217.332 E22.05346
G1 X105.341 Y217.468 E22.11618
G1 X105.234 Y217.481 E22.12214
G1 X104.721 Y217.535 E22.15067
G1 X103.974 Y217.573 E22.19203
G1 X102.896 Y217.487 E22.25184
G1 X102.459 Y217.418 E22.2763
G1 X101.728 Y217.262 E22.31764
G1 X101.017 Y217.029 E22.35902
G1 X100.177 Y216.637 E22.41028
G1 X99.868 Y216.467 E22.42979
G1 X99.233 Y216.072 E22.47115
G1 X98.798 Y215.742 E22.50134
G1 X96.527 Y213.875 E22.66393
G1 X94.469 Y212.268 E22.80833
G1 X92.326 Y210.692 E22.95544
G1 X90.17 Y209.197 E23.10054
G1 X87.954 Y207.751 E23.24687
G1 X85.745 Y206.398 E23.39013
G1 X83.409 Y205.055 E23.53914
G1 X83.034 Y204.851 E23.56275
G1 X82.991 Y204.827 E23.56548
G1 X81.156 Y203.812 E23.68145
G1 X81.067 Y203.762 E23.68709
G1 X79.809 Y203.042 E23.76725
G1 X79.722 Y202.992 E23.7728
G1 X78.378 Y202.197 E23.85916
G1 X78.285 Y202.141 E23.86516
G1 X77.061 Y201.391 E23.94455
G1 X76.971 Y201.335 E23.95041
G1 X75.696 Y200.527 E24.03389
G1 X75.613 Y200.473 E24.03937
G1 X74.36 Y199.654 E24.12215
G1 X74.272 Y199.596 E24.12798
G1 X73.049 Y198.77 E24.2096
G1 X72.961 Y198.709 E24.21552
G1 X71.703 Y197.831 E24.30036
G1 X71.614 Y197.768 E24.30639
G1 X70.437 Y196.919 E24.38665
G1 X70.361 Y196.863 E24.39187
G1 X69.14 Y195.957 E24.47595
G1 X69.055 Y195.893 E24.48184
G1 X67.855 Y194.974 E24.56543
G1 X67.77 Y194.908 E24.57138
G1 X66.653 Y194.025 E24.65012
G1 X66.568 Y193.957 E24.65614
G1 X65.349 Y192.962 E24.74316
G1 X65.272 Y192.898 E24.7487
G1 X64.17 Y191.972 E24.8283
G1 X64.092 Y191.906 E24.83395
G1 X62.946 Y190.914 E24.91778
G1 X62.864 Y190.842 E24.92381
G1 X61.77 Y189.865 E25.00493
G1 X61.691 Y189.793 E25.01084
G1 X60.516 Y188.711 E25.09917
G1 X60.44 Y188.64 E25.10493
G1 X59.466 Y187.716 E25.17917
G1 X59.395 Y187.648 E25.18461
G1 X58.273 Y186.553 E25.27131
G1 X58.198 Y186.479 E25.27714
G1 X57.153 Y185.428 E25.3591
G1 X57.073 Y185.346 E25.36544
G1 X56.051 Y184.284 E25.44695
G1 X55.987 Y184.216 E25.45211
G1 X54.946 Y183.105 E25.53631
G1 X54.871 Y183.024 E25.54242
G1 X53.865 Y181.916 E25.62518
G1 X53.798 Y181.841 E25.63074
G1 X52.813 Y180.724 E25.7131
G1 X52.742 Y180.642 E25.7191
G1 X51.794 Y179.533 E25.79979
G1 X51.729 Y179.456 E25.80536
G1 X50.743 Y178.268 E25.89074
G1 X50.661 Y178.167 E25.89794
G1 X49.527 Y176.749 E25.99835
G1 X47.819 Y174.62 E26.1493
G1 X46.112 Y172.615 E26.29492
G1 X44.343 Y170.649 E26.44118
G1 X42.562 Y168.779 E26.584
G1 X40.64 Y166.874 E26.73365
G1 X38.753 Y165.108 E26.87658
G1 X36.788 Y163.368 E27.02173
G1 X36.286 Y162.951 E27.05783
G1 X36.205 Y162.883 E27.06367
G1 X35.144 Y161.974 E27.14094
G1 X34.602 Y161.457 E27.18236
G1 X34.199 Y160.989 E27.21652
G1 X33.969 Y160.697 E27.23708
G1 X33.538 Y160.086 E27.27843
G1 X33.175 Y159.432 E27.31979
G1 X32.873 Y158.712 E27.36297
G1 X32.719 Y158.279 E27.38839
G1 X32.506 Y157.561 E27.42981
G1 X32.371 Y156.826 E27.47113
G1 X32.316 Y156.08 E27.5125
G1 X32.318 Y155.703 E27.53335
G1 X32.333 Y155.247 E27.55858
G1 X32.345 Y155.005 E27.57198
G1 X32.386 Y154.398 E27.60563
G1 X32.522 Y151.795 E27.74978
G1 X32.587 Y149.145 E27.89638
G1 X32.576 Y146.479 E28.04381
G1 X32.527 Y144.677 E28.14351
G1 X32.546 Y143.929 E28.18489
G1 X32.645 Y143.188 E28.22623
G1 X32.823 Y142.461 E28.26762
G1 X32.948 Y142.087 E28.28943
G1 X33.083 Y141.717 E28.31121
G1 X34.007 Y139.161 E28.46152
G1 X34.831 Y136.659 E28.6072
G1 X35.573 Y134.172 E28.75073
G1 X36.258 Y131.616 E28.89707
G1 X36.876 Y129.019 E29.04471
G1 X37.413 Y126.451 E29.1898
G1 X37.866 Y123.909 E29.33259
G1 X38.26 Y121.275 E29.47988
G1 X38.576 Y118.667 E29.62516
G1 X38.815 Y116.078 E29.76895
G1 X38.983 Y113.44 E29.91514
G1 X39.078 Y110.787 E30.06195
G1 X39.1 Y108.733 E30.17555
G1 X39.1 Y68.788 E32.38463
G1 X39.101 Y68.683 E32.39044
G1 X39.111 Y68.018 E32.42722
G1 X39.162 Y67.271 E32.46862
G1 X39.293 Y66.535 E32.50997
G1 X39.501 Y65.816 E32.55136
G1 X39.785 Y65.124 E32.59273
G1 X40.141 Y64.466 E32.6341
G1 X40.565 Y63.85 E32.67546
G1 X41.053 Y63.283 E32.71683
G1 X41.598 Y62.771 E32.75818
G1 X42.195 Y62.32 E32.79956
G1 X42.837 Y61.935 E32.84096
G1 X43.516 Y61.621 E32.88233
G1 X44.224 Y61.382 E32.92366
G1 X44.954 Y61.219 E32.96502
G1 X45.913 Y61.126 E33.01831
G1 X46.233 Y61.117 E33.03601
G1 X46.43 Y61.114 E33.04691
G1 X47.793 Y61.114 E33.12229
G1 X47.893 Y61.115 E33.12782
G1 X48.595 Y61.125 E33.16664
G1 X49.341 Y61.175 E33.20799
G1 X50.078 Y61.305 E33.24938
G1 X50.796 Y61.513 E33.29072
G1 X51.489 Y61.796 E33.33212
