;FLAVOR:Marlin
;TIME:4745
;Filament used: 4.42356m
;Layer height: 0.3
;MINX:39.616
;MINY:61.864
;MINZ:0.3
;MAXX:240.393
;MAXY:216.853
;MAXZ:13.5
;Generated with Cura_SteamEngine 4.4.1
M105
M109 S0
M82 ;absolute extrusion mode
; LULZBOT TAZ 6 DUAL EXTRUDER V3
; START CODE FOR PETG NO SUPPORT

M73 P0                        ; clear GLCD progress bar
M75 		; start GLCD timer
G26                          ; clear potential 'probe fail' condition
M107                         ; disable fans
M420 S0                      ; disable leveling matrix
G90                          ; absolute positioning
M117 Soften Temp...

; --- SOFTEN TEMP
T0
M104 S140		; soften filament -- HARDCODED TEMP
M140 S75		; get bed heating up
M109 R140
; ----------

G28
; G28 X Y                      ; home X and Y
; G1 X-17 F3000                ; clear X endstop
; G1 Y258 F3000                ; move over the Z_MIN switch
; G1 X-19 F3000                ; move left as far as possible
M117 Heating...              ; LCD status message
; G28 Z                        ; home Z

; --- RETRACTION
T0                           ; select this extruder first
M82                          ; set extruder to absolute mode
G92 E0                       ; set extruder to zero
G1  E-5 F125                 ; retract XXmm of filament
; ----------

G1 X-19 Y100 F5000          ; move above wiper pad

; --- WIPING TEMP
M117 Wiping temp...			; LCD status message
M107						; Turn off fan
M109 R170 T0				; wait for T0 to reach temp
; ----------

T0                           ; switch extruders
G1 Z1                        ; push nozzle into wiper
G1 X -19 Y90 F1000                   ; slow wipe
G1 X -19 Y90 F1000                   ; slow wipe
G1 X -19 Y85 F1000                   ; slow wipe
G1 X -19 Y90 F1000                   ; slow wipe
G1 X -19 Y80 F1000                   ; slow wipe
G1 X -19 Y95 F1000                   ; slow wipe
G1 X -19 Y75 F2000                   ; fast wipe
G1 X -19 Y65 F2000                   ; fast wipe
G1 X -19 Y70 F2000                   ; fast wipe
G1 X -19 Y60 F2000                   ; fast wipe
G1 X -19 Y55 F2000                   ; fast wipe
G1 X -19 Y50 F2000                   ; fast wipe
G1 X -19 Y40 F2000                   ; fast wipe
G1 X -19 Y45 F2000                   ; fast wipe
G1 X -19 Y35 F2000                   ; fast wipe
G1 X -19 Y40 F2000                   ; fast wipe
G1 X -19 Y70 F2000                   ; fast wipe
G1 X -19 Y30 Z2 F2000                ; fast wipe
G1 X -19 Y35 F2000                   ; fast wipe
G1 X -19 Y25 F2000                   ; fast wipe
G1 X -19 Y30 F2000                   ; fast wipe
G1 X -19 Y25 Z1.5 F1000              ; slow wipe
G1 X -19 Y23 F1000                   ; slow wipe
G1 X -19 Y10 Z25                      ; raise extruder

; --- probing temp
M106
M109 R140
M107

M204 S175                    ; set accel for probing
G29                          ; probe sequence (for auto-leveling)
M420 S1                      ; enable leveling matrix
M425 Z					     ; use measured Z backlash for compensation
M425 Z F0		    		 ; turn off measured Z backlash compensation. (if activated in the quality settings, this command will automatically be ignored)
M204 S500                    ; set accel back to normal

; --- PRINT TEMP
M104 S240 T0				 ; set extruder temp -- HARDCODED TEMP
; ----------

G1 X100 Y-25 Z0.5 F4500      ; move to open space
M400                         ; clear buffer
M117 Heating...              ; LCD status message

; --- PRINT TEMP
M109 R240 T0				 ; set extruder temp and wait -- HARDCODED TEMP
; ----------

M117 Purging...              ; LCD status message

; -------------------- PURGE EXT 1 ------------------------------------
T0                           ; select this extruder first
G1  E0 F125  	             ; undo retraction
G92 E-50                     ; set extruder negative amount to purge
G1  E0 F125                  ; purge XXmm of filament

T0
G1 Z0.5                      ; clear bed (barely)
G1 X100 Y0 F5000             ; move above bed to shear off filament
M400                         ; clear buffer
M107

; -------------------- TURN EXT 2 OFF FOR SINGLE EXTRUDER PRINT ------------------
; M104 S0 T1                     ; T1 hotend off
; --------------------------------------------------------------------------------

M117 TAZ Printing...         ; LCD status message
G92 E0
G92 E0
G1 F1500 E-7
;LAYER_COUNT:45
;LAYER:0
M107
G0 F7200 X59.965 Y64.335 Z0.3
;TYPE:SKIRT
G1 F1500 E0.15675
G1 X60.268 Y64.768 E0.17045
G1 X60.914 Y65.783 E0.20164
G1 X62.359 Y67.986 E0.26994
G1 X63.888 Y70.174 E0.33914
G1 X65.475 Y72.318 E0.40829
G1 X67.096 Y74.383 E0.47634
G1 X68.804 Y76.436 E0.54557
G1 X70.552 Y78.418 E0.61408
G1 X72.364 Y80.362 E0.68297
G1 X74.196 Y82.218 E0.75058
G1 X76.14 Y84.079 E0.82034
G1 X78.101 Y85.852 E0.88887
G1 X80.132 Y87.587 E0.95812
G1 X82.18 Y89.24 E1.02635
G1 X84.31 Y90.86 E1.09572
G1 X86.44 Y92.388 E1.16367
G1 X88.629 Y93.865 E1.23213
G1 X90.909 Y95.313 E1.30215
G1 X93.173 Y96.662 E1.37047
G1 X95.466 Y97.941 E1.43853
G1 X97.835 Y99.177 E1.5078
G1 X100.214 Y100.334 E1.57638
G1 X102.619 Y101.42 E1.64478
G1 X105.111 Y102.462 E1.7148
G1 X107.541 Y103.396 E1.78229
G1 X110.063 Y104.286 E1.85162
G1 X112.569 Y105.092 E1.91986
G1 X115.126 Y105.835 E1.98889
G1 X117.706 Y106.506 E2.058
G1 X120.287 Y107.101 E2.12666
G1 X122.877 Y107.618 E2.19513
G1 X125.474 Y108.064 E2.26343
G1 X128.128 Y108.441 E2.33293
G1 X130.755 Y108.739 E2.40146
G1 X133.38 Y108.963 E2.46976
G1 X136.05 Y109.113 E2.53908
G1 X138.67 Y109.187 E2.60703
G1 X141.32 Y109.187 E2.67573
G1 X144.001 Y109.111 E2.74525
G1 X146.657 Y108.96 E2.81422
G1 X149.266 Y108.738 E2.8821
G1 X151.895 Y108.439 E2.95069
G1 X154.551 Y108.061 E3.02023
G1 X157.144 Y107.616 E3.08844
G1 X159.767 Y107.089 E3.15779
G1 X162.316 Y106.503 E3.22559
G1 X164.883 Y105.835 E3.29435
G1 X167.457 Y105.087 E3.36384
G1 X169.96 Y104.281 E3.43201
G1 X172.484 Y103.391 E3.50139
G1 X174.953 Y102.439 E3.56999
G1 X177.388 Y101.419 E3.63842
G1 X179.796 Y100.333 E3.7069
G1 X182.204 Y99.161 E3.77633
G1 X184.537 Y97.944 E3.84454
G1 X186.852 Y96.651 E3.91328
G1 X189.138 Y95.289 E3.98226
G1 X191.392 Y93.857 E4.05149
G1 X193.551 Y92.399 E4.11902
G1 X195.74 Y90.829 E4.18885
G1 X197.823 Y89.242 E4.25674
G1 X199.911 Y87.559 E4.32626
G1 X201.916 Y85.845 E4.39464
G1 X203.898 Y84.051 E4.46394
G1 X205.779 Y82.251 E4.53143
G1 X207.679 Y80.325 E4.60157
G1 X209.464 Y78.409 E4.66945
G1 X211.23 Y76.404 E4.73871
G1 X212.901 Y74.396 E4.80643
G1 X214.56 Y72.283 E4.87608
G1 X216.134 Y70.158 E4.94463
G1 X217.639 Y67.999 E5.01285
G1 X219.108 Y65.761 E5.08225
G1 X219.656 Y64.885 E5.10904
G1 X219.807 Y64.656 E5.11615
G1 X219.86 Y64.579 E5.11857
G1 X220.293 Y64.021 E5.13688
G1 X220.786 Y63.515 E5.15519
G1 X221.333 Y63.067 E5.17352
G1 X221.928 Y62.685 E5.19185
G1 X222.561 Y62.372 E5.21016
G1 X223.227 Y62.132 E5.22851
G1 X223.914 Y61.969 E5.24681
G1 X224.833 Y61.875 E5.27076
G1 X225.155 Y61.866 E5.27911
G1 X225.33 Y61.864 E5.28365
G1 X226.793 Y61.864 E5.32158
G1 X226.874 Y61.865 E5.32368
G1 X227.572 Y61.874 E5.34177
G1 X228.277 Y61.923 E5.36009
G1 X228.972 Y62.051 E5.37841
G1 X229.648 Y62.257 E5.39673
G1 X230.296 Y62.538 E5.41504
G1 X230.909 Y62.891 E5.43338
G1 X231.478 Y63.31 E5.4517
G1 X231.996 Y63.791 E5.47002
G1 X232.456 Y64.327 E5.48833
G1 X232.853 Y64.912 E5.50666
G1 X233.181 Y65.538 E5.52498
G1 X233.437 Y66.197 E5.54331
G1 X233.616 Y66.881 E5.56164
G1 X233.717 Y67.58 E5.57994
G1 X233.739 Y67.948 E5.5895
G1 X233.748 Y68.269 E5.59783
G1 X233.75 Y68.444 E5.60236
G1 X233.75 Y108.841 E6.64959
G1 X233.788 Y111.492 E6.71832
G1 X233.9 Y114.14 E6.78702
G1 X234.086 Y116.758 E6.85506
G1 X234.353 Y119.458 E6.92539
G1 X234.685 Y122.047 E6.99306
G1 X235.095 Y124.657 E7.06155
G1 X235.585 Y127.293 E7.13105
G1 X236.14 Y129.872 E7.19944
G1 X236.763 Y132.412 E7.26724
G1 X237.477 Y135.01 E7.33708
G1 X238.253 Y137.549 E7.40591
G1 X239.558 Y141.327 E7.50952
G1 X239.933 Y142.342 E7.53757
G1 X240.14 Y143.018 E7.5559
G1 X240.269 Y143.713 E7.57423
G1 X240.314 Y144.744 E7.60098
G1 X240.291 Y145.344 E7.61654
G1 X240.215 Y148.009 E7.68566
G1 X240.213 Y150.66 E7.75438
G1 X240.288 Y153.344 E7.82399
G1 X240.356 Y154.55 E7.8553
G1 X240.36 Y154.626 E7.85727
G1 X240.393 Y155.372 E7.87663
G1 X240.366 Y156.291 E7.90046
G1 X240.321 Y156.726 E7.9118
G1 X240.208 Y157.424 E7.93013
G1 X240.018 Y158.105 E7.94846
G1 X239.719 Y158.827 E7.96872
G1 X239.547 Y159.179 E7.97887
G1 X239.202 Y159.795 E7.99717
G1 X238.789 Y160.369 E8.01551
G1 X238.277 Y160.927 E8.03514
G1 X237.972 Y161.222 E8.04614
G1 X237.703 Y161.468 E8.05559
G1 X236.826 Y162.223 E8.08559
G1 X234.818 Y163.999 E8.15508
G1 X232.86 Y165.83 E8.22457
G1 X230.999 Y167.674 E8.29249
G1 X229.166 Y169.595 E8.36132
G1 X227.379 Y171.576 E8.43048
G1 X225.665 Y173.588 E8.499
G1 X223.945 Y175.73 E8.57021
G1 X223.371 Y176.466 E8.59441
G1 X223.317 Y176.534 E8.59666
G1 X222.366 Y177.719 E8.63605
G1 X222.304 Y177.795 E8.63859
G1 X221.331 Y178.969 E8.67812
G1 X221.272 Y179.039 E8.68049
G1 X220.326 Y180.147 E8.71826
G1 X220.264 Y180.219 E8.72072
G1 X219.242 Y181.38 E8.76082
G1 X219.183 Y181.447 E8.76313
G1 X218.199 Y182.533 E8.80112
G1 X218.134 Y182.603 E8.8036
G1 X217.097 Y183.713 E8.84298
G1 X217.029 Y183.784 E8.84553
G1 X216.009 Y184.842 E8.88362
G1 X215.946 Y184.907 E8.88597
G1 X214.894 Y185.967 E8.92468
G1 X214.831 Y186.029 E8.92698
G1 X213.762 Y187.076 E8.96577
G1 X213.692 Y187.144 E8.9683
G1 X212.59 Y188.19 E9.00768
G1 X212.522 Y188.254 E9.0101
G1 X211.431 Y189.259 E9.04856
G1 X211.364 Y189.319 E9.05089
G1 X210.25 Y190.316 E9.08964
G1 X210.172 Y190.385 E9.09234
G1 X209.034 Y191.37 E9.13136
G1 X208.97 Y191.425 E9.13355
G1 X207.849 Y192.369 E9.17154
G1 X207.778 Y192.428 E9.17393
G1 X206.619 Y193.375 E9.21273
G1 X206.545 Y193.434 E9.21518
G1 X205.338 Y194.39 E9.2551
G1 X205.26 Y194.451 E9.25767
G1 X204.056 Y195.374 E9.29699
G1 X203.981 Y195.43 E9.29942
G1 X202.844 Y196.275 E9.33614
G1 X202.773 Y196.328 E9.33844
G1 X201.52 Y197.232 E9.37849
G1 X201.44 Y197.288 E9.38103
G1 X200.235 Y198.129 E9.41912
G1 X200.162 Y198.179 E9.42141
G1 X198.905 Y199.03 E9.46076
G1 X198.826 Y199.083 E9.46323
G1 X197.573 Y199.904 E9.50206
G1 X197.492 Y199.956 E9.50456
G1 X196.248 Y200.744 E9.54273
G1 X196.17 Y200.793 E9.54512
G1 X194.863 Y201.594 E9.58486
G1 X194.784 Y201.641 E9.58724
G1 X193.512 Y202.395 E9.62557
G1 X193.429 Y202.443 E9.62806
G1 X192.136 Y203.183 E9.66668
G1 X192.059 Y203.227 E9.66898
G1 X190.704 Y203.977 E9.70913
G1 X190.694 Y203.983 E9.70943
G1 X188.133 Y205.395 E9.78524
G1 X185.83 Y206.754 E9.85456
G1 X183.609 Y208.15 E9.92257
G1 X181.376 Y209.645 E9.99223
G1 X179.242 Y211.163 E10.06012
G1 X177.131 Y212.754 E10.12864
G1 X174.059 Y215.229 E10.23091
G1 X173.484 Y215.641 E10.24925
G1 X172.867 Y215.985 E10.26756
G1 X172.228 Y216.252 E10.28551
G1 X171.825 Y216.395 E10.2966
G1 X171.147 Y216.593 E10.31491
G1 X170.45 Y216.714 E10.33325
G1 X169.605 Y216.754 E10.35518
G1 X169.173 Y216.745 E10.36638
G1 X168.618 Y216.708 E10.3808
G1 X168.084 Y216.649 E10.39472
G1 X165.361 Y216.386 E10.46564
G1 X162.74 Y216.207 E10.53374
G1 X160.099 Y216.102 E10.60226
G1 X157.41 Y216.071 E10.67197
G1 X154.793 Y216.115 E10.73983
G1 X152.136 Y216.235 E10.80877
G1 X147.373 Y216.599 E10.93261
G1 X147.276 Y216.605 E10.93513
G1 X145.734 Y216.699 E10.97517
G1 X145.642 Y216.704 E10.97756
G1 X144.081 Y216.776 E11.01807
G1 X143.984 Y216.78 E11.02059
G1 X142.483 Y216.826 E11.05952
G1 X142.389 Y216.828 E11.06195
G1 X140.902 Y216.851 E11.10051
G1 X140.809 Y216.852 E11.10292
G1 X139.283 Y216.853 E11.14248
G1 X139.188 Y216.852 E11.14494
G1 X137.604 Y216.829 E11.18601
G1 X137.504 Y216.827 E11.1886
G1 X136.036 Y216.782 E11.22667
G1 X135.945 Y216.779 E11.22903
G1 X134.415 Y216.71 E11.26874
G1 X134.316 Y216.704 E11.27131
G1 X132.746 Y216.608 E11.31208
G1 X132.644 Y216.601 E11.31473
G1 X128.223 Y216.259 E11.42968
G1 X125.558 Y216.13 E11.49885
G1 X122.906 Y216.078 E11.56761
G1 X120.256 Y216.099 E11.63631
G1 X117.6 Y216.197 E11.70521
G1 X114.974 Y216.367 E11.77343
G1 X111.091 Y216.744 E11.87456
G1 X110.385 Y216.772 E11.89288
G1 X109.51 Y216.696 E11.91564
G1 X109.087 Y216.629 E11.92675
G1 X108.396 Y216.479 E11.94508
G1 X107.727 Y216.252 E11.96339
G1 X107.04 Y215.925 E11.98311
G1 X106.711 Y215.743 E11.99286
G1 X106.112 Y215.366 E12.01121
G1 X105.83 Y215.153 E12.02037
G1 X105.263 Y214.699 E12.0392
G1 X105.181 Y214.632 E12.04194
G1 X104.131 Y213.762 E12.07729
G1 X101.999 Y212.095 E12.14745
G1 X99.914 Y210.558 E12.2146
G1 X97.716 Y209.03 E12.28399
G1 X95.487 Y207.573 E12.35303
G1 X93.232 Y206.191 E12.42159
G1 X90.897 Y204.846 E12.49144
G1 X89.349 Y204.004 E12.53713
G1 X89.315 Y203.986 E12.53812
G1 X87.956 Y203.236 E12.57836
G1 X87.871 Y203.188 E12.58089
G1 X86.613 Y202.468 E12.61847
G1 X86.532 Y202.421 E12.62089
G1 X85.241 Y201.656 E12.6598
G1 X85.165 Y201.61 E12.6621
G1 X83.869 Y200.817 E12.70149
G1 X83.785 Y200.765 E12.70405
G1 X82.553 Y199.984 E12.74186
G1 X82.476 Y199.934 E12.74424
G1 X81.179 Y199.085 E12.78443
G1 X81.104 Y199.035 E12.78676
G1 X79.853 Y198.19 E12.8259
G1 X79.773 Y198.135 E12.82841
G1 X78.626 Y197.334 E12.86468
G1 X78.552 Y197.282 E12.86703
G1 X77.288 Y196.372 E12.9074
G1 X77.212 Y196.317 E12.90983
G1 X76.017 Y195.429 E12.94843
G1 X75.942 Y195.372 E12.95087
G1 X74.759 Y194.465 E12.98951
G1 X74.683 Y194.406 E12.99201
G1 X73.474 Y193.449 E13.03198
G1 X73.403 Y193.392 E13.03434
G1 X72.287 Y192.482 E13.07167
G1 X72.215 Y192.422 E13.0741
G1 X71.054 Y191.446 E13.11342
G1 X70.979 Y191.382 E13.11597
G1 X69.842 Y190.395 E13.155
G1 X69.78 Y190.34 E13.15715
G1 X68.692 Y189.37 E13.19494
G1 X68.616 Y189.302 E13.19758
G1 X67.486 Y188.261 E13.23741
G1 X67.419 Y188.197 E13.23981
G1 X66.339 Y187.172 E13.27841
G1 X66.274 Y187.11 E13.28074
G1 X65.243 Y186.103 E13.3181
G1 X65.173 Y186.034 E13.32065
G1 X64.041 Y184.893 E13.36232
G1 X63.976 Y184.826 E13.36474
G1 X62.991 Y183.803 E13.40155
G1 X62.929 Y183.738 E13.40388
G1 X61.899 Y182.637 E13.44296
G1 X61.838 Y182.571 E13.44529
G1 X60.818 Y181.449 E13.4846
G1 X60.751 Y181.373 E13.48723
G1 X59.785 Y180.275 E13.52514
G1 X59.725 Y180.206 E13.52751
G1 X58.753 Y179.068 E13.56631
G1 X58.696 Y179.001 E13.56859
G1 X57.734 Y177.842 E13.60763
G1 X57.671 Y177.765 E13.61021
G1 X56.706 Y176.564 E13.65015
G1 X56.648 Y176.491 E13.65257
G1 X56.055 Y175.73 E13.67758
G1 X54.396 Y173.663 E13.74629
G1 X52.67 Y171.634 E13.81534
G1 X50.909 Y169.676 E13.88361
G1 X49.085 Y167.762 E13.95215
G1 X47.184 Y165.877 E14.02155
G1 X45.252 Y164.065 E14.09021
G1 X42.869 Y161.967 E14.17252
G1 X42.18 Y161.381 E14.19596
G1 X41.669 Y160.894 E14.21426
G1 X41.307 Y160.471 E14.2287
G1 X41.081 Y160.182 E14.23821
G1 X40.677 Y159.602 E14.25653
G1 X40.342 Y158.979 E14.27487
G1 X40.091 Y158.355 E14.2923
G1 X39.949 Y157.94 E14.30367
G1 X39.758 Y157.26 E14.32198
G1 X39.645 Y156.562 E14.34031
G1 X39.616 Y155.7 E14.36267
G1 X39.649 Y154.748 E14.38737
G1 X39.654 Y154.637 E14.39025
G1 X39.731 Y153.172 E14.42828
G1 X39.795 Y150.524 E14.49694
G1 X39.783 Y147.868 E14.56579
G1 X39.682 Y144.724 E14.64734
G1 X39.699 Y144.018 E14.66565
G1 X39.796 Y143.318 E14.68397
G1 X40.05 Y142.401 E14.70863
G1 X41.124 Y139.426 E14.79063
G1 X41.953 Y136.91 E14.8593
G1 X42.711 Y134.366 E14.92811
G1 X43.399 Y131.798 E14.99703
G1 X44.02 Y129.188 E15.06658
G1 X44.544 Y126.656 E15.13361
G1 X45.018 Y124.003 E15.20347
G1 X45.405 Y121.411 E15.27141
G1 X45.724 Y118.772 E15.34032
G1 X45.969 Y116.1 E15.40988
G1 X46.135 Y113.493 E15.4776
G1 X46.229 Y110.835 E15.54654
G1 X46.25 Y108.791 E15.59953
G1 X46.25 Y68.788 E16.63654
G1 X46.251 Y68.685 E16.63921
G1 X46.262 Y68.02 E16.65645
G1 X46.313 Y67.315 E16.67478
G1 X46.444 Y66.62 E16.69311
G1 X46.653 Y65.945 E16.71143
G1 X46.936 Y65.297 E16.72976
G1 X47.291 Y64.686 E16.74808
G1 X47.712 Y64.118 E16.76641
G1 X48.195 Y63.602 E16.78473
G1 X48.733 Y63.144 E16.80305
G1 X49.32 Y62.749 E16.82139
G1 X49.947 Y62.423 E16.83971
G1 X50.607 Y62.17 E16.85803
G1 X51.291 Y61.993 E16.87635
G1 X52.335 Y61.875 E16.90358
G1 X52.654 Y61.866 E16.91185
G1 X52.83 Y61.864 E16.91642
G1 X54.293 Y61.864 E16.95434
G1 X54.382 Y61.865 E16.95665
