;FLAVOR:Marlin
;TIME:2929
;Filament used: 4.27815m
;Layer height: 0.4
;MINX:38.018
;MINY:60.314
;MINZ:0.4
;MAXX:241.988
;MAXY:218.373
;MAXZ:13.2
;Generated with Cura_SteamEngine 4.4.1
M105
M109 S0
M82 ;absolute extrusion mode
; LULZBOT TAZ 6 DUAL EXTRUDER V3
; START CODE FOR PETG NO SUPPORT

M73 P0                        ; clear GLCD progress bar
M75 		; start GLCD timer
G26                          ; clear potential 'probe fail' condition
M107                         ; disable fans
M420 S0                      ; disable leveling matrix
G90                          ; absolute positioning
M117 Soften Temp...

; --- SOFTEN TEMP
T0
M104 S140		; soften filament -- HARDCODED TEMP
M140 S75		; get bed heating up
M109 R140
; ----------

G28
; G28 X Y                      ; home X and Y
; G1 X-17 F3000                ; clear X endstop
; G1 Y258 F3000                ; move over the Z_MIN switch
; G1 X-19 F3000                ; move left as far as possible
M117 Heating...              ; LCD status message
; G28 Z                        ; home Z

; --- RETRACTION
T0                           ; select this extruder first
M82                          ; set extruder to absolute mode
G92 E0                       ; set extruder to zero
G1  E-5 F125                 ; retract XXmm of filament
; ----------

G1 X-19 Y100 F5000          ; move above wiper pad

; --- WIPING TEMP
M117 Wiping temp...			; LCD status message
M107						; Turn off fan
M109 R170 T0				; wait for T0 to reach temp
; ----------

T0                           ; switch extruders
G1 Z1                        ; push nozzle into wiper
G1 X -19 Y90 F1000                   ; slow wipe
G1 X -19 Y90 F1000                   ; slow wipe
G1 X -19 Y85 F1000                   ; slow wipe
G1 X -19 Y90 F1000                   ; slow wipe
G1 X -19 Y80 F1000                   ; slow wipe
G1 X -19 Y95 F1000                   ; slow wipe
G1 X -19 Y75 F2000                   ; fast wipe
G1 X -19 Y65 F2000                   ; fast wipe
G1 X -19 Y70 F2000                   ; fast wipe
G1 X -19 Y60 F2000                   ; fast wipe
G1 X -19 Y55 F2000                   ; fast wipe
G1 X -19 Y50 F2000                   ; fast wipe
G1 X -19 Y40 F2000                   ; fast wipe
G1 X -19 Y45 F2000                   ; fast wipe
G1 X -19 Y35 F2000                   ; fast wipe
G1 X -19 Y40 F2000                   ; fast wipe
G1 X -19 Y70 F2000                   ; fast wipe
G1 X -19 Y30 Z2 F2000                ; fast wipe
G1 X -19 Y35 F2000                   ; fast wipe
G1 X -19 Y25 F2000                   ; fast wipe
G1 X -19 Y30 F2000                   ; fast wipe
G1 X -19 Y25 Z1.5 F1000              ; slow wipe
G1 X -19 Y23 F1000                   ; slow wipe
G1 X -19 Y10 Z25                      ; raise extruder

; --- probing temp
M106
M109 R140
M107

M204 S175                    ; set accel for probing
G29                          ; probe sequence (for auto-leveling)
M420 S1                      ; enable leveling matrix
M425 Z					     ; use measured Z backlash for compensation
M425 Z F0		    		 ; turn off measured Z backlash compensation. (if activated in the quality settings, this command will automatically be ignored)
M204 S500                    ; set accel back to normal

; --- PRINT TEMP
M104 S240 T0				 ; set extruder temp -- HARDCODED TEMP
; ----------

G1 X100 Y-25 Z0.5 F4500      ; move to open space
M400                         ; clear buffer
M117 Heating...              ; LCD status message

; --- PRINT TEMP
M109 R240 T0				 ; set extruder temp and wait -- HARDCODED TEMP
; ----------

M117 Purging...              ; LCD status message

; -------------------- PURGE EXT 1 ------------------------------------
T0                           ; select this extruder first
G1  E0 F125  	             ; undo retraction
G92 E-50                     ; set extruder negative amount to purge
G1  E0 F125                  ; purge XXmm of filament

T0
G1 Z0.5                      ; clear bed (barely)
G1 X100 Y0 F5000             ; move above bed to shear off filament
M400                         ; clear buffer
M107

; -------------------- TURN EXT 2 OFF FOR SINGLE EXTRUDER PRINT ------------------
; M104 S0 T1                     ; T1 hotend off
; --------------------------------------------------------------------------------

M117 TAZ Printing...         ; LCD status message
G92 E0
G92 E0
G1 F1500 E-7
;LAYER_COUNT:33
;LAYER:0
M107
G0 F7200 X61.228 Y63.435 Z0.4
;TYPE:SKIRT
G1 F1500 E0.15675
G1 X61.575 Y63.936 E0.19046
G1 X62.198 Y64.915 E0.25463
G1 X63.642 Y67.116 E0.40021
G1 X65.144 Y69.265 E0.54521
G1 X66.7 Y71.368 E0.68989
G1 X68.307 Y73.415 E0.83381
G1 X69.98 Y75.425 E0.97843
G1 X71.701 Y77.377 E1.12235
G1 X73.488 Y79.294 E1.26729
G1 X75.293 Y81.123 E1.4094
G1 X77.193 Y82.941 E1.55483
G1 X79.141 Y84.704 E1.70012
G1 X81.109 Y86.384 E1.84322
G1 X83.145 Y88.028 E1.98795
G1 X85.187 Y89.58 E2.12979
G1 X87.343 Y91.127 E2.27654
G1 X89.508 Y92.588 E2.42098
G1 X91.674 Y93.964 E2.5629
G1 X93.961 Y95.326 E2.71011
G1 X96.216 Y96.584 E2.85291
G1 X98.523 Y97.788 E2.99682
G1 X100.865 Y98.927 E3.14085
G1 X103.249 Y100.004 E3.28552
G1 X105.672 Y101.017 E3.43076
G1 X108.092 Y101.947 E3.57413
G1 X110.541 Y102.811 E3.71775
G1 X113.059 Y103.621 E3.86403
G1 X115.514 Y104.334 E4.00541
G1 X118.053 Y104.995 E4.15051
G1 X120.636 Y105.59 E4.29709
G1 X123.153 Y106.093 E4.43904
G1 X125.745 Y106.537 E4.58448
G1 X128.307 Y106.901 E4.72759
G1 X130.886 Y107.194 E4.87113
G1 X133.493 Y107.416 E5.01583
G1 X136.109 Y107.563 E5.16073
G1 X138.714 Y107.637 E5.30485
G1 X141.312 Y107.637 E5.44853
G1 X143.938 Y107.563 E5.59381
G1 X146.509 Y107.416 E5.73623
G1 X149.135 Y107.193 E5.88198
G1 X151.71 Y106.9 E6.0253
G1 X154.284 Y106.533 E6.16909
G1 X156.887 Y106.087 E6.31514
G1 X159.412 Y105.58 E6.45757
G1 X161.954 Y104.996 E6.60181
G1 X164.495 Y104.334 E6.74703
G1 X166.998 Y103.607 E6.89117
G1 X169.449 Y102.818 E7.03357
G1 X171.951 Y101.935 E7.1803
G1 X174.36 Y101.006 E7.32309
G1 X176.771 Y99.997 E7.46763
G1 X179.145 Y98.925 E7.61169
G1 X181.517 Y97.772 E7.75754
G1 X183.799 Y96.581 E7.8999
G1 X186.095 Y95.299 E8.04533
G1 X188.316 Y93.976 E8.18829
G1 X190.528 Y92.57 E8.33324
G1 X192.688 Y91.112 E8.47737
G1 X194.805 Y89.593 E8.62146
G1 X196.893 Y88.003 E8.7666
G1 X198.9 Y86.385 E8.90917
G1 X200.892 Y84.682 E9.05411
G1 X202.827 Y82.93 E9.19847
G1 X204.699 Y81.138 E9.34178
G1 X206.555 Y79.258 E9.48788
G1 X208.315 Y77.369 E9.63067
G1 X210.054 Y75.394 E9.77619
G1 X211.689 Y73.428 E9.91761
G1 X213.335 Y71.333 E10.06495
G1 X214.861 Y69.273 E10.20673
G1 X216.377 Y67.097 E10.35339
G1 X217.799 Y64.931 E10.49668
G1 X218.342 Y64.063 E10.55331
G1 X218.53 Y63.778 E10.57219
G1 X218.583 Y63.701 E10.57736
G1 X219.063 Y63.074 E10.62103
G1 X219.604 Y62.498 E10.66473
G1 X220.2 Y61.981 E10.70836
G1 X220.846 Y61.526 E10.75206
G1 X221.534 Y61.139 E10.79572
G1 X222.258 Y60.824 E10.83938
G1 X223.011 Y60.583 E10.8831
G1 X223.783 Y60.42 E10.92674
G1 X224.79 Y60.326 E10.98267
G1 X225.112 Y60.317 E11.00049
G1 X225.33 Y60.314 E11.01254
G1 X226.693 Y60.314 E11.08792
G1 X226.794 Y60.315 E11.09351
G1 X227.492 Y60.324 E11.13211
G1 X228.28 Y60.374 E11.17578
G1 X229.059 Y60.503 E11.21945
G1 X229.821 Y60.711 E11.26313
G1 X230.558 Y60.995 E11.30681
G1 X231.262 Y61.351 E11.35044
G1 X231.927 Y61.777 E11.39411
G1 X232.545 Y62.269 E11.4378
G1 X233.111 Y62.82 E11.48148
G1 X233.618 Y63.425 E11.52514
G1 X234.061 Y64.079 E11.56882
G1 X234.435 Y64.774 E11.61247
G1 X234.738 Y65.504 E11.65618
G1 X234.965 Y66.26 E11.69983
G1 X235.115 Y67.035 E11.74349
G1 X235.188 Y67.904 E11.79172
G1 X235.197 Y68.225 E11.80947
G1 X235.2 Y68.444 E11.82159
G1 X235.2 Y108.765 E14.05146
G1 X235.237 Y111.402 E14.19731
G1 X235.349 Y114.033 E14.34294
G1 X235.531 Y116.602 E14.48537
G1 X235.79 Y119.211 E14.63037
G1 X236.123 Y121.816 E14.7756
G1 X236.52 Y124.344 E14.91712
G1 X237.009 Y126.971 E15.0649
G1 X237.551 Y129.491 E15.20745
G1 X238.163 Y131.988 E15.34963
G1 X238.864 Y134.536 E15.49578
G1 X239.625 Y137.021 E15.63951
G1 X240.458 Y139.491 E15.78366
G1 X241.004 Y140.961 E15.87038
G1 X241.037 Y141.051 E15.87569
G1 X241.322 Y141.848 E15.9225
G1 X241.549 Y142.604 E15.96615
G1 X241.7 Y143.379 E16.00981
G1 X241.771 Y144.165 E16.05346
G1 X241.775 Y144.67 E16.08139
G1 X241.746 Y145.81 E16.14445
G1 X241.718 Y148.481 E16.29218
G1 X241.763 Y151.052 E16.43438
G1 X241.986 Y155.234 E16.66599
G1 X241.988 Y156.024 E16.70968
G1 X241.956 Y156.447 E16.73314
G1 X241.91 Y156.895 E16.75804
G1 X241.79 Y157.675 E16.80169
G1 X241.591 Y158.439 E16.84535
G1 X241.165 Y159.509 E16.90904
G1 X240.987 Y159.875 E16.93155
G1 X240.607 Y160.567 E16.97521
G1 X240.158 Y161.217 E17.0189
G1 X239.406 Y162.061 E17.08141
G1 X239.099 Y162.359 E17.10508
G1 X238.748 Y162.679 E17.13134
G1 X237.948 Y163.366 E17.18966
G1 X237.861 Y163.44 E17.19598
G1 X237.34 Y163.875 E17.23351
G1 X235.37 Y165.615 E17.37887
G1 X233.477 Y167.384 E17.52216
G1 X231.64 Y169.202 E17.66509
G1 X229.836 Y171.091 E17.80954
G1 X228.08 Y173.037 E17.9545
G1 X226.371 Y175.041 E18.10015
G1 X224.633 Y177.205 E18.25365
G1 X224.449 Y177.44 E18.27015
G1 X224.382 Y177.525 E18.27614
G1 X223.479 Y178.649 E18.35588
G1 X223.404 Y178.741 E18.36244
G1 X222.431 Y179.915 E18.44677
G1 X222.356 Y180.004 E18.4532
G1 X221.401 Y181.122 E18.53452
G1 X221.321 Y181.214 E18.54126
G1 X220.316 Y182.354 E18.62531
G1 X220.243 Y182.436 E18.63138
G1 X219.258 Y183.522 E18.71246
G1 X219.179 Y183.607 E18.71888
G1 X218.155 Y184.703 E18.80183
G1 X218.074 Y184.788 E18.80832
G1 X217.034 Y185.868 E18.89124
G1 X216.952 Y185.952 E18.89773
G1 X215.908 Y187.004 E18.9797
G1 X215.822 Y187.09 E18.98642
G1 X214.712 Y188.174 E19.07223
G1 X214.632 Y188.251 E19.07837
G1 X213.626 Y189.206 E19.15508
G1 X213.541 Y189.286 E19.16153
G1 X212.4 Y190.337 E19.24732
G1 X212.316 Y190.413 E19.25359
G1 X211.205 Y191.407 E19.33603
G1 X211.112 Y191.489 E19.34289
G1 X209.95 Y192.496 E19.42792
G1 X209.863 Y192.57 E19.43424
G1 X208.792 Y193.471 E19.51164
G1 X208.702 Y193.546 E19.51812
G1 X207.518 Y194.512 E19.60263
G1 X207.431 Y194.582 E19.6088
G1 X206.223 Y195.539 E19.69403
G1 X206.124 Y195.616 E19.70097
G1 X204.998 Y196.479 E19.77943
G1 X204.909 Y196.546 E19.78559
G1 X203.663 Y197.473 E19.87147
G1 X203.568 Y197.543 E19.878
G1 X202.397 Y198.387 E19.95783
G1 X202.302 Y198.454 E19.96426
G1 X201.032 Y199.341 E20.04993
G1 X200.939 Y199.405 E20.05617
G1 X199.747 Y200.212 E20.13578
G1 X199.644 Y200.28 E20.1426
G1 X198.328 Y201.141 E20.22957
G1 X198.234 Y201.202 E20.23577
G1 X197.051 Y201.952 E20.31323
G1 X196.951 Y202.014 E20.31974
G1 X195.628 Y202.825 E20.40556
G1 X195.533 Y202.883 E20.41172
G1 X194.281 Y203.626 E20.49223
G1 X194.175 Y203.687 E20.49899
G1 X192.849 Y204.446 E20.58349
G1 X192.751 Y204.502 E20.58973
G1 X190.803 Y205.58 E20.71286
G1 X190.803 Y205.579 E20.71291
G1 X189.355 Y206.388 E20.80464
G1 X187.107 Y207.718 E20.94909
G1 X184.867 Y209.13 E21.09553
G1 X182.721 Y210.57 E21.23845
G1 X180.592 Y212.087 E21.38302
G1 X178.515 Y213.658 E21.52704
G1 X176.48 Y215.289 E21.67127
G1 X175.583 Y216.049 E21.73629
G1 X175.462 Y216.15 E21.74501
G1 X175.082 Y216.459 E21.77209
G1 X174.445 Y216.925 E21.81574
G1 X173.764 Y217.325 E21.85942
G1 X172.95 Y217.691 E21.90878
G1 X172.587 Y217.83 E21.93027
G1 X171.836 Y218.075 E21.97396
G1 X171.065 Y218.242 E22.01759
G1 X170.003 Y218.343 E22.07658
G1 X169.546 Y218.355 E22.10187
G1 X168.622 Y218.325 E22.15299
G1 X168.352 Y218.3 E22.16799
G1 X168.184 Y218.282 E22.17733
G1 X166.104 Y218.044 E22.29311
G1 X163.471 Y217.82 E22.43925
G1 X160.903 Y217.673 E22.5815
G1 X158.27 Y217.598 E22.72717
G1 X155.671 Y217.596 E22.87091
G1 X153.072 Y217.669 E23.0147
G1 X150.423 Y217.818 E23.16143
G1 X149.792 Y217.87 E23.19644
G1 X149.734 Y217.875 E23.19966
G1 X147.474 Y218.045 E23.325
G1 X147.366 Y218.052 E23.33098
G1 X145.864 Y218.144 E23.4142
G1 X145.745 Y218.151 E23.4208
G1 X144.134 Y218.225 E23.50998
G1 X144.016 Y218.229 E23.51651
G1 X142.523 Y218.275 E23.59912
G1 X142.406 Y218.278 E23.60559
G1 X140.95 Y218.301 E23.68612
G1 X140.832 Y218.302 E23.69265
G1 X139.282 Y218.303 E23.77837
G1 X139.163 Y218.302 E23.78495
G1 X137.593 Y218.279 E23.87179
G1 X137.472 Y218.276 E23.87848
G1 X136.014 Y218.232 E23.95915
G1 X135.895 Y218.228 E23.96573
G1 X134.33 Y218.157 E24.05237
G1 X134.213 Y218.151 E24.05885
G1 X132.709 Y218.06 E24.14218
G1 X132.585 Y218.051 E24.14905
G1 X130.323 Y217.878 E24.27451
G1 X128.709 Y217.762 E24.364
G1 X126.111 Y217.638 E24.50784
G1 X123.484 Y217.588 E24.65315
G1 X120.886 Y217.612 E24.79683
G1 X118.246 Y217.711 E24.94294
G1 X115.666 Y217.88 E25.08593
G1 X113.104 Y218.122 E25.22824
G1 X111.938 Y218.263 E25.2932
G1 X111.818 Y218.276 E25.29987
G1 X111.305 Y218.33 E25.3284
G1 X110.516 Y218.373 E25.3721
G1 X109.727 Y218.336 E25.41578
G1 X109.271 Y218.278 E25.4412
G1 X108.834 Y218.209 E25.46567
G1 X108.062 Y218.046 E25.5093
G1 X107.309 Y217.806 E25.55301
G1 X106.291 Y217.338 E25.61497
G1 X105.982 Y217.168 E25.63448
G1 X105.31 Y216.753 E25.67816
G1 X104.79 Y216.36 E25.7142
G1 X102.55 Y214.519 E25.87455
G1 X100.455 Y212.883 E26.02155
G1 X98.364 Y211.345 E26.1651
G1 X96.229 Y209.864 E26.3088
G1 X94.026 Y208.427 E26.45426
G1 X91.814 Y207.072 E26.59772
G1 X89.57 Y205.782 E26.74086
G1 X89.151 Y205.554 E26.76724
G1 X89.104 Y205.527 E26.77024
G1 X87.269 Y204.512 E26.88621
G1 X87.169 Y204.457 E26.89252
G1 X85.911 Y203.737 E26.97268
G1 X85.814 Y203.68 E26.97891
G1 X84.479 Y202.89 E27.06469
G1 X84.378 Y202.829 E27.07122
G1 X83.158 Y202.082 E27.15033
G1 X83.058 Y202.02 E27.15684
G1 X81.76 Y201.198 E27.24181
G1 X81.664 Y201.136 E27.24813
G1 X80.404 Y200.312 E27.33139
G1 X80.303 Y200.245 E27.33809
G1 X79.101 Y199.432 E27.41834
G1 X79.009 Y199.369 E27.42451
G1 X77.75 Y198.491 E27.50939
G1 X77.649 Y198.419 E27.51625
G1 X76.469 Y197.568 E27.59671
G1 X76.384 Y197.506 E27.60253
G1 X75.163 Y196.6 E27.68661
G1 X75.068 Y196.529 E27.69317
G1 X73.868 Y195.61 E27.77676
G1 X73.774 Y195.536 E27.78338
G1 X72.657 Y194.653 E27.86212
G1 X72.562 Y194.577 E27.86885
G1 X71.338 Y193.578 E27.95622
G1 X71.252 Y193.506 E27.96243
G1 X70.174 Y192.6 E28.0403
G1 X70.085 Y192.525 E28.04674
G1 X68.911 Y191.508 E28.13264
G1 X68.824 Y191.431 E28.13906
G1 X67.726 Y190.451 E28.22045
G1 X67.636 Y190.37 E28.22715
G1 X66.549 Y189.369 E28.30887
G1 X66.466 Y189.291 E28.31517
G1 X65.348 Y188.231 E28.40037
G1 X65.266 Y188.152 E28.40667
G1 X64.209 Y187.12 E28.48836
G1 X64.124 Y187.036 E28.49497
G1 X63.101 Y186.006 E28.57526
G1 X63.018 Y185.92 E28.58187
G1 X61.941 Y184.802 E28.66772
G1 X61.868 Y184.727 E28.67351
G1 X60.888 Y183.682 E28.75273
G1 X60.8 Y183.586 E28.75994
G1 X59.768 Y182.448 E28.8449
G1 X59.696 Y182.368 E28.85085
G1 X58.724 Y181.266 E28.93211
G1 X58.647 Y181.176 E28.93866
G1 X57.683 Y180.049 E29.02068
G1 X57.608 Y179.96 E29.02712
G1 X56.642 Y178.796 E29.11077
G1 X56.557 Y178.692 E29.1182
G1 X53.72 Y175.151 E29.36912
G1 X52.055 Y173.192 E29.51131
G1 X50.292 Y171.232 E29.6571
G1 X48.491 Y169.34 E29.80156
G1 X46.63 Y167.494 E29.94652
G1 X44.751 Y165.732 E30.08898
G1 X42.795 Y164 E30.23346
G1 X42.279 Y163.572 E30.27054
G1 X42.177 Y163.486 E30.27792
G1 X41.117 Y162.576 E30.35518
G1 X40.545 Y162.032 E30.39883
G1 X40.071 Y161.484 E30.4389
G1 X39.841 Y161.192 E30.45946
G1 X39.384 Y160.548 E30.50313
G1 X38.995 Y159.861 E30.54679
G1 X38.619 Y158.98 E30.59976
G1 X38.465 Y158.547 E30.62518
G1 X38.238 Y157.79 E30.66889
G1 X38.089 Y157.015 E30.71253
G1 X38.02 Y156.228 E30.75622
G1 X38.018 Y155.683 E30.78636
G1 X38.032 Y155.247 E30.81049
G1 X38.046 Y154.969 E30.82588
G1 X38.083 Y154.42 E30.85631
G1 X38.222 Y151.787 E31.00213
G1 X38.288 Y149.148 E31.14812
G1 X38.277 Y146.531 E31.29285
G1 X38.227 Y144.704 E31.39392
G1 X38.245 Y143.914 E31.43762
G1 X38.343 Y143.131 E31.48126
G1 X38.52 Y142.361 E31.52496
G1 X38.696 Y141.816 E31.55663
G1 X38.816 Y141.487 E31.576
G1 X39.729 Y138.963 E31.72443
G1 X40.558 Y136.452 E31.87067
G1 X41.295 Y133.989 E32.01285
G1 X41.975 Y131.458 E32.15779
G1 X42.586 Y128.891 E32.30371
G1 X43.113 Y126.364 E32.44647
G1 X43.57 Y123.82 E32.58942
G1 X43.963 Y121.202 E32.73582
G1 X44.273 Y118.65 E32.87799
G1 X44.515 Y116.032 E33.02339
