;FLAVOR:Marlin
;TIME:7536
;Filament used: 11.9104m
;Layer height: 0.32
;MINX:43.846
;MINY:66.114
;MINZ:0.32
;MAXX:256.157
;MAXY:232.524
;MAXZ:13.44
;Generated with Cura_SteamEngine 4.4.1
M105
M109 S0
M82 ;absolute extrusion mode
; ConnectedFab START code
M140 S80		; set bed temperature to the minimum that will ever be used by a print
M104 S140		; set hotend temperature just to soften filament
G90				; set all axes to absolute positioning
M107			; turn off fans
M302 S120		; Allow extrusion at soften temperature
G92 E0			; reset extruder position
M109 R140		; wait for hotend temperature
G1 E-100 F400	; retract filament to prevent oozing
M400			; wait for movements to finish
M190 R80		; wait for bed temperature

G28				; home
G1 X0 Y0 F5000		; move away from a likely print start position to protect area
G1 Z50			; raise hotend to allow for manipulation while heating if necessary
M501			; Recall saved configuration from eeprom
M420 S1			; Enable ABL with saved Mesh

M109 R230		; wait for print temperature
G1 E5			; feed filament back into the nozzle
G0 Z0.32	; position nozzle at layer 1 height
G92 E0
G92 E0
G1 F1500 E-6.5
;LAYER_COUNT:42
;LAYER:0
M107
G0 F6000 X55.276 Y68.625 Z0.32
;TYPE:SKIRT
G1 F1500 E0
G1 F900 X56.075 Y68.059 E0.10421
G1 X56.918 Y67.559 E0.20853
G1 X57.798 Y67.13 E0.31273
G1 X58.711 Y66.774 E0.41703
G1 X59.65 Y66.494 E0.52132
G1 X60.608 Y66.291 E0.62554
G1 X61.58 Y66.167 E0.72983
G1 X62.273 Y66.128 E0.80371
G1 X62.593 Y66.119 E0.83778
G1 X62.93 Y66.114 E0.87365
G1 X64.293 Y66.114 E1.01872
G1 X64.464 Y66.115 E1.03692
G1 X65.166 Y66.125 E1.11164
G1 X66.144 Y66.179 E1.21589
G1 X67.114 Y66.313 E1.32011
G1 X68.071 Y66.525 E1.42444
G1 X69.007 Y66.814 E1.5287
G1 X69.916 Y67.179 E1.63295
G1 X70.792 Y67.617 E1.73719
G1 X71.63 Y68.125 E1.84149
G1 X72.423 Y68.699 E1.94568
G1 X73.167 Y69.337 E2.05
G1 X73.857 Y70.033 E2.15431
G1 X74.487 Y70.782 E2.25847
G1 X75.119 Y71.681 E2.37544
G1 X75.716 Y72.619 E2.49377
G1 X77.141 Y74.791 E2.77026
G1 X78.544 Y76.799 E3.03097
G1 X80.046 Y78.829 E3.29974
G1 X81.574 Y80.775 E3.56308
G1 X83.17 Y82.693 E3.82865
G1 X84.813 Y84.556 E4.09302
G1 X86.494 Y86.359 E4.35539
G1 X88.254 Y88.142 E4.62203
G1 X90.071 Y89.882 E4.88979
G1 X91.899 Y91.536 E5.15217
G1 X93.791 Y93.151 E5.41693
G1 X95.736 Y94.721 E5.68297
G1 X97.716 Y96.226 E5.94767
G1 X99.724 Y97.667 E6.21072
G1 X101.788 Y99.061 E6.47581
G1 X103.894 Y100.398 E6.74131
G1 X106.058 Y101.687 E7.00939
G1 X108.199 Y102.881 E7.2703
G1 X110.426 Y104.043 E7.53765
G1 X112.651 Y105.125 E7.80098
G1 X114.91 Y106.145 E8.06479
G1 X117.27 Y107.132 E8.33705
G1 X119.538 Y108.004 E8.59566
G1 X121.876 Y108.829 E8.85954
G1 X124.253 Y109.593 E9.12528
G1 X126.683 Y110.299 E9.3946
G1 X129.052 Y110.915 E9.65513
G1 X131.487 Y111.477 E9.9211
G1 X133.917 Y111.962 E10.18483
G1 X136.412 Y112.39 E10.45426
G1 X138.803 Y112.73 E10.7113
G1 X141.323 Y113.016 E10.98123
G1 X143.809 Y113.227 E11.24678
G1 X146.285 Y113.367 E11.51072
G1 X148.762 Y113.437 E11.77446
G1 X151.264 Y113.437 E12.04076
G1 X153.718 Y113.368 E12.30204
G1 X156.235 Y113.224 E12.57037
G1 X158.733 Y113.011 E12.83721
G1 X161.174 Y112.734 E13.09867
G1 X163.65 Y112.382 E13.36485
G1 X166.099 Y111.961 E13.62933
G1 X168.536 Y111.472 E13.89387
G1 X170.932 Y110.921 E14.15554
G1 X173.367 Y110.287 E14.42335
G1 X175.783 Y109.585 E14.69112
G1 X178.134 Y108.828 E14.954
G1 X180.487 Y107.998 E15.21955
G1 X182.793 Y107.109 E15.48259
G1 X185.092 Y106.147 E15.74784
G1 X187.373 Y105.117 E16.01422
G1 X189.601 Y104.034 E16.27788
G1 X191.811 Y102.881 E16.54318
G1 X193.999 Y101.659 E16.80991
G1 X196.104 Y100.405 E17.0707
G1 X198.221 Y99.059 E17.3377
G1 X200.299 Y97.656 E17.60456
G1 X202.314 Y96.211 E17.86846
G1 X204.295 Y94.702 E18.13351
G1 X206.212 Y93.156 E18.39562
G1 X208.114 Y91.531 E18.66188
G1 X209.963 Y89.857 E18.92734
G1 X211.775 Y88.123 E19.19428
G1 X213.53 Y86.344 E19.46025
G1 X215.182 Y84.571 E19.71817
G1 X216.864 Y82.662 E19.98897
G1 X218.447 Y80.758 E20.2525
G1 X219.969 Y78.82 E20.51478
G1 X221.473 Y76.789 E20.78376
G1 X222.881 Y74.769 E21.04582
G1 X224.258 Y72.671 E21.31292
G1 X224.781 Y71.836 E21.41778
G1 X225.07 Y71.396 E21.47381
G1 X225.123 Y71.319 E21.48376
G1 X225.711 Y70.536 E21.58798
G1 X226.361 Y69.803 E21.69225
G1 X227.068 Y69.125 E21.79651
G1 X227.829 Y68.507 E21.90085
G1 X228.637 Y67.954 E22.00506
G1 X229.488 Y67.468 E22.10936
G1 X230.375 Y67.053 E22.21359
G1 X231.293 Y66.712 E22.31781
G1 X232.237 Y66.447 E22.42217
G1 X233.198 Y66.26 E22.52637
G1 X234.172 Y66.152 E22.63067
G1 X234.673 Y66.128 E22.68406
G1 X234.995 Y66.119 E22.71834
G1 X235.33 Y66.114 E22.754
G1 X236.693 Y66.114 E22.89907
G1 X236.848 Y66.115 E22.91556
G1 X237.546 Y66.124 E22.98986
G1 X238.524 Y66.177 E23.0941
G1 X239.495 Y66.309 E23.1984
G1 X240.451 Y66.52 E23.3026
G1 X241.387 Y66.808 E23.40683
G1 X242.297 Y67.172 E23.51114
G1 X243.174 Y67.608 E23.61538
G1 X244.012 Y68.115 E23.71963
G1 X244.806 Y68.688 E23.82384
G1 X245.551 Y69.325 E23.92817
G1 X246.242 Y70.02 E24.03248
G1 X246.873 Y70.768 E24.13663
G1 X247.441 Y71.566 E24.24088
G1 X247.943 Y72.408 E24.34522
G1 X248.374 Y73.288 E24.44951
G1 X248.732 Y74.2 E24.55378
G1 X249.014 Y75.138 E24.65803
G1 X249.218 Y76.096 E24.76228
G1 X249.344 Y77.067 E24.86649
G1 X249.386 Y77.787 E24.94325
G1 X249.395 Y78.108 E24.97743
G1 X249.4 Y78.444 E25.0132
G1 X249.4 Y118.682 E29.29583
G1 X249.437 Y121.312 E29.57577
G1 X249.541 Y123.763 E29.83687
G1 X249.717 Y126.253 E30.10255
G1 X249.966 Y128.76 E30.37069
G1 X250.277 Y131.195 E30.63196
G1 X250.668 Y133.684 E30.90012
G1 X251.125 Y136.142 E31.16621
G1 X251.643 Y138.548 E31.42815
G1 X252.228 Y140.931 E31.68931
G1 X252.898 Y143.37 E31.95852
G1 X253.623 Y145.738 E32.2221
G1 X254.423 Y148.111 E32.48863
G1 X255.237 Y150.325 E32.73969
G1 X255.537 Y151.257 E32.8439
G1 X255.76 Y152.211 E32.94817
G1 X255.904 Y153.18 E33.05244
G1 X255.969 Y154.157 E33.15665
G1 X255.968 Y154.793 E33.22434
G1 X255.954 Y155.317 E33.28013
G1 X255.902 Y157.971 E33.56266
G1 X255.924 Y160.481 E33.82982
G1 X256.016 Y162.989 E34.09693
G1 X256.136 Y164.934 E34.30433
G1 X256.157 Y165.912 E34.40845
G1 X256.153 Y166.113 E34.42984
G1 X256.093 Y167.091 E34.53413
G1 X255.947 Y168.101 E34.64275
G1 X255.903 Y168.334 E34.66798
G1 X255.682 Y169.288 E34.77221
G1 X255.384 Y170.221 E34.87645
G1 X255.011 Y171.127 E34.98073
G1 X254.68 Y171.79 E35.0596
G1 X254.473 Y172.175 E35.10613
G1 X253.974 Y173.018 E35.21039
G1 X253.409 Y173.817 E35.31454
G1 X252.779 Y174.568 E35.41887
G1 X251.952 Y175.393 E35.5432
G1 X251.368 Y175.921 E35.62699
G1 X250.999 Y176.241 E35.67898
G1 X250.261 Y176.856 E35.78122
G1 X248.385 Y178.509 E36.04734
G1 X246.565 Y180.207 E36.31226
G1 X244.81 Y181.94 E36.57477
G1 X243.066 Y183.762 E36.84321
G1 X241.396 Y185.609 E37.10823
G1 X239.795 Y187.483 E37.37056
G1 X238.052 Y189.65 E37.66655
G1 X237.79 Y189.987 E37.71198
G1 X237.675 Y190.132 E37.73168
G1 X236.748 Y191.285 E37.88914
G1 X236.635 Y191.423 E37.90812
G1 X235.662 Y192.597 E38.07041
G1 X235.547 Y192.734 E38.08945
G1 X234.592 Y193.852 E38.24594
G1 X234.47 Y193.994 E38.26587
G1 X233.465 Y195.134 E38.42762
G1 X233.352 Y195.26 E38.44563
G1 X232.367 Y196.346 E38.60168
G1 X232.246 Y196.476 E38.62058
G1 X231.222 Y197.572 E38.78022
G1 X231.098 Y197.704 E38.7995
G1 X230.058 Y198.784 E38.95908
G1 X229.931 Y198.913 E38.97834
G1 X228.881 Y199.971 E39.13699
G1 X228.753 Y200.098 E39.15618
G1 X227.676 Y201.151 E39.31649
G1 X227.545 Y201.278 E39.33591
G1 X226.499 Y202.27 E39.48934
G1 X226.37 Y202.39 E39.5081
G1 X225.22 Y203.449 E39.67449
G1 X225.088 Y203.569 E39.69347
G1 X224.015 Y204.528 E39.84664
G1 X223.881 Y204.646 E39.86564
G1 X222.704 Y205.667 E40.03148
G1 X222.566 Y205.785 E40.0508
G1 X221.495 Y206.686 E40.19976
G1 X221.356 Y206.801 E40.21897
G1 X220.15 Y207.785 E40.38463
G1 X220.015 Y207.893 E40.40303
G1 X218.87 Y208.8 E40.55849
G1 X218.713 Y208.923 E40.57972
G1 X217.489 Y209.86 E40.74378
G1 X217.359 Y209.958 E40.76111
G1 X216.198 Y210.822 E40.91514
G1 X216.051 Y210.93 E40.93456
G1 X214.837 Y211.805 E41.09383
G1 X214.692 Y211.908 E41.11276
G1 X213.458 Y212.77 E41.27297
G1 X213.316 Y212.867 E41.29127
G1 X212.079 Y213.705 E41.45029
G1 X211.916 Y213.813 E41.47111
G1 X210.665 Y214.631 E41.63019
G1 X210.52 Y214.725 E41.64858
G1 X209.251 Y215.529 E41.80847
G1 X209.105 Y215.62 E41.82678
G1 X207.86 Y216.384 E41.98225
G1 X207.705 Y216.478 E42.00154
G1 X206.415 Y217.243 E42.16117
G1 X206.259 Y217.334 E42.18039
G1 X204.948 Y218.085 E42.34119
G1 X204.795 Y218.171 E42.35988
G1 X201.553 Y219.966 E42.75429
G1 X199.393 Y221.238 E43.02108
G1 X197.287 Y222.557 E43.28556
G1 X195.242 Y223.922 E43.54725
G1 X193.164 Y225.395 E43.81834
G1 X191.197 Y226.874 E44.08027
G1 X189.271 Y228.41 E44.34247
G1 X188.786 Y228.82 E44.41006
G1 X188.653 Y228.931 E44.4285
G1 X187.962 Y229.498 E44.52364
G1 X187.424 Y229.914 E44.59602
G1 X187.239 Y230.049 E44.62039
G1 X186.424 Y230.594 E44.72474
G1 X185.359 Y231.174 E44.85381
G1 X185.107 Y231.295 E44.88356
G1 X184.208 Y231.682 E44.98774
G1 X183.279 Y231.995 E45.09207
G1 X182.674 Y232.155 E45.15868
G1 X182.471 Y232.203 E45.18088
G1 X181.51 Y232.389 E45.28506
G1 X180.536 Y232.497 E45.38936
G1 X179.557 Y232.524 E45.4936
G1 X179.032 Y232.506 E45.54951
G1 X178.308 Y232.465 E45.62669
G1 X177.648 Y232.409 E45.69719
G1 X175.694 Y232.19 E45.90646
G1 X173.229 Y231.984 E46.16973
G1 X170.73 Y231.846 E46.43611
G1 X168.229 Y231.778 E46.70239
G1 X165.762 Y231.782 E46.96496
G1 X163.262 Y231.856 E47.23116
G1 X160.739 Y232.003 E47.50014
G1 X160.105 Y232.055 E47.56785
G1 X160.035 Y232.061 E47.57533
G1 X157.819 Y232.231 E47.81187
G1 X157.639 Y232.243 E47.83107
G1 X156.097 Y232.338 E47.9955
G1 X155.91 Y232.348 E48.01544
G1 X154.344 Y232.42 E48.18228
G1 X154.161 Y232.427 E48.20178
G1 X152.662 Y232.473 E48.36139
G1 X152.479 Y232.478 E48.38088
G1 X150.991 Y232.501 E48.53927
G1 X150.814 Y232.502 E48.55811
G1 X149.288 Y232.503 E48.72052
G1 X149.106 Y232.502 E48.73989
G1 X147.523 Y232.479 E48.90839
G1 X147.336 Y232.475 E48.9283
G1 X145.876 Y232.431 E49.08376
G1 X145.689 Y232.423 E49.10368
G1 X144.137 Y232.352 E49.26904
G1 X143.958 Y232.343 E49.28812
G1 X142.426 Y232.25 E49.45147
G1 X142.24 Y232.237 E49.47132
G1 X138.554 Y231.956 E49.86476
G1 X136.031 Y231.829 E50.13363
G1 X133.571 Y231.776 E50.39552
G1 X131.071 Y231.792 E50.6616
G1 X128.561 Y231.88 E50.92891
G1 X126.131 Y232.033 E51.18806
G1 X122.697 Y232.363 E51.55523
G1 X121.971 Y232.447 E51.63301
G1 X120.995 Y232.519 E51.73717
G1 X120.359 Y232.524 E51.80487
G1 X120.006 Y232.517 E51.84245
G1 X119.028 Y232.457 E51.94673
G1 X118.059 Y232.318 E52.05092
G1 X117.041 Y232.084 E52.1621
G1 X116.846 Y232.03 E52.18363
G1 X115.914 Y231.73 E52.28784
G1 X115.009 Y231.355 E52.3921
G1 X113.851 Y230.741 E52.5316
G1 X113.468 Y230.51 E52.57921
G1 X112.651 Y229.97 E52.68344
G1 X112.119 Y229.563 E52.75473
G1 X111.852 Y229.347 E52.79128
G1 X111.714 Y229.235 E52.8102
G1 X110.311 Y228.065 E53.00463
G1 X108.383 Y226.548 E53.26574
G1 X106.391 Y225.068 E53.52987
G1 X104.352 Y223.641 E53.79475
G1 X102.25 Y222.257 E54.06261
G1 X100.144 Y220.956 E54.32608
G1 X97.953 Y219.686 E54.59561
G1 X97.21 Y219.279 E54.68578
G1 X97.166 Y219.255 E54.69111
G1 X95.261 Y218.201 E54.92283
G1 X95.112 Y218.118 E54.94098
G1 X93.771 Y217.351 E55.10541
G1 X93.616 Y217.26 E55.12454
G1 X92.393 Y216.536 E55.2758
G1 X92.232 Y216.439 E55.29581
G1 X90.887 Y215.614 E55.46374
G1 X90.75 Y215.529 E55.4809
G1 X89.508 Y214.744 E55.63728
G1 X89.344 Y214.638 E55.65807
G1 X88.115 Y213.833 E55.81443
G1 X87.971 Y213.737 E55.83285
G1 X86.737 Y212.903 E55.99137
G1 X86.589 Y212.802 E56.01044
G1 X85.338 Y211.929 E56.17281
G1 X85.196 Y211.828 E56.19135
G1 X84.044 Y210.999 E56.34241
G1 X83.891 Y210.887 E56.36259
G1 X82.626 Y209.946 E56.53039
G1 X82.491 Y209.844 E56.5484
G1 X81.32 Y208.947 E56.7054
G1 X81.174 Y208.834 E56.72505
G1 X80.032 Y207.931 E56.88
G1 X79.889 Y207.816 E56.89953
G1 X78.678 Y206.828 E57.06587
G1 X78.543 Y206.716 E57.08454
G1 X77.465 Y205.81 E57.23442
G1 X77.33 Y205.695 E57.25329
G1 X76.166 Y204.687 E57.41718
G1 X76.024 Y204.562 E57.43731
G1 X74.919 Y203.574 E57.59507
G1 X74.793 Y203.46 E57.61316
G1 X73.645 Y202.404 E57.77917
G1 X73.506 Y202.274 E57.79943
G1 X72.494 Y201.313 E57.94797
G1 X72.378 Y201.202 E57.96505
G1 X71.285 Y200.136 E58.12755
G1 X71.147 Y199.998 E58.14832
G1 X70.096 Y198.939 E58.30712
G1 X69.974 Y198.815 E58.32564
G1 X68.952 Y197.755 E58.48235
G1 X68.831 Y197.627 E58.5011
G1 X67.79 Y196.515 E58.66322
G1 X67.666 Y196.38 E58.68273
G1 X66.66 Y195.272 E58.84201
G1 X66.544 Y195.143 E58.86048
G1 X65.558 Y194.025 E59.01913
G1 X65.435 Y193.884 E59.03905
G1 X64.46 Y192.743 E59.19878
G1 X64.351 Y192.613 E59.21684
G1 X63.431 Y191.505 E59.37012
G1 X63.312 Y191.36 E59.39008
G1 X62.33 Y190.139 E59.55685
G1 X62.221 Y190.001 E59.57557
G1 X61.943 Y189.645 E59.62364
G1 X60.348 Y187.659 E59.89475
G1 X58.718 Y185.744 E60.1624
G1 X57.073 Y183.916 E60.42414
G1 X55.33 Y182.088 E60.69297
G1 X53.572 Y180.345 E60.95645
G1 X51.768 Y178.656 E61.21947
G1 X49.897 Y177.002 E61.48526
G1 X49.586 Y176.742 E61.52841
G1 X49.452 Y176.629 E61.54706
G1 X48.411 Y175.735 E61.69311
G1 X47.448 Y174.81 E61.83523
G1 X47.285 Y174.635 E61.86068
G1 X46.647 Y173.891 E61.965
G1 X46.072 Y173.098 E62.06925
G1 X45.564 Y172.261 E62.17346
G1 X45.24 Y171.632 E62.24876
G1 X45.054 Y171.243 E62.29465
G1 X44.668 Y170.343 E62.39888
G1 X44.356 Y169.414 E62.50318
G1 X44.122 Y168.463 E62.60742
G1 X43.956 Y167.418 E62.72004
G1 X43.916 Y167.065 E62.75785
G1 X43.846 Y166.088 E62.8621
G1 X43.864 Y164.951 E62.98313
G1 X43.911 Y164.219 E63.0612
G1 X44.042 Y161.622 E63.33795
G1 X44.097 Y159.157 E63.60037
G1 X44.082 Y156.629 E63.86944
G1 X44.029 Y154.832 E64.06078
G1 X44.04 Y153.852 E64.16509
G1 X44.131 Y152.877 E64.26932
G1 X44.302 Y151.912 E64.37362
G1 X44.55 Y150.965 E64.47781
G1 X44.787 Y150.269 E64.55607
G1 X44.87 Y150.047 E64.58129
G1 X45.782 Y147.525 E64.86673
G1 X46.548 Y145.201 E65.12717
G1 X47.268 Y142.794 E65.39456
G1 X47.906 Y140.415 E65.65671
G1 X48.487 Y137.976 E65.92357
G1 X48.999 Y135.523 E66.19027
G1 X49.433 Y133.084 E66.45394
G1 X49.801 Y130.636 E66.71741
G1 X50.1 Y128.163 E66.98254
G1 X50.332 Y125.661 E67.24997
G1 X50.49 Y123.2 E67.51244
G1 X50.58 Y120.694 E67.77933
G1 X50.6 Y118.81 E67.97986
G1 X50.6 Y78.788 E72.2395
G1 X50.601 Y78.608 E72.25866
G1 X50.611 Y77.943 E72.32945
G1 X50.666 Y76.965 E72.4337
G1 X50.8 Y75.994 E72.53803
G1 X51.013 Y75.038 E72.64227
G1 X51.304 Y74.102 E72.7466
G1 X51.669 Y73.194 E72.85075
G1 X52.108 Y72.318 E72.95504
G1 X52.616 Y71.48 E73.05934
G1 X53.191 Y70.687 E73.16359
G1 X53.829 Y69.944 E73.26782
G1 X54.526 Y69.255 E73.37213
G1 X55.276 Y68.625 E73.47638
G0 F6000 X56.048 Y69.047
G1 F900 X56.837 Y68.525 E73.57707
G1 X57.668 Y68.072 E73.67781
G1 X58.534 Y67.691 E73.7785
G1 X59.43 Y67.384 E73.87931
G1 X60.347 Y67.154 E73.97993
G1 X61.282 Y67.002 E74.08075
G1 X62.295 Y66.927 E74.18886
G1 X62.615 Y66.918 E74.22294
G1 X62.93 Y66.914 E74.25646
G1 X64.293 Y66.914 E74.40153
G1 X64.453 Y66.915 E74.41856
G1 X65.155 Y66.925 E74.49328
G1 X66.099 Y66.979 E74.59392
G1 X67.036 Y67.112 E74.69465
G1 X67.959 Y67.323 E74.79542
G1 X68.86 Y67.612 E74.89613
G1 X69.734 Y67.976 E74.99689
G1 X70.573 Y68.412 E75.09753
G1 X71.373 Y68.918 E75.19828
G1 X72.128 Y69.489 E75.29903
G1 X72.831 Y70.122 E75.39971
G1 X73.479 Y70.812 E75.50046
G1 X74.066 Y71.554 E75.60115
G1 X74.444 Y72.11 E75.67271
G1 X75.059 Y73.076 E75.79459
G1 X76.476 Y75.236 E76.06954
G1 X77.893 Y77.264 E76.33285
G1 X79.405 Y79.308 E76.60345
G1 X80.961 Y81.29 E76.87164
G1 X82.555 Y83.205 E77.13683
G1 X84.211 Y85.083 E77.40332
G1 X85.939 Y86.937 E77.67307
G1 X87.696 Y88.716 E77.93919
G1 X89.493 Y90.437 E78.20401
G1 X91.373 Y92.137 E78.47378
G1 X93.295 Y93.779 E78.74283
G1 X95.244 Y95.353 E79.00946
G1 X97.234 Y96.865 E79.27546
G1 X99.278 Y98.332 E79.54324
G1 X101.339 Y99.723 E79.80789
G1 X103.508 Y101.1 E80.08133
G1 X105.618 Y102.357 E80.34273
G1 X107.825 Y103.588 E80.6117
G1 X110.063 Y104.756 E80.88038
G1 X112.316 Y105.851 E81.147
G1 X114.6 Y106.883 E81.41375
G1 X116.977 Y107.877 E81.68797
G1 X119.238 Y108.746 E81.94577
G1 X121.65 Y109.597 E82.218
G1 X124.036 Y110.364 E82.48475
G1 X126.427 Y111.059 E82.74976
