;FLAVOR:Marlin
;TIME:3934
;Filament used: 8.67995m
;Layer height: 0.4
;MINX:50.708
;MINY:73.014
;MINZ:0.4
;MAXX:249.298
;MAXY:225.703
;MAXZ:13.2
;Generated with Cura_SteamEngine 4.4.1
M105
M109 S0
M82 ;absolute extrusion mode
; ConnectedFab START code
M140 S75		; set bed temperature to the minimum that will ever be used by a print
M104 S140		; set hotend temperature just to soften filament
G90				; set all axes to absolute positioning
M107			; turn off fans
M302 S120		; Allow extrusion at soften temperature
G92 E0			; reset extruder position
M109 R140		; wait for hotend temperature
G1 E-100		; retract filament to prevent oozing
M400			; wait for movements to finish
M190 R75		; wait for bed temperature

G28				; home
G1 X0 Y0		; move away from a likely print start position to protect area
G1 Z50			; raise hotend to allow for manipulation while heating if necessary
M501			; Recall saved configuration from eeprom
M420 S1			; Enable ABL with saved Mesh

M109 R245		; wait for print temperature
G1 E5			; feed filament back into the nozzle
G0 Z0.4	; position nozzle at layer 1 height
G92 E0
G92 E0
G1 F2400 E-5
;LAYER_COUNT:33
;LAYER:0
M107
G0 F6000 X59.308 Y74.154 Z0.4
;TYPE:SKIRT
G1 F2400 E-0.08315
G1 F1500 X59.828 Y73.785 E-0.01953
G1 X60.392 Y73.484 E0.04426
G1 X60.988 Y73.255 E0.10797
G1 X61.608 Y73.103 E0.17166
G1 X62.367 Y73.025 E0.2478
G1 X62.687 Y73.016 E0.27974
G1 X62.83 Y73.014 E0.29401
G1 X64.293 Y73.014 E0.43999
G1 X64.366 Y73.015 E0.44727
G1 X65.068 Y73.025 E0.51733
G1 X65.704 Y73.074 E0.58097
G1 X66.33 Y73.202 E0.64473
G1 X66.934 Y73.407 E0.70837
G1 X67.508 Y73.686 E0.77205
G1 X68.043 Y74.035 E0.83579
G1 X68.53 Y74.448 E0.8995
G1 X68.962 Y74.918 E0.9632
G1 X69.297 Y75.386 E1.02063
G1 X69.905 Y76.341 E1.13359
G1 X71.423 Y78.654 E1.40965
G1 X72.953 Y80.845 E1.6763
G1 X74.556 Y83.011 E1.94517
G1 X76.201 Y85.107 E2.21103
G1 X77.923 Y87.175 E2.47955
G1 X79.696 Y89.186 E2.74706
G1 X81.518 Y91.14 E3.01364
G1 X83.431 Y93.079 E3.28542
G1 X85.35 Y94.915 E3.55042
G1 X87.341 Y96.717 E3.81837
G1 X89.381 Y98.459 E4.08604
G1 X91.484 Y100.157 E4.35574
G1 X93.599 Y101.764 E4.62078
G1 X95.804 Y103.346 E4.89156
G1 X98.006 Y104.833 E5.15669
G1 X100.285 Y106.279 E5.426
G1 X102.595 Y107.656 E5.69433
G1 X104.917 Y108.951 E5.95962
G1 X107.329 Y110.209 E6.23106
G1 X109.724 Y111.375 E6.49685
G1 X112.173 Y112.48 E6.76493
G1 X114.687 Y113.532 E7.03686
G1 X117.153 Y114.48 E7.30047
G1 X119.681 Y115.371 E7.56793
G1 X122.216 Y116.187 E7.83365
G1 X124.827 Y116.945 E8.10493
G1 X127.412 Y117.618 E8.37146
G1 X130.075 Y118.232 E8.64415
G1 X132.641 Y118.744 E8.90523
G1 X135.33 Y119.205 E9.17746
G1 X137.975 Y119.581 E9.44403
G1 X140.603 Y119.879 E9.70793
G1 X143.319 Y120.111 E9.97992
G1 X145.99 Y120.261 E10.24686
G1 X148.672 Y120.337 E10.51458
G1 X151.353 Y120.337 E10.78209
G1 X154.03 Y120.261 E11.04931
G1 X156.713 Y120.108 E11.31745
G1 X159.421 Y119.878 E11.58863
G1 X162.044 Y119.58 E11.85204
G1 X164.701 Y119.201 E12.11984
G1 X167.38 Y118.742 E12.39105
G1 X169.997 Y118.216 E12.65739
G1 X172.592 Y117.62 E12.92307
G1 X175.173 Y116.948 E13.18918
G1 X177.819 Y116.179 E13.46413
G1 X180.332 Y115.37 E13.72755
G1 X182.853 Y114.48 E13.99431
G1 X185.395 Y113.501 E14.26611
G1 X187.835 Y112.479 E14.53007
G1 X190.285 Y111.373 E14.79829
G1 X192.711 Y110.194 E15.06743
G1 X195.086 Y108.954 E15.33476
G1 X197.446 Y107.636 E15.60448
G1 X199.73 Y106.275 E15.86977
G1 X202.031 Y104.814 E16.14173
G1 X204.227 Y103.33 E16.40619
G1 X206.406 Y101.767 E16.67376
G1 X208.546 Y100.138 E16.94212
G1 X210.62 Y98.466 E17.20794
G1 X212.695 Y96.692 E17.48034
G1 X214.652 Y94.921 E17.74369
G1 X216.597 Y93.059 E18.01236
G1 X218.509 Y91.122 E18.28394
G1 X220.321 Y89.177 E18.54918
G1 X222.097 Y87.16 E18.81733
G1 X223.809 Y85.101 E19.08452
G1 X225.461 Y82.999 E19.35128
G1 X227.061 Y80.837 E19.61966
G1 X228.615 Y78.609 E19.8907
G1 X230.067 Y76.396 E20.1548
G1 X230.631 Y75.495 E20.26087
G1 X230.754 Y75.308 E20.2832
G1 X230.807 Y75.231 E20.29253
G1 X231.201 Y74.729 E20.3562
G1 X231.655 Y74.28 E20.41992
G1 X232.161 Y73.891 E20.4836
G1 X232.712 Y73.569 E20.54728
G1 X233.299 Y73.318 E20.61098
G1 X233.913 Y73.142 E20.67471
G1 X234.544 Y73.044 E20.73843
G1 X234.866 Y73.025 E20.77061
G1 X235.188 Y73.016 E20.80276
G1 X235.33 Y73.014 E20.81693
G1 X236.859 Y73.014 E20.96949
G1 X237.557 Y73.023 E21.03914
G1 X238.193 Y73.072 E21.10279
G1 X238.819 Y73.199 E21.16653
G1 X239.424 Y73.403 E21.23023
G1 X239.998 Y73.682 E21.29391
G1 X240.534 Y74.03 E21.35768
G1 X241.021 Y74.442 E21.42133
G1 X241.453 Y74.912 E21.48503
G1 X241.823 Y75.432 E21.54871
G1 X242.126 Y75.995 E21.6125
G1 X242.355 Y76.59 E21.67612
G1 X242.509 Y77.21 E21.73986
G1 X242.589 Y77.98 E21.81711
G1 X242.598 Y78.301 E21.84915
G1 X242.6 Y78.444 E21.86342
G1 X242.6 Y118.86 E25.89614
G1 X242.638 Y121.541 E26.16368
G1 X242.752 Y124.218 E26.43103
G1 X242.942 Y126.9 E26.69932
G1 X243.206 Y129.563 E26.96633
G1 X243.549 Y132.247 E27.23632
G1 X243.964 Y134.887 E27.50298
G1 X244.453 Y137.518 E27.77
G1 X245.022 Y140.161 E28.03976
G1 X245.65 Y142.723 E28.30296
G1 X246.378 Y145.371 E28.57698
G1 X247.155 Y147.909 E28.84183
G1 X248.006 Y150.431 E29.10742
G1 X248.843 Y152.708 E29.34948
G1 X249.025 Y153.32 E29.41319
G1 X249.13 Y153.95 E29.47692
G1 X249.155 Y154.568 E29.53863
G1 X249.127 Y155.993 E29.68085
G1 X249.126 Y156.044 E29.68594
G1 X249.11 Y156.601 E29.74154
G1 X249.079 Y159.331 E30.01395
G1 X249.124 Y161.977 E30.27801
G1 X249.294 Y165.435 E30.62347
G1 X249.298 Y165.819 E30.66179
G1 X249.292 Y166.048 E30.68464
G1 X249.236 Y166.683 E30.74825
G1 X249.172 Y167.023 E30.78277
G1 X249.123 Y167.243 E30.80526
G1 X248.945 Y167.856 E30.86895
G1 X248.79 Y168.239 E30.91018
G1 X248.679 Y168.484 E30.93702
G1 X248.38 Y169.048 E31.00071
G1 X247.997 Y169.589 E31.06685
G1 X247.788 Y169.847 E31.09998
G1 X247.356 Y170.317 E31.16368
G1 X247.118 Y170.531 E31.19562
G1 X245.645 Y171.776 E31.38806
G1 X243.603 Y173.596 E31.66099
G1 X241.665 Y175.424 E31.92682
G1 X239.781 Y177.307 E32.1926
G1 X237.932 Y179.26 E32.46095
G1 X236.124 Y181.281 E32.73153
G1 X234.396 Y183.329 E32.9989
G1 X232.878 Y185.227 E33.2414
G1 X232.45 Y185.777 E33.31094
G1 X232.402 Y185.837 E33.31861
G1 X231.487 Y186.977 E33.46447
G1 X231.439 Y187.037 E33.47213
G1 X230.449 Y188.233 E33.62705
G1 X230.399 Y188.292 E33.63477
G1 X229.427 Y189.431 E33.78418
G1 X229.375 Y189.491 E33.7921
G1 X228.421 Y190.574 E33.93611
G1 X228.373 Y190.628 E33.94332
G1 X227.347 Y191.76 E34.09576
G1 X227.294 Y191.817 E34.10352
G1 X226.268 Y192.915 E34.25347
G1 X226.216 Y192.97 E34.26102
G1 X225.207 Y194.018 E34.40618
G1 X225.154 Y194.073 E34.4138
G1 X224.049 Y195.187 E34.57037
G1 X223.995 Y195.24 E34.57792
G1 X222.969 Y196.244 E34.72115
G1 X222.914 Y196.297 E34.72877
G1 X221.802 Y197.353 E34.88179
G1 X221.745 Y197.407 E34.88962
G1 X220.646 Y198.419 E35.03869
G1 X220.589 Y198.47 E35.04632
G1 X219.479 Y199.462 E35.19486
G1 X219.421 Y199.513 E35.20257
G1 X218.297 Y200.487 E35.35097
G1 X218.24 Y200.536 E35.35847
G1 X217.074 Y201.517 E35.51052
G1 X217.019 Y201.563 E35.51767
G1 X215.88 Y202.494 E35.66446
G1 X215.818 Y202.543 E35.67234
G1 X214.655 Y203.464 E35.82037
G1 X214.591 Y203.514 E35.82847
G1 X213.397 Y204.429 E35.97857
G1 X213.34 Y204.473 E35.98575
G1 X212.105 Y205.392 E36.13936
G1 X212.041 Y205.438 E36.14722
G1 X210.896 Y206.263 E36.28804
G1 X210.836 Y206.305 E36.29535
G1 X209.531 Y207.217 E36.45421
G1 X209.467 Y207.261 E36.46195
G1 X208.265 Y208.074 E36.60675
G1 X208.204 Y208.115 E36.61408
G1 X206.953 Y208.935 E36.76333
G1 X206.887 Y208.978 E36.77119
G1 X205.607 Y209.789 E36.92239
G1 X205.541 Y209.83 E36.93014
G1 X204.292 Y210.595 E37.07629
G1 X204.23 Y210.633 E37.08354
G1 X202.93 Y211.404 E37.23436
G1 X202.86 Y211.444 E37.2424
G1 X201.549 Y212.194 E37.39311
G1 X201.485 Y212.23 E37.40043
G1 X197.827 Y214.253 E37.81753
G1 X195.512 Y215.618 E38.08568
G1 X193.233 Y217.052 E38.35435
G1 X191.001 Y218.546 E38.62235
G1 X188.822 Y220.095 E38.88911
G1 X186.677 Y221.713 E39.1572
G1 X184.021 Y223.852 E39.49748
G1 X183.61 Y224.195 E39.55089
G1 X183.296 Y224.437 E39.59045
G1 X183.127 Y224.557 E39.61113
G1 X182.421 Y224.977 E39.6931
G1 X182.201 Y225.085 E39.71755
G1 X181.612 Y225.33 E39.7812
G1 X181.256 Y225.438 E39.81832
G1 X181.059 Y225.49 E39.83865
G1 X180.19 Y225.641 E39.92666
G1 X179.979 Y225.659 E39.94779
G1 X179.047 Y225.652 E40.04079
G1 X177.98 Y225.547 E40.14777
G1 X177.902 Y225.539 E40.15559
G1 X176.788 Y225.412 E40.26747
G1 X174.093 Y225.184 E40.53734
G1 X171.413 Y225.032 E40.80518
G1 X168.733 Y224.956 E41.0727
G1 X166.05 Y224.956 E41.34041
G1 X163.37 Y225.032 E41.60793
G1 X160.657 Y225.186 E41.87907
G1 X159.121 Y225.31 E42.03283
G1 X159.1 Y225.312 E42.03493
G1 X157.278 Y225.452 E42.21727
G1 X157.2 Y225.457 E42.22507
G1 X155.686 Y225.55 E42.37642
G1 X155.607 Y225.555 E42.38432
G1 X154.02 Y225.628 E42.54284
G1 X153.942 Y225.631 E42.55063
G1 X152.44 Y225.677 E42.70057
G1 X152.364 Y225.678 E42.70815
G1 X150.907 Y225.701 E42.85355
G1 X150.83 Y225.702 E42.86123
G1 X149.28 Y225.703 E43.01589
G1 X149.202 Y225.702 E43.02368
G1 X147.632 Y225.679 E43.18035
G1 X147.554 Y225.678 E43.18813
G1 X146.084 Y225.634 E43.33487
G1 X146.005 Y225.631 E43.34276
G1 X144.466 Y225.561 E43.49648
G1 X144.389 Y225.557 E43.50418
G1 X142.857 Y225.464 E43.65732
G1 X142.774 Y225.458 E43.66562
G1 X138.628 Y225.139 E44.08054
G1 X135.937 Y225.005 E44.34938
G1 X133.255 Y224.948 E44.61705
G1 X130.574 Y224.966 E44.88457
G1 X127.897 Y225.061 E45.15185
G1 X125.185 Y225.234 E45.423
G1 X122.545 Y225.478 E45.68755
G1 X121.207 Y225.631 E45.82192
G1 X120.716 Y225.663 E45.87102
G1 X120.429 Y225.668 E45.89966
G1 X119.791 Y225.639 E45.96338
G1 X119.163 Y225.531 E46.02697
G1 X118.834 Y225.453 E46.0607
G1 X118.224 Y225.268 E46.12431
G1 X117.681 Y225.028 E46.18355
G1 X117.461 Y224.915 E46.20822
G1 X116.912 Y224.588 E46.27198
G1 X116.619 Y224.371 E46.30836
G1 X116.006 Y223.884 E46.38648
G1 X115.917 Y223.812 E46.39791
G1 X114.767 Y222.856 E46.54712
G1 X112.64 Y221.185 E46.81702
G1 X110.525 Y219.621 E47.07949
G1 X108.277 Y218.052 E47.35302
G1 X106.065 Y216.6 E47.61704
G1 X103.751 Y215.174 E47.88825
G1 X101.412 Y213.822 E48.15783
G1 X99.889 Y212.99 E48.33099
G1 X99.865 Y212.977 E48.33371
G1 X98.525 Y212.236 E48.4865
G1 X98.46 Y212.2 E48.49391
G1 X97.212 Y211.486 E48.63738
G1 X97.15 Y211.449 E48.64458
G1 X95.834 Y210.671 E48.79712
G1 X95.764 Y210.629 E48.80527
G1 X94.49 Y209.848 E48.95437
G1 X94.429 Y209.81 E48.96155
G1 X93.158 Y209.006 E49.11161
G1 X93.09 Y208.962 E49.11969
G1 X91.835 Y208.14 E49.26939
G1 X91.774 Y208.1 E49.27666
G1 X90.566 Y207.284 E49.42212
G1 X90.503 Y207.241 E49.42973
G1 X89.22 Y206.346 E49.58582
G1 X89.157 Y206.301 E49.59355
G1 X87.98 Y205.453 E49.7383
G1 X87.919 Y205.409 E49.7458
G1 X86.705 Y204.507 E49.89671
G1 X86.644 Y204.46 E49.90439
G1 X85.448 Y203.543 E50.05477
G1 X85.386 Y203.495 E50.06259
G1 X84.241 Y202.589 E50.20828
G1 X84.185 Y202.544 E50.21545
G1 X82.976 Y201.559 E50.37105
G1 X82.915 Y201.509 E50.37892
G1 X81.829 Y200.596 E50.52049
G1 X81.77 Y200.545 E50.52827
G1 X80.595 Y199.526 E50.68346
G1 X80.538 Y199.476 E50.69103
G1 X79.459 Y198.512 E50.8354
G1 X79.406 Y198.464 E50.84254
G1 X78.282 Y197.431 E50.99486
G1 X78.223 Y197.376 E51.00291
G1 X77.148 Y196.356 E51.15077
G1 X77.094 Y196.304 E51.15825
G1 X76.001 Y195.236 E51.31073
G1 X75.945 Y195.18 E51.31863
G1 X74.925 Y194.152 E51.46313
G1 X74.873 Y194.099 E51.47054
G1 X73.808 Y192.994 E51.62367
G1 X73.754 Y192.937 E51.63151
G1 X72.739 Y191.851 E51.77983
G1 X72.689 Y191.798 E51.7871
G1 X71.691 Y190.699 E51.93523
G1 X71.64 Y190.641 E51.94293
G1 X70.641 Y189.507 E52.09373
G1 X70.591 Y189.45 E52.10129
G1 X69.649 Y188.348 E52.24595
G1 X69.599 Y188.288 E52.25374
G1 X68.592 Y187.073 E52.4112
G1 X68.544 Y187.014 E52.41879
G1 X67.615 Y185.858 E52.56677
G1 X67.569 Y185.8 E52.57416
G1 X67.12 Y185.224 E52.64703
G1 X65.408 Y183.093 E52.91978
G1 X63.682 Y181.065 E53.1855
G1 X61.879 Y179.063 E53.45433
G1 X60.006 Y177.098 E53.7252
G1 X58.124 Y175.231 E53.98971
G1 X56.155 Y173.388 E54.25882
G1 X54.146 Y171.612 E54.52638
G1 X53.837 Y171.353 E54.56661
G1 X53.79 Y171.313 E54.57276
G1 X52.845 Y170.501 E54.69708
G1 X52.388 Y170.056 E54.76073
G1 X52.096 Y169.702 E54.80652
G1 X51.876 Y169.41 E54.843
G1 X51.524 Y168.877 E54.90673
G1 X51.256 Y168.337 E54.96689
G1 X51.148 Y168.083 E54.99443
G1 X50.935 Y167.481 E55.05814
G1 X50.765 Y166.585 E55.14914
G1 X50.725 Y166.177 E55.19005
G1 X50.708 Y165.412 E55.2664
G1 X50.856 Y162.587 E55.54866
G1 X50.921 Y159.877 E55.81915
G1 X50.907 Y157.183 E56.08796
G1 X50.865 Y155.618 E56.24417
G1 X50.832 Y154.691 E56.33673
G1 X50.85 Y154.053 E56.40041
G1 X50.947 Y153.422 E56.46411
G1 X51.156 Y152.715 E56.53767
G1 X51.262 Y152.433 E56.56773
G1 X52.208 Y149.816 E56.8454
G1 X53.031 Y147.318 E57.10783
G1 X53.811 Y144.706 E57.37983
G1 X54.5 Y142.136 E57.64532
G1 X55.123 Y139.518 E57.91384
G1 X55.672 Y136.89 E58.18172
G1 X56.146 Y134.23 E58.45132
G1 X56.539 Y131.612 E58.71547
G1 X56.865 Y128.92 E58.98604
G1 X57.108 Y126.289 E59.24968
G1 X57.282 Y123.575 E59.52104
G1 X57.378 Y120.893 E59.78882
G1 X57.4 Y118.802 E59.99748
G1 X57.4 Y78.788 E63.99009
G1 X57.401 Y78.711 E63.99777
G1 X57.411 Y78.046 E64.06413
G1 X57.46 Y77.41 E64.12778
G1 X57.589 Y76.784 E64.19156
G1 X57.795 Y76.18 E64.25523
G1 X58.074 Y75.606 E64.31891
G1 X58.423 Y75.072 E64.38257
G1 X58.837 Y74.585 E64.44635
G1 X59.308 Y74.154 E64.51005
G0 F6000 X59.887 Y74.466
G1 F1500 X60.397 Y74.15 E64.56991
G1 X60.944 Y73.904 E64.62976
G1 X61.518 Y73.734 E64.68949
G1 X62.383 Y73.625 E64.77649
G1 X62.703 Y73.616 E64.80843
G1 X62.83 Y73.614 E64.8211
G1 X64.357 Y73.614 E64.97347
G1 X65.059 Y73.624 E65.04352
G1 X65.657 Y73.673 E65.10339
G1 X66.243 Y73.8 E65.16322
G1 X66.807 Y74.005 E65.2231
G1 X67.338 Y74.282 E65.28285
G1 X67.828 Y74.628 E65.34271
G1 X68.268 Y75.036 E65.40258
G1 X68.791 Y75.708 E65.48755
G1 X69.403 Y76.67 E65.60131
G1 X70.917 Y78.977 E65.87665
G1 X72.467 Y81.197 E66.14681
G1 X74.061 Y83.351 E66.41419
G1 X75.758 Y85.512 E66.68835
G1 X77.47 Y87.568 E66.95531
G1 X79.249 Y89.587 E67.22382
G1 X81.093 Y91.565 E67.49364
G1 X82.978 Y93.475 E67.76141
G1 X84.957 Y95.369 E68.03474
G1 X86.954 Y97.175 E68.3034
G1 X89.002 Y98.924 E68.57212
G1 X91.115 Y100.63 E68.8431
G1 X93.251 Y102.254 E69.11084
G1 X95.427 Y103.815 E69.37805
G1 X97.699 Y105.348 E69.65153
G1 X99.955 Y106.781 E69.91821
G1 X102.305 Y108.181 E70.19115
G1 X104.644 Y109.486 E70.4584
G1 X107.042 Y110.737 E70.72828
G1 X109.483 Y111.924 E70.99911
G1 X111.947 Y113.037 E71.26889
G1 X114.44 Y114.079 E71.5385
G1 X116.929 Y115.036 E71.80457
G1 X119.498 Y115.942 E72.07638
G1 X122.086 Y116.775 E72.34766
G1 X124.645 Y117.518 E72.61355
G1 X127.272 Y118.202 E72.88441
G1 X129.927 Y118.814 E73.15627
G1 X132.567 Y119.341 E73.42489
G1 X135.213 Y119.795 E73.69277
G1 X137.893 Y120.176 E73.96287
G1 X140.555 Y120.478 E74.23019
G1 X143.27 Y120.709 E74.50207
G1 X145.975 Y120.861 E74.7724
G1 X148.655 Y120.937 E75.03992
G1 X151.37 Y120.937 E75.31082
G1 X154.046 Y120.861 E75.57794
G1 X156.76 Y120.707 E75.84918
G1 X159.469 Y120.476 E76.12047
G1 X162.126 Y120.174 E76.38729
G1 X164.817 Y119.791 E76.65851
G1 X167.461 Y119.337 E76.92619
G1 X170.112 Y118.805 E77.19598
G1 X172.733 Y118.203 E77.46431
G1 X175.389 Y117.511 E77.73818
G1 X177.95 Y116.767 E78.00428
G1 X180.515 Y115.941 E78.27316
G1 X183.089 Y115.033 E78.54551
G1 X185.59 Y114.069 E78.81295
G1 X188.103 Y113.017 E79.08479
G1 X190.541 Y111.916 E79.35171
G1 X192.968 Y110.736 E79.62098
G1 X195.389 Y109.473 E79.89344
G1 X197.722 Y108.17 E80.16008
G1 X200.076 Y106.767 E80.43352
G1 X202.322 Y105.34 E80.69903
G1 X204.563 Y103.827 E80.96883
G1 X206.77 Y102.244 E81.23983
G1 X208.938 Y100.593 E81.51174
G1 X210.999 Y98.931 E81.77593
G1 X213.082 Y97.15 E82.04938
G1 X215.081 Y95.341 E82.31839
G1 X217.015 Y93.49 E82.58551
G1 X218.934 Y91.546 E82.85807
G1 X220.768 Y89.577 E83.12656
G1 X222.55 Y87.553 E83.39564
G1 X224.266 Y85.49 E83.66339
G1 X225.943 Y83.356 E83.9342
G1 X227.559 Y81.173 E84.20521
G1 X229.092 Y78.974 E84.47268
G1 X230.615 Y76.654 E84.7496
G1 X231.14 Y75.814 E84.84844
G1 X231.248 Y75.649 E84.86811
G1 X231.301 Y75.572 E84.87744
